<?xml version="1.0" encoding="UTF-8"?>
<map version="1.10" tiledversion="1.11.2" orientation="orthogonal" renderorder="right-down" width="296" height="26" tilewidth="32" tileheight="32" infinite="0" nextlayerid="27" nextobjectid="971">
 <editorsettings>
  <export target="BossJupiter.json" format="json"/>
 </editorsettings>
 <tileset firstgid="1" name="MapaTiles" tilewidth="32" tileheight="32" tilecount="1776" columns="8">
  <image source="../assets/GameSprites/Tilesets/base_tileset.png" width="256" height="7104"/>
  <tile id="0">
   <objectgroup draworder="index">
    <object id="17" x="0" y="0" width="32" height="32"/>
   </objectgroup>
  </tile>
  <tile id="1">
   <objectgroup draworder="index">
    <object id="1" x="0" y="0" width="32" height="32"/>
   </objectgroup>
  </tile>
  <tile id="2">
   <objectgroup draworder="index">
    <object id="1" x="0" y="0" width="32" height="32"/>
   </objectgroup>
  </tile>
  <tile id="3">
   <objectgroup draworder="index">
    <object id="1" x="0" y="0" width="32" height="32"/>
   </objectgroup>
  </tile>
  <tile id="4">
   <objectgroup draworder="index">
    <object id="1" x="0" y="0" width="32" height="32"/>
   </objectgroup>
  </tile>
  <tile id="5">
   <objectgroup draworder="index">
    <object id="1" x="0" y="0" width="32" height="32"/>
   </objectgroup>
  </tile>
  <tile id="6">
   <objectgroup draworder="index">
    <object id="1" x="0" y="0" width="32" height="32"/>
   </objectgroup>
  </tile>
  <tile id="7">
   <objectgroup draworder="index">
    <object id="1" x="0" y="0" width="32" height="32"/>
   </objectgroup>
  </tile>
  <tile id="8">
   <objectgroup draworder="index">
    <object id="1" x="0" y="0" width="32" height="32"/>
   </objectgroup>
  </tile>
  <tile id="9">
   <objectgroup draworder="index">
    <object id="1" x="0" y="0" width="32" height="32"/>
   </objectgroup>
  </tile>
  <tile id="10">
   <objectgroup draworder="index">
    <object id="1" x="0" y="0" width="32" height="32"/>
   </objectgroup>
  </tile>
  <tile id="11">
   <objectgroup draworder="index">
    <object id="1" x="0" y="0" width="32" height="32"/>
   </objectgroup>
  </tile>
  <tile id="12">
   <objectgroup draworder="index">
    <object id="1" x="0" y="0" width="32" height="32"/>
   </objectgroup>
  </tile>
  <tile id="13">
   <objectgroup draworder="index">
    <object id="1" x="0" y="0" width="32" height="32"/>
   </objectgroup>
  </tile>
  <tile id="14">
   <objectgroup draworder="index">
    <object id="1" x="0" y="0" width="32" height="32"/>
   </objectgroup>
  </tile>
  <tile id="15">
   <objectgroup draworder="index">
    <object id="1" x="0" y="0" width="32" height="32"/>
   </objectgroup>
  </tile>
  <tile id="16">
   <objectgroup draworder="index">
    <object id="1" x="0" y="0" width="32" height="32"/>
   </objectgroup>
  </tile>
  <tile id="17">
   <objectgroup draworder="index">
    <object id="1" x="0" y="0" width="32" height="32"/>
   </objectgroup>
  </tile>
  <tile id="18">
   <objectgroup draworder="index">
    <object id="1" x="0" y="0" width="32" height="32"/>
   </objectgroup>
  </tile>
  <tile id="19">
   <objectgroup draworder="index">
    <object id="1" x="0" y="0" width="32" height="32"/>
   </objectgroup>
  </tile>
  <tile id="20">
   <objectgroup draworder="index">
    <object id="1" x="0" y="0" width="32" height="32"/>
   </objectgroup>
  </tile>
  <tile id="21">
   <objectgroup draworder="index">
    <object id="1" x="0" y="0" width="32" height="32"/>
   </objectgroup>
  </tile>
  <tile id="22">
   <objectgroup draworder="index">
    <object id="1" x="0" y="0" width="32" height="32"/>
   </objectgroup>
  </tile>
  <tile id="23">
   <objectgroup draworder="index">
    <object id="1" x="0" y="0" width="32" height="32"/>
   </objectgroup>
  </tile>
  <tile id="24">
   <objectgroup draworder="index">
    <object id="1" x="0" y="0" width="32" height="32"/>
   </objectgroup>
  </tile>
  <tile id="25">
   <objectgroup draworder="index">
    <object id="1" x="0" y="0" width="32" height="32"/>
   </objectgroup>
  </tile>
  <tile id="26">
   <objectgroup draworder="index">
    <object id="1" x="0" y="0" width="32" height="32"/>
   </objectgroup>
  </tile>
  <tile id="27">
   <objectgroup draworder="index">
    <object id="1" x="0" y="0" width="32" height="32"/>
   </objectgroup>
  </tile>
  <tile id="28">
   <objectgroup draworder="index">
    <object id="1" x="0" y="0" width="32" height="32"/>
   </objectgroup>
  </tile>
  <tile id="29">
   <objectgroup draworder="index">
    <object id="1" x="0" y="0" width="32" height="32"/>
   </objectgroup>
  </tile>
  <tile id="30">
   <objectgroup draworder="index">
    <object id="1" x="0" y="0" width="32" height="32"/>
   </objectgroup>
  </tile>
  <tile id="31">
   <objectgroup draworder="index">
    <object id="1" x="0" y="0" width="32" height="32"/>
   </objectgroup>
  </tile>
  <tile id="32">
   <objectgroup draworder="index">
    <object id="1" x="0" y="0" width="32" height="32"/>
   </objectgroup>
  </tile>
  <tile id="33">
   <objectgroup draworder="index">
    <object id="1" x="0" y="0" width="32" height="32"/>
   </objectgroup>
  </tile>
  <tile id="34">
   <objectgroup draworder="index">
    <object id="1" x="0" y="0" width="32" height="32"/>
   </objectgroup>
  </tile>
  <tile id="35">
   <objectgroup draworder="index">
    <object id="1" x="0" y="0" width="32" height="32"/>
   </objectgroup>
  </tile>
  <tile id="36">
   <objectgroup draworder="index">
    <object id="1" x="0" y="0" width="32" height="32"/>
   </objectgroup>
  </tile>
  <tile id="37">
   <objectgroup draworder="index">
    <object id="1" x="0" y="0" width="32" height="32"/>
   </objectgroup>
  </tile>
  <tile id="38">
   <objectgroup draworder="index">
    <object id="1" x="0" y="0" width="32" height="32"/>
   </objectgroup>
  </tile>
  <tile id="39">
   <objectgroup draworder="index">
    <object id="1" x="0" y="0" width="32" height="32"/>
   </objectgroup>
  </tile>
  <tile id="40">
   <objectgroup draworder="index">
    <object id="1" x="0" y="0" width="32" height="32"/>
   </objectgroup>
  </tile>
  <tile id="41">
   <objectgroup draworder="index">
    <object id="1" x="0" y="0" width="32" height="32"/>
   </objectgroup>
  </tile>
  <tile id="42">
   <objectgroup draworder="index">
    <object id="1" x="0" y="0" width="32" height="32"/>
   </objectgroup>
  </tile>
  <tile id="43">
   <objectgroup draworder="index">
    <object id="1" x="0" y="0" width="32" height="32"/>
   </objectgroup>
  </tile>
  <tile id="44">
   <objectgroup draworder="index">
    <object id="1" x="0" y="0" width="32" height="32"/>
   </objectgroup>
  </tile>
  <tile id="45">
   <objectgroup draworder="index">
    <object id="1" x="0" y="0" width="32" height="32"/>
   </objectgroup>
  </tile>
  <tile id="46">
   <objectgroup draworder="index">
    <object id="1" x="0" y="0" width="32" height="32"/>
   </objectgroup>
  </tile>
  <tile id="47">
   <objectgroup draworder="index">
    <object id="1" x="0" y="0" width="32" height="32"/>
   </objectgroup>
  </tile>
  <tile id="48">
   <objectgroup draworder="index">
    <object id="1" x="0" y="0" width="32" height="32"/>
   </objectgroup>
  </tile>
  <tile id="49">
   <objectgroup draworder="index">
    <object id="1" x="0" y="0" width="32" height="32"/>
   </objectgroup>
  </tile>
  <tile id="50">
   <objectgroup draworder="index">
    <object id="1" x="0" y="0" width="32" height="32"/>
   </objectgroup>
  </tile>
  <tile id="51">
   <objectgroup draworder="index">
    <object id="1" x="0" y="0" width="32" height="32"/>
   </objectgroup>
  </tile>
  <tile id="52">
   <objectgroup draworder="index">
    <object id="1" x="0" y="0" width="32" height="32"/>
   </objectgroup>
  </tile>
  <tile id="53">
   <objectgroup draworder="index">
    <object id="1" x="0" y="0" width="32" height="32"/>
   </objectgroup>
  </tile>
  <tile id="54">
   <objectgroup draworder="index">
    <object id="1" x="0" y="0" width="32" height="32"/>
   </objectgroup>
  </tile>
  <tile id="55">
   <objectgroup draworder="index">
    <object id="1" x="0" y="0" width="32" height="32"/>
   </objectgroup>
  </tile>
  <tile id="56">
   <objectgroup draworder="index">
    <object id="1" x="0" y="0" width="32" height="32"/>
   </objectgroup>
  </tile>
  <tile id="57">
   <objectgroup draworder="index">
    <object id="1" x="0" y="0" width="32" height="32"/>
   </objectgroup>
  </tile>
  <tile id="58">
   <objectgroup draworder="index">
    <object id="1" x="0" y="0" width="32" height="32"/>
   </objectgroup>
  </tile>
  <tile id="59">
   <objectgroup draworder="index">
    <object id="1" x="0" y="0" width="32" height="32"/>
   </objectgroup>
  </tile>
  <tile id="60">
   <objectgroup draworder="index">
    <object id="1" x="0" y="0" width="32" height="32"/>
   </objectgroup>
  </tile>
  <tile id="61">
   <objectgroup draworder="index">
    <object id="1" x="0" y="0" width="32" height="32"/>
   </objectgroup>
  </tile>
  <tile id="62">
   <objectgroup draworder="index">
    <object id="1" x="0" y="0" width="32" height="32"/>
   </objectgroup>
  </tile>
  <tile id="63">
   <objectgroup draworder="index">
    <object id="1" x="0" y="0" width="32" height="32"/>
   </objectgroup>
  </tile>
  <tile id="64">
   <objectgroup draworder="index">
    <object id="1" x="0" y="0" width="32" height="32"/>
   </objectgroup>
  </tile>
  <tile id="65">
   <objectgroup draworder="index">
    <object id="1" x="0" y="0" width="32" height="32"/>
   </objectgroup>
  </tile>
  <tile id="66">
   <objectgroup draworder="index">
    <object id="1" x="0" y="0" width="32" height="32"/>
   </objectgroup>
  </tile>
  <tile id="67">
   <objectgroup draworder="index">
    <object id="1" x="0" y="0" width="32" height="32"/>
   </objectgroup>
  </tile>
  <tile id="68">
   <objectgroup draworder="index">
    <object id="1" x="0" y="0" width="32" height="32"/>
   </objectgroup>
  </tile>
  <tile id="69">
   <objectgroup draworder="index">
    <object id="1" x="0" y="0" width="32" height="32"/>
   </objectgroup>
  </tile>
  <tile id="70">
   <objectgroup draworder="index">
    <object id="1" x="0" y="0" width="32" height="32"/>
   </objectgroup>
  </tile>
  <tile id="72">
   <objectgroup draworder="index">
    <object id="1" x="0" y="0" width="32" height="32"/>
   </objectgroup>
  </tile>
  <tile id="73">
   <objectgroup draworder="index">
    <object id="1" x="0" y="0" width="32" height="32"/>
   </objectgroup>
  </tile>
  <tile id="74">
   <objectgroup draworder="index">
    <object id="1" x="0" y="0" width="32" height="32"/>
   </objectgroup>
  </tile>
  <tile id="75">
   <objectgroup draworder="index">
    <object id="1" x="0" y="0" width="32" height="32"/>
   </objectgroup>
  </tile>
  <tile id="76">
   <objectgroup draworder="index">
    <object id="1" x="0" y="0" width="32" height="32"/>
   </objectgroup>
  </tile>
  <tile id="77">
   <objectgroup draworder="index">
    <object id="1" x="0" y="0" width="32" height="32"/>
   </objectgroup>
  </tile>
  <tile id="78">
   <objectgroup draworder="index">
    <object id="1" x="0" y="0" width="32" height="32"/>
   </objectgroup>
  </tile>
  <tile id="79">
   <objectgroup draworder="index">
    <object id="1" x="0" y="0" width="32" height="32"/>
   </objectgroup>
  </tile>
  <tile id="80">
   <objectgroup draworder="index">
    <object id="1" x="0" y="0" width="32" height="32"/>
   </objectgroup>
  </tile>
  <tile id="81">
   <objectgroup draworder="index">
    <object id="1" x="0" y="0" width="32" height="32"/>
   </objectgroup>
  </tile>
  <tile id="82">
   <objectgroup draworder="index">
    <object id="1" x="0" y="0" width="32" height="32"/>
   </objectgroup>
  </tile>
  <tile id="83">
   <objectgroup draworder="index">
    <object id="1" x="0" y="0" width="32" height="32"/>
   </objectgroup>
  </tile>
  <tile id="84">
   <objectgroup draworder="index">
    <object id="1" x="0" y="0" width="32" height="32"/>
   </objectgroup>
  </tile>
  <tile id="85">
   <objectgroup draworder="index">
    <object id="1" x="0" y="0" width="32" height="32"/>
   </objectgroup>
  </tile>
  <tile id="86">
   <objectgroup draworder="index">
    <object id="1" x="0" y="0" width="32" height="32"/>
   </objectgroup>
  </tile>
  <tile id="87">
   <objectgroup draworder="index">
    <object id="1" x="0" y="0" width="32" height="32"/>
   </objectgroup>
  </tile>
  <tile id="88">
   <objectgroup draworder="index">
    <object id="1" x="32" y="0.181818">
     <polygon points="0,0 -3.81818,-0.181818 -32.1818,13.7273 -31.9091,31.6364 0,31.8182"/>
    </object>
   </objectgroup>
  </tile>
  <tile id="89">
   <objectgroup draworder="index">
    <object id="1" x="0.0909091" y="0.272727">
     <polygon points="0,0 0,31.9091 31.7273,31.8182 32,13.6364 3.18182,-0.454545"/>
    </object>
   </objectgroup>
  </tile>
  <tile id="90">
   <objectgroup draworder="index">
    <object id="1" x="0" y="0" width="32" height="32"/>
   </objectgroup>
  </tile>
  <tile id="91">
   <objectgroup draworder="index">
    <object id="1" x="0" y="0" width="32" height="32"/>
   </objectgroup>
  </tile>
  <tile id="92">
   <objectgroup draworder="index">
    <object id="1" x="0" y="0" width="32" height="32"/>
   </objectgroup>
  </tile>
  <tile id="93">
   <objectgroup draworder="index">
    <object id="1" x="0" y="0" width="32" height="32"/>
   </objectgroup>
  </tile>
  <tile id="94">
   <objectgroup draworder="index">
    <object id="1" x="0" y="0" width="32" height="32"/>
   </objectgroup>
  </tile>
  <tile id="95">
   <objectgroup draworder="index">
    <object id="1" x="0" y="0" width="32" height="32"/>
   </objectgroup>
  </tile>
  <tile id="96">
   <objectgroup draworder="index">
    <object id="1" x="0" y="0" width="32" height="32"/>
   </objectgroup>
  </tile>
  <tile id="97">
   <objectgroup draworder="index">
    <object id="1" x="0" y="0" width="32" height="32"/>
   </objectgroup>
  </tile>
  <tile id="98">
   <objectgroup draworder="index">
    <object id="1" x="0" y="0" width="32" height="32"/>
   </objectgroup>
  </tile>
  <tile id="99">
   <objectgroup draworder="index">
    <object id="1" x="0" y="0" width="32" height="32"/>
   </objectgroup>
  </tile>
  <tile id="100">
   <objectgroup draworder="index">
    <object id="1" x="0" y="0" width="32" height="32"/>
   </objectgroup>
  </tile>
  <tile id="101">
   <objectgroup draworder="index">
    <object id="1" x="0" y="0" width="32" height="32"/>
   </objectgroup>
  </tile>
  <tile id="102">
   <objectgroup draworder="index">
    <object id="1" x="0" y="0" width="32" height="32"/>
   </objectgroup>
  </tile>
  <tile id="103">
   <objectgroup draworder="index">
    <object id="1" x="0" y="0" width="32" height="32"/>
   </objectgroup>
  </tile>
  <tile id="104">
   <objectgroup draworder="index">
    <object id="1" x="0" y="0" width="32" height="32"/>
   </objectgroup>
  </tile>
  <tile id="105">
   <objectgroup draworder="index">
    <object id="1" x="0" y="0" width="32" height="32"/>
   </objectgroup>
  </tile>
  <tile id="106">
   <objectgroup draworder="index">
    <object id="1" x="0" y="0" width="32" height="32"/>
   </objectgroup>
  </tile>
  <tile id="107">
   <objectgroup draworder="index">
    <object id="1" x="0" y="0" width="32" height="32"/>
   </objectgroup>
  </tile>
  <tile id="108">
   <objectgroup draworder="index">
    <object id="1" x="0" y="0" width="32" height="32"/>
   </objectgroup>
  </tile>
  <tile id="109">
   <objectgroup draworder="index">
    <object id="1" x="0" y="0" width="32" height="32"/>
   </objectgroup>
  </tile>
  <tile id="110">
   <objectgroup draworder="index">
    <object id="1" x="0" y="0" width="32" height="32"/>
   </objectgroup>
  </tile>
  <tile id="111">
   <objectgroup draworder="index">
    <object id="1" x="0" y="0" width="32" height="32"/>
   </objectgroup>
  </tile>
  <tile id="112">
   <objectgroup draworder="index">
    <object id="1" x="0.272727" y="18">
     <polygon points="0,0 27.8182,13.8182 31.7273,14 31.6364,-18 -0.363636,-17.9091"/>
    </object>
   </objectgroup>
  </tile>
  <tile id="113">
   <objectgroup draworder="index">
    <object id="1" x="0.0909091" y="32">
     <polygon points="0,0 3.72727,0 31.8182,-14.0909 31.8182,-31.9091 0.0909091,-31.8182"/>
    </object>
   </objectgroup>
  </tile>
  <tile id="114">
   <objectgroup draworder="index">
    <object id="1" x="0" y="0" width="32" height="32"/>
   </objectgroup>
  </tile>
  <tile id="115">
   <objectgroup draworder="index">
    <object id="1" x="0" y="0" width="32" height="32"/>
   </objectgroup>
  </tile>
  <tile id="116">
   <objectgroup draworder="index">
    <object id="1" x="0" y="0" width="32" height="32"/>
   </objectgroup>
  </tile>
  <tile id="117">
   <objectgroup draworder="index">
    <object id="1" x="0" y="0" width="32" height="32"/>
   </objectgroup>
  </tile>
  <tile id="118">
   <objectgroup draworder="index">
    <object id="1" x="0" y="0" width="32" height="32"/>
   </objectgroup>
  </tile>
  <tile id="119">
   <objectgroup draworder="index">
    <object id="1" x="0" y="0" width="32" height="32"/>
   </objectgroup>
  </tile>
  <tile id="120">
   <objectgroup draworder="index">
    <object id="1" x="30.5037" y="0.216851">
     <polygon points="0,0 -30.3592,29.8532 -30.4314,31.588 1.37339,31.7326 1.44567,-0.433702"/>
    </object>
   </objectgroup>
  </tile>
  <tile id="121">
   <objectgroup draworder="index">
    <object id="1" x="1.66253" y="-0.0722837">
     <polygon points="0,0 29.9255,29.8532 30.2869,31.7326 -1.59024,32.0217 -1.80709,0"/>
    </object>
   </objectgroup>
  </tile>
  <tile id="122">
   <objectgroup draworder="index">
    <object id="1" x="-0.181818" y="30.2727">
     <polygon points="0,0 30.3636,-30.4545 32.0909,-30.4545 32.1818,1.27273 0.272727,1.72727"/>
    </object>
   </objectgroup>
  </tile>
  <tile id="123">
   <objectgroup draworder="index">
    <object id="1" x="0.0909091" y="0.181818">
     <polygon points="0,0 0.0909091,31.5455 31.8182,31.7273 31.8182,29.7273 1.54545,-0.181818"/>
    </object>
   </objectgroup>
  </tile>
  <tile id="124">
   <objectgroup draworder="index">
    <object id="1" x="0" y="0" width="32" height="32"/>
   </objectgroup>
  </tile>
  <tile id="125">
   <objectgroup draworder="index">
    <object id="1" x="0" y="0" width="32" height="32"/>
   </objectgroup>
  </tile>
  <tile id="126">
   <objectgroup draworder="index">
    <object id="1" x="0" y="0" width="32" height="32"/>
   </objectgroup>
  </tile>
  <tile id="127">
   <objectgroup draworder="index">
    <object id="1" x="0" y="0" width="32" height="32"/>
   </objectgroup>
  </tile>
  <tile id="128">
   <objectgroup draworder="index">
    <object id="1" x="0" y="0" width="32" height="32"/>
   </objectgroup>
  </tile>
  <tile id="129">
   <objectgroup draworder="index">
    <object id="1" x="0" y="0" width="32" height="32"/>
   </objectgroup>
  </tile>
  <tile id="130">
   <objectgroup draworder="index">
    <object id="1" x="0.272727" y="32.1818">
     <polygon points="0,0 1.54545,-0.363636 31.5455,-30.6364 31.6364,-32.0909 -0.272727,-32"/>
    </object>
   </objectgroup>
  </tile>
  <tile id="131">
   <objectgroup draworder="index">
    <object id="1" x="32.0909" y="31.9091">
     <polygon points="0,0 -1.72727,0 -32.1818,-30.5455 -32.1818,-32 -0.272727,-31.8182"/>
    </object>
   </objectgroup>
  </tile>
  <tile id="132">
   <objectgroup draworder="index">
    <object id="1" x="0" y="0" width="32" height="32"/>
   </objectgroup>
  </tile>
  <tile id="133">
   <objectgroup draworder="index">
    <object id="1" x="0" y="0" width="32" height="32"/>
   </objectgroup>
  </tile>
  <tile id="134">
   <objectgroup draworder="index">
    <object id="1" x="0" y="0" width="32" height="32"/>
   </objectgroup>
  </tile>
  <tile id="135">
   <objectgroup draworder="index">
    <object id="1" x="0" y="0" width="32" height="32"/>
   </objectgroup>
  </tile>
  <tile id="136">
   <objectgroup draworder="index">
    <object id="1" x="0" y="0" width="32" height="32"/>
   </objectgroup>
  </tile>
  <tile id="137">
   <objectgroup draworder="index">
    <object id="1" x="0" y="0" width="32" height="32"/>
   </objectgroup>
  </tile>
  <tile id="138">
   <objectgroup draworder="index">
    <object id="1" x="32.0909" y="0.272727">
     <polygon points="0,0 -1.81818,-0.181818 -32,29.7273 -32,31.5455 -0.0909091,31.6364"/>
    </object>
   </objectgroup>
  </tile>
  <tile id="139">
   <objectgroup draworder="index">
    <object id="1" x="0.181818" y="0.181818">
     <polygon points="0,0 -0.0909091,31.6364 31.7273,31.6364 31.7273,29.9091 1.36364,-0.363636"/>
    </object>
   </objectgroup>
  </tile>
  <tile id="140">
   <objectgroup draworder="index">
    <object id="1" x="0" y="0" width="32" height="32"/>
   </objectgroup>
  </tile>
  <tile id="141">
   <objectgroup draworder="index">
    <object id="1" x="0" y="0" width="32" height="32"/>
   </objectgroup>
  </tile>
  <tile id="142">
   <objectgroup draworder="index">
    <object id="1" x="0" y="0" width="32" height="32"/>
   </objectgroup>
  </tile>
  <tile id="143">
   <objectgroup draworder="index">
    <object id="1" x="0" y="0" width="32" height="32"/>
   </objectgroup>
  </tile>
  <tile id="144">
   <objectgroup draworder="index">
    <object id="1" x="0.181818" y="1.72727">
     <polygon points="0,0 30,30.0909 31.5455,30.1818 31.6364,-1.81818 -0.181818,-1.63636"/>
    </object>
   </objectgroup>
  </tile>
  <tile id="145">
   <objectgroup draworder="index">
    <object id="1" x="2.09091" y="32">
     <polygon points="0,0 29.9091,-30.1818 29.8182,-32.0909 -2,-31.9091 -2.09091,-0.454545"/>
    </object>
   </objectgroup>
  </tile>
  <tile id="146">
   <objectgroup draworder="index">
    <object id="1" x="0.363636" y="2">
     <polygon points="0,0 29.7273,29.6364 31.3636,29.7273 31.7273,-2.09091 -0.363636,-2.27273"/>
    </object>
   </objectgroup>
  </tile>
  <tile id="147">
   <objectgroup draworder="index">
    <object id="1" x="0.181818" y="32.0909">
     <polygon points="0,0 1.72727,-0.181818 31.8182,-30.2727 31.9091,-32.1818 -0.272727,-32.0909"/>
    </object>
   </objectgroup>
  </tile>
  <tile id="148">
   <objectgroup draworder="index">
    <object id="1" x="0" y="0" width="32" height="32"/>
   </objectgroup>
  </tile>
  <tile id="149">
   <objectgroup draworder="index">
    <object id="1" x="0" y="0" width="32" height="32"/>
   </objectgroup>
  </tile>
  <tile id="150">
   <objectgroup draworder="index">
    <object id="1" x="0" y="0" width="32" height="32"/>
   </objectgroup>
  </tile>
  <tile id="151">
   <objectgroup draworder="index">
    <object id="1" x="0" y="0" width="32" height="32"/>
   </objectgroup>
  </tile>
  <tile id="152">
   <objectgroup draworder="index">
    <object id="1" x="0" y="30.1818">
     <polygon points="0,0 28.5455,-14.0909 31.9091,-14.2727 31.9091,1.63636 0.0909091,1.54545"/>
    </object>
   </objectgroup>
  </tile>
  <tile id="153">
   <objectgroup draworder="index">
    <object id="1" x="0.272727" y="14.0909">
     <polygon points="0,0 28,-13.9091 31.5455,-14 31.5455,17.8182 -0.272727,17.8182"/>
    </object>
   </objectgroup>
  </tile>
  <tile id="154">
   <objectgroup draworder="index">
    <object id="1" x="0.181818" y="0.272727">
     <polygon points="0,0 3.54545,-0.0909091 31.8182,13.8182 32,31.2727 -0.0909091,31.7273"/>
    </object>
   </objectgroup>
  </tile>
  <tile id="155">
   <objectgroup draworder="index">
    <object id="1" x="0.181818" y="15.7273">
     <polygon points="0,0 3.27273,0.181818 31.5455,14 31.7273,15.8182 -0.181818,16.4545"/>
    </object>
   </objectgroup>
  </tile>
  <tile id="156">
   <objectgroup draworder="index">
    <object id="1" x="0" y="0" width="32" height="32"/>
   </objectgroup>
  </tile>
  <tile id="157">
   <objectgroup draworder="index">
    <object id="1" x="0" y="0" width="32" height="32"/>
   </objectgroup>
  </tile>
  <tile id="158">
   <objectgroup draworder="index">
    <object id="1" x="0" y="0" width="32" height="32"/>
   </objectgroup>
  </tile>
  <tile id="159">
   <objectgroup draworder="index">
    <object id="1" x="0" y="0" width="32" height="32"/>
   </objectgroup>
  </tile>
  <tile id="160">
   <objectgroup draworder="index">
    <object id="1" x="0" y="0" width="32" height="32"/>
   </objectgroup>
  </tile>
  <tile id="161">
   <objectgroup draworder="index">
    <object id="1" x="0" y="0" width="32" height="32"/>
   </objectgroup>
  </tile>
  <tile id="162">
   <objectgroup draworder="index">
    <object id="1" x="0" y="0" width="32" height="32"/>
   </objectgroup>
  </tile>
  <tile id="163">
   <objectgroup draworder="index">
    <object id="1" x="0" y="0" width="32" height="32"/>
   </objectgroup>
  </tile>
  <tile id="164">
   <objectgroup draworder="index">
    <object id="1" x="0" y="0" width="32" height="32"/>
   </objectgroup>
  </tile>
  <tile id="165">
   <objectgroup draworder="index">
    <object id="1" x="0" y="0" width="32" height="32"/>
   </objectgroup>
  </tile>
  <tile id="166">
   <objectgroup draworder="index">
    <object id="1" x="0" y="0" width="32" height="32"/>
   </objectgroup>
  </tile>
  <tile id="167">
   <objectgroup draworder="index">
    <object id="1" x="0" y="0" width="32" height="32"/>
   </objectgroup>
  </tile>
  <tile id="168">
   <objectgroup draworder="index">
    <object id="1" x="0" y="0" width="32" height="32"/>
   </objectgroup>
  </tile>
  <tile id="169">
   <objectgroup draworder="index">
    <object id="1" x="0" y="0" width="32" height="32"/>
   </objectgroup>
  </tile>
  <tile id="170">
   <objectgroup draworder="index">
    <object id="1" x="0" y="0" width="32" height="32"/>
   </objectgroup>
  </tile>
  <tile id="171">
   <objectgroup draworder="index">
    <object id="1" x="0" y="0" width="32" height="32"/>
   </objectgroup>
  </tile>
  <tile id="172">
   <objectgroup draworder="index">
    <object id="1" x="0.181818" y="30.4545">
     <polygon points="0,0 28,-14.4545 31.9091,-14.4545 31.9091,1.54545 -0.181818,1.54545"/>
    </object>
   </objectgroup>
  </tile>
  <tile id="173">
   <objectgroup draworder="index">
    <object id="1" x="0.272727" y="14.3636">
     <polygon points="0,0 27.9091,-14.1818 31.5455,-14.2727 31.9091,17.3636 -0.0909091,17.6364"/>
    </object>
   </objectgroup>
  </tile>
  <tile id="174">
   <objectgroup draworder="index">
    <object id="1" x="-0.0909091" y="0.0909091">
     <polygon points="0,0 4,0 32,14.0909 32.1818,31.8182 0.0909091,31.9091"/>
    </object>
   </objectgroup>
  </tile>
  <tile id="175">
   <objectgroup draworder="index">
    <object id="1" x="0" y="15.8182">
     <polygon points="0,0 3.63636,0 31.7273,14.1818 32,16 0,16"/>
    </object>
   </objectgroup>
  </tile>
  <tile id="176">
   <objectgroup draworder="index">
    <object id="1" x="32.0909" y="15.9091">
     <polygon points="0,0 -4,0 -32.0909,-14.1818 -32.0909,-15.8182 0,-15.8182"/>
    </object>
   </objectgroup>
  </tile>
  <tile id="177">
   <objectgroup draworder="index">
    <object id="1" x="31.9091" y="32">
     <polygon points="0,0 -3.81818,-0.0909091 -32.0909,-14.2727 -32.0909,-32.1818 0,-31.9091"/>
    </object>
   </objectgroup>
  </tile>
  <tile id="178">
   <objectgroup draworder="index">
    <object id="1" x="3.90909" y="31.7273">
     <polygon points="0,0 28,-13.9091 27.8182,-31.5455 -3.72727,-31.6364 -3.90909,-0.181818"/>
    </object>
   </objectgroup>
  </tile>
  <tile id="179">
   <objectgroup draworder="index">
    <object id="1" x="0.181818" y="16.0909">
     <polygon points="0,0 3.54545,-0.181818 31.8182,-14.2727 31.7273,-16.0909 -0.0909091,-16"/>
    </object>
   </objectgroup>
  </tile>
  <tile id="180">
   <objectgroup draworder="index">
    <object id="1" x="0.363636" y="32">
     <polygon points="0,0 3.36364,-0.0909091 31.4545,-14.0909 31.6364,-32 -0.363636,-31.9091"/>
    </object>
   </objectgroup>
  </tile>
  <tile id="181">
   <objectgroup draworder="index">
    <object id="1" x="0.0909091" y="15.9091">
     <polygon points="0,0 3.81818,0 31.8182,-14.1818 31.8182,-15.8182 0,-15.8182"/>
    </object>
   </objectgroup>
  </tile>
  <tile id="182">
   <objectgroup draworder="index">
    <object id="1" x="0.181818" y="2">
     <polygon points="0,0 27.9091,13.8182 31.8182,13.7273 31.9091,-2 -0.363636,-1.81818"/>
    </object>
   </objectgroup>
  </tile>
  <tile id="183">
   <objectgroup draworder="index">
    <object id="1" x="0.272727" y="18">
     <polygon points="0,0 27.7273,13.7273 31.8182,13.6364 31.5455,-18.0909 -0.272727,-18.0909"/>
    </object>
   </objectgroup>
  </tile>
  <tile id="184">
   <objectgroup draworder="index">
    <object id="1" x="0" y="0" width="32" height="32"/>
   </objectgroup>
  </tile>
  <tile id="185">
   <objectgroup draworder="index">
    <object id="1" x="0" y="0" width="32" height="32"/>
   </objectgroup>
  </tile>
  <tile id="186">
   <objectgroup draworder="index">
    <object id="1" x="0" y="0" width="32" height="32"/>
   </objectgroup>
  </tile>
  <tile id="187">
   <objectgroup draworder="index">
    <object id="1" x="0" y="0" width="32" height="32"/>
   </objectgroup>
  </tile>
  <tile id="188">
   <objectgroup draworder="index">
    <object id="1" x="0" y="0" width="32" height="32"/>
   </objectgroup>
  </tile>
  <tile id="189">
   <objectgroup draworder="index">
    <object id="1" x="0" y="0" width="32" height="32"/>
   </objectgroup>
  </tile>
  <tile id="190">
   <objectgroup draworder="index">
    <object id="1" x="0" y="0" width="32" height="32"/>
   </objectgroup>
  </tile>
  <tile id="191">
   <objectgroup draworder="index">
    <object id="1" x="0" y="0" width="32" height="32"/>
   </objectgroup>
  </tile>
  <tile id="192">
   <objectgroup draworder="index">
    <object id="1" x="0" y="0" width="32" height="32"/>
   </objectgroup>
  </tile>
  <tile id="193">
   <objectgroup draworder="index">
    <object id="1" x="0" y="0" width="32" height="32"/>
   </objectgroup>
  </tile>
  <tile id="194">
   <objectgroup draworder="index">
    <object id="1" x="0" y="0" width="32" height="32"/>
   </objectgroup>
  </tile>
  <tile id="195">
   <objectgroup draworder="index">
    <object id="1" x="0" y="0" width="32" height="32"/>
   </objectgroup>
  </tile>
  <tile id="196">
   <objectgroup draworder="index">
    <object id="1" x="0" y="0" width="32" height="32"/>
   </objectgroup>
  </tile>
  <tile id="197">
   <objectgroup draworder="index">
    <object id="1" x="0" y="0" width="32" height="32"/>
   </objectgroup>
  </tile>
  <tile id="198">
   <objectgroup draworder="index">
    <object id="1" x="0" y="0" width="32" height="32"/>
   </objectgroup>
  </tile>
  <tile id="199">
   <objectgroup draworder="index">
    <object id="1" x="0" y="0" width="32" height="32"/>
   </objectgroup>
  </tile>
  <tile id="200">
   <objectgroup draworder="index">
    <object id="1" x="0" y="0" width="32" height="32"/>
   </objectgroup>
  </tile>
  <tile id="201">
   <objectgroup draworder="index">
    <object id="1" x="0" y="0" width="32" height="32"/>
   </objectgroup>
  </tile>
  <tile id="202">
   <objectgroup draworder="index">
    <object id="1" x="0" y="0" width="32" height="32"/>
   </objectgroup>
  </tile>
  <tile id="203">
   <objectgroup draworder="index">
    <object id="1" x="0" y="0" width="32" height="32"/>
   </objectgroup>
  </tile>
  <tile id="204">
   <objectgroup draworder="index">
    <object id="1" x="0" y="0" width="32" height="32"/>
   </objectgroup>
  </tile>
  <tile id="205">
   <objectgroup draworder="index">
    <object id="1" x="0" y="0" width="32" height="32"/>
   </objectgroup>
  </tile>
  <tile id="206">
   <objectgroup draworder="index">
    <object id="1" x="0" y="0" width="32" height="32"/>
   </objectgroup>
  </tile>
  <tile id="207">
   <objectgroup draworder="index">
    <object id="1" x="0" y="0" width="32" height="32"/>
   </objectgroup>
  </tile>
  <tile id="208">
   <objectgroup draworder="index">
    <object id="1" x="0" y="0" width="32" height="32"/>
   </objectgroup>
  </tile>
  <tile id="209">
   <objectgroup draworder="index">
    <object id="1" x="0" y="0" width="32" height="32"/>
   </objectgroup>
  </tile>
  <tile id="210">
   <objectgroup draworder="index">
    <object id="1" x="0" y="0" width="32" height="32"/>
   </objectgroup>
  </tile>
  <tile id="211">
   <objectgroup draworder="index">
    <object id="1" x="0" y="0" width="32" height="32"/>
   </objectgroup>
  </tile>
  <tile id="212">
   <objectgroup draworder="index">
    <object id="1" x="0" y="0" width="32" height="32"/>
   </objectgroup>
  </tile>
  <tile id="213">
   <objectgroup draworder="index">
    <object id="1" x="0" y="0" width="32" height="32"/>
   </objectgroup>
  </tile>
  <tile id="214">
   <objectgroup draworder="index">
    <object id="1" x="0" y="0" width="32" height="32"/>
   </objectgroup>
  </tile>
  <tile id="215">
   <objectgroup draworder="index">
    <object id="1" x="0" y="0" width="32" height="32"/>
   </objectgroup>
  </tile>
  <tile id="216">
   <objectgroup draworder="index">
    <object id="1" x="0" y="0" width="32" height="32"/>
   </objectgroup>
  </tile>
  <tile id="217">
   <objectgroup draworder="index">
    <object id="1" x="0" y="0" width="32" height="32"/>
   </objectgroup>
  </tile>
  <tile id="218">
   <objectgroup draworder="index">
    <object id="1" x="0" y="0" width="32" height="32"/>
   </objectgroup>
  </tile>
  <tile id="219">
   <objectgroup draworder="index">
    <object id="1" x="0" y="0" width="32" height="32"/>
   </objectgroup>
  </tile>
  <tile id="220">
   <objectgroup draworder="index">
    <object id="1" x="0" y="0" width="32" height="32"/>
   </objectgroup>
  </tile>
  <tile id="221">
   <objectgroup draworder="index">
    <object id="1" x="0" y="0" width="32" height="32"/>
   </objectgroup>
  </tile>
  <tile id="222">
   <objectgroup draworder="index">
    <object id="1" x="0" y="0" width="32" height="32"/>
   </objectgroup>
  </tile>
  <tile id="223">
   <objectgroup draworder="index">
    <object id="1" x="0" y="0" width="32" height="32"/>
   </objectgroup>
  </tile>
  <tile id="224">
   <objectgroup draworder="index">
    <object id="1" x="0" y="0" width="32" height="32"/>
   </objectgroup>
  </tile>
  <tile id="225">
   <objectgroup draworder="index">
    <object id="1" x="0" y="0" width="32" height="32"/>
   </objectgroup>
  </tile>
  <tile id="226">
   <objectgroup draworder="index">
    <object id="1" x="0" y="0" width="32" height="32"/>
   </objectgroup>
  </tile>
  <tile id="227">
   <objectgroup draworder="index">
    <object id="1" x="0" y="0" width="32" height="32"/>
   </objectgroup>
  </tile>
  <tile id="228">
   <objectgroup draworder="index">
    <object id="1" x="0" y="0" width="32" height="32"/>
   </objectgroup>
  </tile>
  <tile id="229">
   <objectgroup draworder="index">
    <object id="1" x="0" y="0" width="32" height="32"/>
   </objectgroup>
  </tile>
  <tile id="230">
   <objectgroup draworder="index">
    <object id="1" x="0" y="0" width="32" height="32"/>
   </objectgroup>
  </tile>
  <tile id="231">
   <objectgroup draworder="index">
    <object id="1" x="0" y="0" width="32" height="32"/>
   </objectgroup>
  </tile>
  <tile id="232">
   <objectgroup draworder="index">
    <object id="1" x="0" y="0" width="32" height="32"/>
   </objectgroup>
  </tile>
  <tile id="233">
   <objectgroup draworder="index">
    <object id="1" x="0" y="0" width="32" height="32"/>
   </objectgroup>
  </tile>
  <tile id="234">
   <objectgroup draworder="index">
    <object id="1" x="0" y="0" width="32" height="32"/>
   </objectgroup>
  </tile>
  <tile id="235">
   <objectgroup draworder="index">
    <object id="1" x="0" y="0" width="32" height="32"/>
   </objectgroup>
  </tile>
  <tile id="236">
   <objectgroup draworder="index">
    <object id="1" x="0" y="0" width="32" height="32"/>
   </objectgroup>
  </tile>
  <tile id="237">
   <objectgroup draworder="index">
    <object id="1" x="0" y="0" width="32" height="32"/>
   </objectgroup>
  </tile>
  <tile id="238">
   <objectgroup draworder="index">
    <object id="1" x="0" y="0" width="32" height="32"/>
   </objectgroup>
  </tile>
  <tile id="239">
   <objectgroup draworder="index">
    <object id="1" x="0" y="0" width="32" height="32"/>
   </objectgroup>
  </tile>
  <tile id="240">
   <objectgroup draworder="index">
    <object id="1" x="0" y="0" width="32" height="32"/>
   </objectgroup>
  </tile>
  <tile id="241">
   <objectgroup draworder="index">
    <object id="1" x="0" y="0" width="32" height="32"/>
   </objectgroup>
  </tile>
  <tile id="242">
   <objectgroup draworder="index">
    <object id="1" x="0" y="0" width="32" height="32"/>
   </objectgroup>
  </tile>
  <tile id="243">
   <objectgroup draworder="index">
    <object id="1" x="0" y="0" width="32" height="32"/>
   </objectgroup>
  </tile>
  <tile id="244">
   <objectgroup draworder="index">
    <object id="1" x="0" y="0" width="32" height="32"/>
   </objectgroup>
  </tile>
  <tile id="245">
   <objectgroup draworder="index">
    <object id="1" x="0" y="0" width="32" height="32"/>
   </objectgroup>
  </tile>
  <tile id="246">
   <objectgroup draworder="index">
    <object id="1" x="0" y="0" width="32" height="32"/>
   </objectgroup>
  </tile>
  <tile id="247">
   <objectgroup draworder="index">
    <object id="1" x="0" y="0" width="32" height="32"/>
   </objectgroup>
  </tile>
  <tile id="248">
   <objectgroup draworder="index">
    <object id="1" x="0" y="0" width="32" height="32"/>
   </objectgroup>
  </tile>
  <tile id="249">
   <objectgroup draworder="index">
    <object id="1" x="0" y="0" width="32" height="32"/>
   </objectgroup>
  </tile>
  <tile id="250">
   <objectgroup draworder="index">
    <object id="1" x="0" y="0" width="32" height="32"/>
   </objectgroup>
  </tile>
  <tile id="251">
   <objectgroup draworder="index">
    <object id="1" x="0" y="0" width="32" height="32"/>
   </objectgroup>
  </tile>
  <tile id="252">
   <objectgroup draworder="index">
    <object id="1" x="0" y="0" width="32" height="32"/>
   </objectgroup>
  </tile>
  <tile id="253">
   <objectgroup draworder="index">
    <object id="1" x="0" y="0" width="32" height="32"/>
   </objectgroup>
  </tile>
  <tile id="254">
   <objectgroup draworder="index">
    <object id="1" x="0" y="0" width="32" height="32"/>
   </objectgroup>
  </tile>
  <tile id="256">
   <objectgroup draworder="index">
    <object id="1" x="0" y="0" width="32" height="32"/>
   </objectgroup>
  </tile>
  <tile id="257">
   <objectgroup draworder="index">
    <object id="1" x="0" y="0" width="32" height="32"/>
   </objectgroup>
  </tile>
  <tile id="258">
   <objectgroup draworder="index">
    <object id="1" x="0" y="0" width="32" height="32"/>
   </objectgroup>
  </tile>
  <tile id="259">
   <objectgroup draworder="index">
    <object id="1" x="0" y="0" width="32" height="32"/>
   </objectgroup>
  </tile>
  <tile id="260">
   <objectgroup draworder="index">
    <object id="1" x="0" y="0" width="32" height="32"/>
   </objectgroup>
  </tile>
  <tile id="261">
   <objectgroup draworder="index">
    <object id="1" x="0" y="0" width="32" height="32"/>
   </objectgroup>
  </tile>
  <tile id="262">
   <objectgroup draworder="index">
    <object id="1" x="0" y="0" width="32" height="32"/>
   </objectgroup>
  </tile>
  <tile id="263">
   <objectgroup draworder="index">
    <object id="1" x="0" y="0" width="32" height="32"/>
   </objectgroup>
  </tile>
  <tile id="264">
   <objectgroup draworder="index">
    <object id="1" x="0" y="0" width="32" height="32"/>
   </objectgroup>
  </tile>
  <tile id="265">
   <objectgroup draworder="index">
    <object id="1" x="0" y="0" width="32" height="32"/>
   </objectgroup>
  </tile>
  <tile id="266">
   <objectgroup draworder="index">
    <object id="1" x="0" y="0" width="32" height="32"/>
   </objectgroup>
  </tile>
  <tile id="267">
   <objectgroup draworder="index">
    <object id="1" x="0" y="0" width="32" height="32"/>
   </objectgroup>
  </tile>
  <tile id="268">
   <objectgroup draworder="index">
    <object id="1" x="0" y="0" width="32" height="32"/>
   </objectgroup>
  </tile>
  <tile id="269">
   <objectgroup draworder="index">
    <object id="1" x="0" y="0" width="32" height="32"/>
   </objectgroup>
  </tile>
  <tile id="270">
   <objectgroup draworder="index">
    <object id="1" x="0" y="0" width="32" height="32"/>
   </objectgroup>
  </tile>
  <tile id="271">
   <objectgroup draworder="index">
    <object id="1" x="0" y="0" width="32" height="32"/>
   </objectgroup>
  </tile>
  <tile id="272">
   <objectgroup draworder="index">
    <object id="3" x="32.0909" y="0.181818">
     <polygon points="0,0 -3.81818,-0.181818 -32.1818,13.7273 -31.9091,31.6364 0,31.8182"/>
    </object>
   </objectgroup>
  </tile>
  <tile id="274">
   <objectgroup draworder="index">
    <object id="1" x="0" y="0" width="32" height="32"/>
   </objectgroup>
  </tile>
  <tile id="275">
   <objectgroup draworder="index">
    <object id="1" x="0" y="0" width="32" height="32"/>
   </objectgroup>
  </tile>
  <tile id="276">
   <objectgroup draworder="index">
    <object id="1" x="0" y="0" width="32" height="32"/>
   </objectgroup>
  </tile>
  <tile id="277">
   <objectgroup draworder="index">
    <object id="1" x="0" y="0" width="32" height="32"/>
   </objectgroup>
  </tile>
  <tile id="278">
   <objectgroup draworder="index">
    <object id="1" x="0" y="0" width="32" height="32"/>
   </objectgroup>
  </tile>
  <tile id="279">
   <objectgroup draworder="index">
    <object id="1" x="0" y="0" width="32" height="32"/>
   </objectgroup>
  </tile>
  <tile id="280">
   <objectgroup draworder="index">
    <object id="1" x="0" y="0" width="32" height="32"/>
   </objectgroup>
  </tile>
  <tile id="281">
   <objectgroup draworder="index">
    <object id="1" x="0" y="0" width="32" height="32"/>
   </objectgroup>
  </tile>
  <tile id="282">
   <objectgroup draworder="index">
    <object id="1" x="0" y="0" width="32" height="32"/>
   </objectgroup>
  </tile>
  <tile id="283">
   <objectgroup draworder="index">
    <object id="1" x="0" y="0" width="32" height="32"/>
   </objectgroup>
  </tile>
  <tile id="284">
   <objectgroup draworder="index">
    <object id="1" x="0" y="0" width="32" height="32"/>
   </objectgroup>
  </tile>
  <tile id="285">
   <objectgroup draworder="index">
    <object id="1" x="0" y="0" width="32" height="32"/>
   </objectgroup>
  </tile>
  <tile id="286">
   <objectgroup draworder="index">
    <object id="1" x="0" y="0" width="32" height="32"/>
   </objectgroup>
  </tile>
  <tile id="287">
   <objectgroup draworder="index">
    <object id="1" x="0" y="0" width="32" height="32"/>
   </objectgroup>
  </tile>
  <tile id="288">
   <objectgroup draworder="index">
    <object id="1" x="0" y="0" width="32" height="32"/>
   </objectgroup>
  </tile>
  <tile id="289">
   <objectgroup draworder="index">
    <object id="1" x="0" y="0" width="32" height="32"/>
   </objectgroup>
  </tile>
  <tile id="290">
   <objectgroup draworder="index">
    <object id="1" x="0" y="0" width="32" height="32"/>
   </objectgroup>
  </tile>
  <tile id="291">
   <objectgroup draworder="index">
    <object id="1" x="0" y="0" width="32" height="32"/>
   </objectgroup>
  </tile>
  <tile id="292">
   <objectgroup draworder="index">
    <object id="1" x="0" y="0" width="32" height="32"/>
   </objectgroup>
  </tile>
  <tile id="293">
   <objectgroup draworder="index">
    <object id="1" x="0" y="0" width="32" height="32"/>
   </objectgroup>
  </tile>
  <tile id="294">
   <objectgroup draworder="index">
    <object id="1" x="0" y="0" width="32" height="32"/>
   </objectgroup>
  </tile>
  <tile id="295">
   <objectgroup draworder="index">
    <object id="1" x="0" y="0" width="32" height="32"/>
   </objectgroup>
  </tile>
  <tile id="296">
   <objectgroup draworder="index">
    <object id="5" x="0.272727" y="18.0909">
     <polygon points="0,0 27.8182,13.8182 31.7273,14 31.6364,-18 -0.363636,-17.9091"/>
    </object>
   </objectgroup>
  </tile>
  <tile id="297">
   <objectgroup draworder="index">
    <object id="3" x="0" y="32.1818">
     <polygon points="0,0 3.72727,0 31.8182,-14.0909 31.8182,-31.9091 0.0909091,-31.8182"/>
    </object>
   </objectgroup>
  </tile>
  <tile id="298">
   <objectgroup draworder="index">
    <object id="1" x="0" y="0" width="32" height="32"/>
   </objectgroup>
  </tile>
  <tile id="299">
   <objectgroup draworder="index">
    <object id="1" x="0" y="0" width="32" height="32"/>
   </objectgroup>
  </tile>
  <tile id="300">
   <objectgroup draworder="index">
    <object id="1" x="0" y="0" width="32" height="32"/>
   </objectgroup>
  </tile>
  <tile id="301">
   <objectgroup draworder="index">
    <object id="1" x="0" y="0" width="32" height="32"/>
   </objectgroup>
  </tile>
  <tile id="302">
   <objectgroup draworder="index">
    <object id="1" x="0" y="0" width="32" height="32"/>
   </objectgroup>
  </tile>
  <tile id="303">
   <objectgroup draworder="index">
    <object id="1" x="0" y="0" width="32" height="32"/>
   </objectgroup>
  </tile>
  <tile id="304">
   <objectgroup draworder="index">
    <object id="3" x="30.1818" y="0.181818">
     <polygon points="0,0 -30.3592,29.8532 -30.4314,31.588 1.37339,31.7326 1.44567,-0.433702"/>
    </object>
   </objectgroup>
  </tile>
  <tile id="305">
   <objectgroup draworder="index" id="2">
    <object id="3" x="1.72727" y="0">
     <polygon points="0,0 29.9255,29.8532 30.2869,31.7326 -1.59024,32.0217 -1.80709,0"/>
    </object>
    <object id="4" x="1.72727" y="0">
     <polygon points="0,0 29.9255,29.8532 30.2869,31.7326 -1.59024,32.0217 -1.80709,0"/>
    </object>
   </objectgroup>
  </tile>
  <tile id="306">
   <objectgroup draworder="index">
    <object id="1" x="0.0909091" y="30.3636">
     <polygon points="0,0 30.3636,-30.4545 32.0909,-30.4545 32.1818,1.27273 0.272727,1.72727"/>
    </object>
   </objectgroup>
  </tile>
  <tile id="307">
   <objectgroup draworder="index">
    <object id="3" x="0.272727" y="0.0909091">
     <polygon points="0,0 0.0909091,31.5455 31.8182,31.7273 31.8182,29.7273 1.54545,-0.181818"/>
    </object>
   </objectgroup>
  </tile>
  <tile id="308">
   <objectgroup draworder="index">
    <object id="1" x="0" y="0" width="32" height="32"/>
   </objectgroup>
  </tile>
  <tile id="309">
   <objectgroup draworder="index">
    <object id="1" x="0" y="0" width="32" height="32"/>
   </objectgroup>
  </tile>
  <tile id="310">
   <objectgroup draworder="index">
    <object id="1" x="0" y="0" width="32" height="32"/>
   </objectgroup>
  </tile>
  <tile id="311">
   <objectgroup draworder="index">
    <object id="1" x="0" y="0" width="32" height="32"/>
   </objectgroup>
  </tile>
  <tile id="312">
   <objectgroup draworder="index">
    <object id="1" x="0" y="0" width="32" height="32"/>
   </objectgroup>
  </tile>
  <tile id="313">
   <objectgroup draworder="index">
    <object id="1" x="0" y="0" width="32" height="32"/>
   </objectgroup>
  </tile>
  <tile id="314">
   <objectgroup draworder="index">
    <object id="2" x="0.363636" y="31.9091">
     <polygon points="0,0 1.54545,-0.363636 31.5455,-30.6364 31.6364,-32.0909 -0.272727,-32"/>
    </object>
   </objectgroup>
  </tile>
  <tile id="315">
   <objectgroup draworder="index">
    <object id="2" x="31.9091" y="32.0909">
     <polygon points="0,0 -1.72727,0 -32.1818,-30.5455 -32.1818,-32 -0.272727,-31.8182"/>
    </object>
   </objectgroup>
  </tile>
  <tile id="316">
   <objectgroup draworder="index">
    <object id="1" x="0" y="0" width="32" height="32"/>
   </objectgroup>
  </tile>
  <tile id="317">
   <objectgroup draworder="index">
    <object id="1" x="0" y="0" width="32" height="32"/>
   </objectgroup>
  </tile>
  <tile id="318">
   <objectgroup draworder="index">
    <object id="1" x="0" y="0" width="32" height="32"/>
   </objectgroup>
  </tile>
  <tile id="319">
   <objectgroup draworder="index">
    <object id="1" x="0" y="0" width="32" height="32"/>
   </objectgroup>
  </tile>
  <tile id="320">
   <objectgroup draworder="index">
    <object id="1" x="0" y="0" width="32" height="32"/>
   </objectgroup>
  </tile>
  <tile id="321">
   <objectgroup draworder="index">
    <object id="1" x="0" y="0" width="32" height="32"/>
   </objectgroup>
  </tile>
  <tile id="322">
   <objectgroup draworder="index">
    <object id="2" x="31.9091" y="0.272727">
     <polygon points="0,0 -1.81818,-0.181818 -32,29.7273 -32,31.5455 -0.0909091,31.6364"/>
    </object>
   </objectgroup>
  </tile>
  <tile id="323">
   <objectgroup draworder="index">
    <object id="1" x="0.363636" y="0.545455">
     <polygon points="0,0 -0.0909091,31.6364 31.7273,31.6364 31.7273,29.9091 1.36364,-0.363636"/>
    </object>
   </objectgroup>
  </tile>
  <tile id="324">
   <objectgroup draworder="index">
    <object id="1" x="0" y="0" width="32" height="32"/>
   </objectgroup>
  </tile>
  <tile id="325">
   <objectgroup draworder="index">
    <object id="1" x="0" y="0" width="32" height="32"/>
   </objectgroup>
  </tile>
  <tile id="326">
   <objectgroup draworder="index">
    <object id="1" x="0" y="0" width="32" height="32"/>
   </objectgroup>
  </tile>
  <tile id="327">
   <objectgroup draworder="index">
    <object id="1" x="0" y="0" width="32" height="32"/>
   </objectgroup>
  </tile>
  <tile id="328">
   <objectgroup draworder="index">
    <object id="3" x="0.272727" y="1.90909">
     <polygon points="0,0 30,30.0909 31.5455,30.1818 31.6364,-1.81818 -0.181818,-1.63636"/>
    </object>
   </objectgroup>
  </tile>
  <tile id="329">
   <objectgroup draworder="index">
    <object id="2" x="2.09091" y="32.1818">
     <polygon points="0,0 29.9091,-30.1818 29.8182,-32.0909 -2,-31.9091 -2.09091,-0.454545"/>
    </object>
   </objectgroup>
  </tile>
  <tile id="330">
   <objectgroup draworder="index">
    <object id="4" x="0.272727" y="2.18182">
     <polygon points="0,0 29.7273,29.6364 31.3636,29.7273 31.7273,-2.09091 -0.363636,-2.27273"/>
    </object>
   </objectgroup>
  </tile>
  <tile id="331">
   <objectgroup draworder="index">
    <object id="2" x="0.272727" y="32.0909">
     <polygon points="0,0 1.72727,-0.181818 31.8182,-30.2727 31.9091,-32.1818 -0.272727,-32.0909"/>
    </object>
   </objectgroup>
  </tile>
  <tile id="332">
   <objectgroup draworder="index">
    <object id="1" x="0" y="0" width="32" height="32"/>
   </objectgroup>
  </tile>
  <tile id="333">
   <objectgroup draworder="index">
    <object id="1" x="0" y="0" width="32" height="32"/>
   </objectgroup>
  </tile>
  <tile id="334">
   <objectgroup draworder="index">
    <object id="1" x="0" y="0" width="32" height="32"/>
   </objectgroup>
  </tile>
  <tile id="335">
   <objectgroup draworder="index">
    <object id="1" x="0" y="0" width="32" height="32"/>
   </objectgroup>
  </tile>
  <tile id="336">
   <objectgroup draworder="index">
    <object id="2" x="0.363636" y="30.1818">
     <polygon points="0,0 28.5455,-14.0909 31.9091,-14.2727 31.9091,1.63636 0.0909091,1.54545"/>
    </object>
   </objectgroup>
  </tile>
  <tile id="337">
   <objectgroup draworder="index">
    <object id="2" x="0.181818" y="14.2727">
     <polygon points="0,0 28,-13.9091 31.5455,-14 31.5455,17.8182 -0.272727,17.8182"/>
    </object>
   </objectgroup>
  </tile>
  <tile id="338">
   <objectgroup draworder="index">
    <object id="4" x="0.0909091" y="0.363636">
     <polygon points="0,0 3.54545,-0.0909091 31.8182,13.8182 32,31.2727 -0.0909091,31.7273"/>
    </object>
   </objectgroup>
  </tile>
  <tile id="339">
   <objectgroup draworder="index">
    <object id="2" x="0" y="15.9091">
     <polygon points="0,0 3.27273,0.181818 31.5455,14 31.7273,15.8182 -0.181818,16.4545"/>
    </object>
   </objectgroup>
  </tile>
  <tile id="340">
   <objectgroup draworder="index">
    <object id="1" x="0" y="0" width="32" height="32"/>
   </objectgroup>
  </tile>
  <tile id="341">
   <objectgroup draworder="index">
    <object id="1" x="0" y="0" width="32" height="32"/>
   </objectgroup>
  </tile>
  <tile id="342">
   <objectgroup draworder="index">
    <object id="1" x="0" y="0" width="32" height="32"/>
   </objectgroup>
  </tile>
  <tile id="343">
   <objectgroup draworder="index">
    <object id="1" x="0" y="0" width="32" height="32"/>
   </objectgroup>
  </tile>
  <tile id="344">
   <objectgroup draworder="index">
    <object id="1" x="0" y="0" width="32" height="32"/>
   </objectgroup>
  </tile>
  <tile id="345">
   <objectgroup draworder="index">
    <object id="1" x="0" y="0" width="32" height="32"/>
   </objectgroup>
  </tile>
  <tile id="346">
   <objectgroup draworder="index">
    <object id="1" x="0" y="0" width="32" height="32"/>
   </objectgroup>
  </tile>
  <tile id="347">
   <objectgroup draworder="index">
    <object id="1" x="0" y="0" width="32" height="32"/>
   </objectgroup>
  </tile>
  <tile id="348">
   <objectgroup draworder="index">
    <object id="1" x="0" y="0" width="32" height="32"/>
   </objectgroup>
  </tile>
  <tile id="349">
   <objectgroup draworder="index">
    <object id="1" x="0" y="0" width="32" height="32"/>
   </objectgroup>
  </tile>
  <tile id="350">
   <objectgroup draworder="index">
    <object id="1" x="0" y="0" width="32" height="32"/>
   </objectgroup>
  </tile>
  <tile id="351">
   <objectgroup draworder="index">
    <object id="1" x="0" y="0" width="32" height="32"/>
   </objectgroup>
  </tile>
  <tile id="352">
   <objectgroup draworder="index">
    <object id="1" x="0" y="0" width="32" height="32"/>
   </objectgroup>
  </tile>
  <tile id="353">
   <objectgroup draworder="index">
    <object id="1" x="0" y="0" width="32" height="32"/>
   </objectgroup>
  </tile>
  <tile id="354">
   <objectgroup draworder="index">
    <object id="1" x="0" y="0" width="32" height="32"/>
   </objectgroup>
  </tile>
  <tile id="355">
   <objectgroup draworder="index">
    <object id="1" x="0" y="0" width="32" height="32"/>
   </objectgroup>
  </tile>
  <tile id="356">
   <objectgroup draworder="index">
    <object id="1" x="0.363636" y="30.1818">
     <polygon points="0,0 28,-14.4545 31.9091,-14.4545 31.9091,1.54545 -0.181818,1.54545"/>
    </object>
   </objectgroup>
  </tile>
  <tile id="357">
   <objectgroup draworder="index">
    <object id="1" x="0.181818" y="14">
     <polygon points="0,0 27.9091,-14.1818 31.5455,-14.2727 31.9091,17.3636 -0.0909091,17.6364"/>
    </object>
   </objectgroup>
  </tile>
  <tile id="358">
   <objectgroup draworder="index">
    <object id="1" x="0.363636" y="0.272727">
     <polygon points="0,0 4,0 32,14.0909 32.1818,31.8182 0.0909091,31.9091"/>
    </object>
   </objectgroup>
  </tile>
  <tile id="359">
   <objectgroup draworder="index">
    <object id="1" x="0.181818" y="16.2727">
     <polygon points="0,0 3.63636,0 31.7273,14.1818 32,16 0,16"/>
    </object>
   </objectgroup>
  </tile>
  <tile id="360">
   <objectgroup draworder="index">
    <object id="2" x="31.7273" y="15.9091">
     <polygon points="0,0 -4,0 -32.0909,-14.1818 -32.0909,-15.8182 0,-15.8182"/>
    </object>
   </objectgroup>
  </tile>
  <tile id="361">
   <objectgroup draworder="index">
    <object id="1" x="32.0909" y="32.0909">
     <polygon points="0,0 -3.81818,-0.0909091 -32.0909,-14.2727 -32.0909,-32.1818 0,-31.9091"/>
    </object>
   </objectgroup>
  </tile>
  <tile id="362">
   <objectgroup draworder="index">
    <object id="3" x="4" y="32">
     <polygon points="0,0 28,-13.9091 27.8182,-31.5455 -3.72727,-31.6364 -3.90909,-0.181818"/>
    </object>
   </objectgroup>
  </tile>
  <tile id="363">
   <objectgroup draworder="index">
    <object id="1" x="0.181818" y="15.9091">
     <polygon points="0,0 3.54545,-0.181818 31.8182,-14.2727 31.7273,-16.0909 -0.0909091,-16"/>
    </object>
   </objectgroup>
  </tile>
  <tile id="364">
   <objectgroup draworder="index">
    <object id="1" x="0.181818" y="32.1818">
     <polygon points="0,0 3.36364,-0.0909091 31.4545,-14.0909 31.6364,-32 -0.363636,-31.9091"/>
    </object>
   </objectgroup>
  </tile>
  <tile id="365">
   <objectgroup draworder="index" id="2">
    <object id="1" x="0.272727" y="15.9091">
     <polygon points="0,0 3.81818,0 31.8182,-14.1818 31.8182,-15.8182 0,-15.8182"/>
    </object>
    <object id="2" x="0.272727" y="15.9091">
     <polygon points="0,0 3.81818,0 31.8182,-14.1818 31.8182,-15.8182 0,-15.8182"/>
    </object>
   </objectgroup>
  </tile>
  <tile id="366">
   <objectgroup draworder="index" id="2">
    <object id="1" x="0.363636" y="2.09091">
     <polygon points="0,0 27.9091,13.8182 31.8182,13.7273 31.9091,-2 -0.363636,-1.81818"/>
    </object>
    <object id="2" x="0.363636" y="2.09091">
     <polygon points="0,0 27.9091,13.8182 31.8182,13.7273 31.9091,-2 -0.363636,-1.81818"/>
    </object>
   </objectgroup>
  </tile>
  <tile id="367">
   <objectgroup draworder="index">
    <object id="1" x="0.272727" y="18.1818">
     <polygon points="0,0 27.7273,13.7273 31.8182,13.6364 31.5455,-18.0909 -0.272727,-18.0909"/>
    </object>
   </objectgroup>
  </tile>
  <tile id="368">
   <objectgroup draworder="index">
    <object id="1" x="0" y="0" width="32" height="32"/>
   </objectgroup>
  </tile>
  <tile id="369">
   <objectgroup draworder="index">
    <object id="1" x="0" y="0" width="32" height="32"/>
   </objectgroup>
  </tile>
  <tile id="370">
   <objectgroup draworder="index">
    <object id="1" x="0" y="0" width="32" height="32"/>
   </objectgroup>
  </tile>
  <tile id="371">
   <objectgroup draworder="index">
    <object id="1" x="0" y="0" width="31" height="32"/>
   </objectgroup>
  </tile>
  <tile id="372">
   <objectgroup draworder="index">
    <object id="1" x="0" y="0" width="32" height="31"/>
   </objectgroup>
  </tile>
  <tile id="373">
   <objectgroup draworder="index">
    <object id="1" x="2" y="2" width="28" height="28"/>
   </objectgroup>
  </tile>
  <tile id="374">
   <objectgroup draworder="index">
    <object id="1" x="2" y="2" width="28" height="28"/>
   </objectgroup>
  </tile>
  <tile id="472">
   <objectgroup>
    <object id="1" x="0.181818" y="14.2727">
     <polygon points="0,0 28,-13.9091 31.5455,-14 31.5455,17.8182 -0.272727,17.8182"/>
    </object>
   </objectgroup>
  </tile>
  <tile id="473">
   <objectgroup>
    <object id="1" x="0.0909091" y="0.363636">
     <polygon points="0,0 3.54545,-0.0909091 31.8182,13.8182 32,31.2727 -0.0909091,31.7273"/>
    </object>
   </objectgroup>
  </tile>
  <tile id="509">
   <objectgroup>
    <object id="1" x="4" y="32">
     <polygon points="0,0 28,-13.9091 27.8182,-31.5455 -3.72727,-31.6364 -3.90909,-0.181818"/>
    </object>
   </objectgroup>
  </tile>
  <tile id="520">
   <objectgroup>
    <object id="1" x="30.1818" y="0.181818">
     <polygon points="0,0 -30.3592,29.8532 -30.4314,31.588 1.37339,31.7326 1.44567,-0.433702"/>
    </object>
   </objectgroup>
  </tile>
  <tile id="521">
   <objectgroup>
    <object id="1" x="1.72727" y="0">
     <polygon points="0,0 29.9255,29.8532 30.2869,31.7326 -1.59024,32.0217 -1.80709,0"/>
    </object>
   </objectgroup>
  </tile>
  <tile id="522">
   <objectgroup>
    <object id="1" x="30.1818" y="0.181818">
     <polygon points="0,0 -30.3592,29.8532 -30.4314,31.588 1.37339,31.7326 1.44567,-0.433702"/>
    </object>
   </objectgroup>
  </tile>
  <tile id="523">
   <objectgroup>
    <object id="1" x="1.72727" y="0">
     <polygon points="0,0 29.9255,29.8532 30.2869,31.7326 -1.59024,32.0217 -1.80709,0"/>
    </object>
   </objectgroup>
  </tile>
  <tile id="524">
   <objectgroup>
    <object id="1" x="0.363636" y="30.1818">
     <polygon points="0,0 28.5455,-14.0909 31.9091,-14.2727 31.9091,1.63636 0.0909091,1.54545"/>
    </object>
   </objectgroup>
  </tile>
  <tile id="525">
   <objectgroup>
    <object id="1" x="0.181818" y="14.2727">
     <polygon points="0,0 28,-13.9091 31.5455,-14 31.5455,17.8182 -0.272727,17.8182"/>
    </object>
   </objectgroup>
  </tile>
  <tile id="526">
   <objectgroup>
    <object id="1" x="0.0909091" y="0.363636">
     <polygon points="0,0 3.54545,-0.0909091 31.8182,13.8182 32,31.2727 -0.0909091,31.7273"/>
    </object>
   </objectgroup>
  </tile>
  <tile id="527">
   <objectgroup>
    <object id="1" x="0" y="15.9091">
     <polygon points="0,0 3.27273,0.181818 31.5455,14 31.7273,15.8182 -0.181818,16.4545"/>
    </object>
   </objectgroup>
  </tile>
  <tile id="530">
   <objectgroup>
    <object id="1" x="0.272727" y="32.0909">
     <polygon points="0,0 1.72727,-0.181818 31.8182,-30.2727 31.9091,-32.1818 -0.272727,-32.0909"/>
    </object>
   </objectgroup>
  </tile>
  <tile id="531">
   <objectgroup>
    <object id="1" x="32.0909" y="31.9091">
     <polygon points="0,0 -1.72727,0 -32.1818,-30.5455 -32.1818,-32 -0.272727,-31.8182"/>
    </object>
   </objectgroup>
  </tile>
  <tile id="538">
   <objectgroup>
    <object id="1" x="30.1818" y="0.181818">
     <polygon points="0,0 -30.3592,29.8532 -30.4314,31.588 1.37339,31.7326 1.44567,-0.433702"/>
    </object>
   </objectgroup>
  </tile>
  <tile id="539">
   <objectgroup>
    <object id="1" x="1.72727" y="0">
     <polygon points="0,0 29.9255,29.8532 30.2869,31.7326 -1.59024,32.0217 -1.80709,0"/>
    </object>
   </objectgroup>
  </tile>
  <tile id="544">
   <objectgroup>
    <object id="1" x="32.0909" y="31.9091">
     <polygon points="0,0 -1.72727,0 -32.1818,-30.5455 -32.1818,-32 -0.272727,-31.8182"/>
    </object>
   </objectgroup>
  </tile>
  <tile id="545">
   <objectgroup>
    <object id="1" x="0.272727" y="32.0909">
     <polygon points="0,0 1.72727,-0.181818 31.8182,-30.2727 31.9091,-32.1818 -0.272727,-32.0909"/>
    </object>
   </objectgroup>
  </tile>
  <tile id="546">
   <objectgroup>
    <object id="1" x="32.0909" y="31.9091">
     <polygon points="0,0 -1.72727,0 -32.1818,-30.5455 -32.1818,-32 -0.272727,-31.8182"/>
    </object>
   </objectgroup>
  </tile>
  <tile id="547">
   <objectgroup>
    <object id="1" x="0.272727" y="32.0909">
     <polygon points="0,0 1.72727,-0.181818 31.8182,-30.2727 31.9091,-32.1818 -0.272727,-32.0909"/>
    </object>
   </objectgroup>
  </tile>
  <tile id="548">
   <objectgroup>
    <object id="1" x="0.363636" y="2.09091">
     <polygon points="0,0 27.9091,13.8182 31.8182,13.7273 31.9091,-2 -0.363636,-1.81818"/>
    </object>
   </objectgroup>
  </tile>
  <tile id="549">
   <objectgroup>
    <object id="1" x="32.0909" y="32.0909">
     <polygon points="0,0 -3.81818,-0.0909091 -32.0909,-14.2727 -32.0909,-32.1818 0,-31.9091"/>
    </object>
   </objectgroup>
  </tile>
  <tile id="550">
   <objectgroup>
    <object id="1" x="4" y="32">
     <polygon points="0,0 28,-13.9091 27.8182,-31.5455 -3.72727,-31.6364 -3.90909,-0.181818"/>
    </object>
   </objectgroup>
  </tile>
  <tile id="551">
   <objectgroup>
    <object id="1" x="0.272727" y="15.9091">
     <polygon points="0,0 3.81818,0 31.8182,-14.1818 31.8182,-15.8182 0,-15.8182"/>
    </object>
   </objectgroup>
  </tile>
  <tile id="552">
   <objectgroup>
    <object id="1" x="0.363636" y="30.1818">
     <polygon points="0,0 28.5455,-14.0909 31.9091,-14.2727 31.9091,1.63636 0.0909091,1.54545"/>
    </object>
   </objectgroup>
  </tile>
  <tile id="553">
   <objectgroup>
    <object id="1" x="0.181818" y="14.2727">
     <polygon points="0,0 28,-13.9091 31.5455,-14 31.5455,17.8182 -0.272727,17.8182"/>
    </object>
   </objectgroup>
  </tile>
  <tile id="554">
   <objectgroup>
    <object id="1" x="0.0909091" y="0.363636">
     <polygon points="0,0 3.54545,-0.0909091 31.8182,13.8182 32,31.2727 -0.0909091,31.7273"/>
    </object>
   </objectgroup>
  </tile>
  <tile id="555">
   <objectgroup>
    <object id="1" x="0" y="15.9091">
     <polygon points="0,0 3.27273,0.181818 31.5455,14 31.7273,15.8182 -0.181818,16.4545"/>
    </object>
   </objectgroup>
  </tile>
  <tile id="556">
   <objectgroup>
    <object id="1" x="0.181818" y="14.2727">
     <polygon points="0,0 28,-13.9091 31.5455,-14 31.5455,17.8182 -0.272727,17.8182"/>
    </object>
   </objectgroup>
  </tile>
  <tile id="557">
   <objectgroup>
    <object id="1" x="0.0909091" y="0.363636">
     <polygon points="0,0 3.54545,-0.0909091 31.8182,13.8182 32,31.2727 -0.0909091,31.7273"/>
    </object>
   </objectgroup>
  </tile>
  <tile id="560">
   <objectgroup>
    <object id="1" x="4" y="32">
     <polygon points="0,0 28,-13.9091 27.8182,-31.5455 -3.72727,-31.6364 -3.90909,-0.181818"/>
    </object>
   </objectgroup>
  </tile>
  <tile id="561">
   <objectgroup>
    <object id="1" x="0.272727" y="15.9091">
     <polygon points="0,0 3.81818,0 31.8182,-14.1818 31.8182,-15.8182 0,-15.8182"/>
    </object>
   </objectgroup>
  </tile>
  <tile id="562">
   <objectgroup>
    <object id="1" x="0.363636" y="2.09091">
     <polygon points="0,0 27.9091,13.8182 31.8182,13.7273 31.9091,-2 -0.363636,-1.81818"/>
    </object>
   </objectgroup>
  </tile>
  <tile id="563">
   <objectgroup>
    <object id="1" x="32.0909" y="32.0909">
     <polygon points="0,0 -3.81818,-0.0909091 -32.0909,-14.2727 -32.0909,-32.1818 0,-31.9091"/>
    </object>
   </objectgroup>
  </tile>
  <tile id="566">
   <objectgroup>
    <object id="1" x="32.0909" y="32.0909">
     <polygon points="0,0 -3.81818,-0.0909091 -32.0909,-14.2727 -32.0909,-32.1818 0,-31.9091"/>
    </object>
   </objectgroup>
  </tile>
  <tile id="573">
   <objectgroup draworder="index">
    <object id="1" x="0" y="0" width="32" height="32"/>
   </objectgroup>
  </tile>
  <tile id="574">
   <objectgroup draworder="index">
    <object id="1" x="0" y="0" width="32" height="16"/>
   </objectgroup>
  </tile>
  <tile id="575">
   <objectgroup draworder="index">
    <object id="1" x="0" y="0" width="32" height="32"/>
   </objectgroup>
  </tile>
  <tile id="623">
   <objectgroup draworder="index">
    <object id="1" x="0" y="0" width="32" height="32"/>
   </objectgroup>
  </tile>
  <tile id="664">
   <animation>
    <frame tileid="664" duration="500"/>
    <frame tileid="665" duration="500"/>
   </animation>
  </tile>
  <tile id="672">
   <animation>
    <frame tileid="672" duration="400"/>
    <frame tileid="673" duration="400"/>
   </animation>
  </tile>
  <tile id="680">
   <animation>
    <frame tileid="680" duration="300"/>
    <frame tileid="681" duration="300"/>
   </animation>
  </tile>
  <tile id="784">
   <objectgroup>
    <object id="1" x="0.181818" y="14.2727">
     <polygon points="0,0 28,-13.9091 31.5455,-14 31.5455,17.8182 -0.272727,17.8182"/>
    </object>
   </objectgroup>
  </tile>
  <tile id="785">
   <objectgroup>
    <object id="1" x="0.0909091" y="0.363636">
     <polygon points="0,0 3.54545,-0.0909091 31.8182,13.8182 32,31.2727 -0.0909091,31.7273"/>
    </object>
   </objectgroup>
  </tile>
  <tile id="809">
   <objectgroup>
    <object id="1" x="4" y="32">
     <polygon points="0,0 28,-13.9091 27.8182,-31.5455 -3.72727,-31.6364 -3.90909,-0.181818"/>
    </object>
   </objectgroup>
  </tile>
  <tile id="816">
   <objectgroup>
    <object id="1" x="30.1818" y="0.181818">
     <polygon points="0,0 -30.3592,29.8532 -30.4314,31.588 1.37339,31.7326 1.44567,-0.433702"/>
    </object>
   </objectgroup>
  </tile>
  <tile id="817">
   <objectgroup>
    <object id="1" x="1.72727" y="0">
     <polygon points="0,0 29.9255,29.8532 30.2869,31.7326 -1.59024,32.0217 -1.80709,0"/>
    </object>
   </objectgroup>
  </tile>
  <tile id="818">
   <objectgroup>
    <object id="1" x="30.1818" y="0.181818">
     <polygon points="0,0 -30.3592,29.8532 -30.4314,31.588 1.37339,31.7326 1.44567,-0.433702"/>
    </object>
   </objectgroup>
  </tile>
  <tile id="819">
   <objectgroup>
    <object id="1" x="1.72727" y="0">
     <polygon points="0,0 29.9255,29.8532 30.2869,31.7326 -1.59024,32.0217 -1.80709,0"/>
    </object>
   </objectgroup>
  </tile>
  <tile id="826">
   <objectgroup>
    <object id="1" x="0.272727" y="32.0909">
     <polygon points="0,0 1.72727,-0.181818 31.8182,-30.2727 31.9091,-32.1818 -0.272727,-32.0909"/>
    </object>
   </objectgroup>
  </tile>
  <tile id="827">
   <objectgroup>
    <object id="1" x="32.0909" y="31.9091">
     <polygon points="0,0 -1.72727,0 -32.1818,-30.5455 -32.1818,-32 -0.272727,-31.8182"/>
    </object>
   </objectgroup>
  </tile>
  <tile id="834">
   <objectgroup>
    <object id="1" x="30.1818" y="0.181818">
     <polygon points="0,0 -30.3592,29.8532 -30.4314,31.588 1.37339,31.7326 1.44567,-0.433702"/>
    </object>
   </objectgroup>
  </tile>
  <tile id="835">
   <objectgroup>
    <object id="1" x="1.72727" y="0">
     <polygon points="0,0 29.9255,29.8532 30.2869,31.7326 -1.59024,32.0217 -1.80709,0"/>
    </object>
   </objectgroup>
  </tile>
  <tile id="840">
   <objectgroup>
    <object id="1" x="32.0909" y="31.9091">
     <polygon points="0,0 -1.72727,0 -32.1818,-30.5455 -32.1818,-32 -0.272727,-31.8182"/>
    </object>
   </objectgroup>
  </tile>
  <tile id="841">
   <objectgroup>
    <object id="1" x="0.272727" y="32.0909">
     <polygon points="0,0 1.72727,-0.181818 31.8182,-30.2727 31.9091,-32.1818 -0.272727,-32.0909"/>
    </object>
   </objectgroup>
  </tile>
  <tile id="842">
   <objectgroup>
    <object id="1" x="32.0909" y="31.9091">
     <polygon points="0,0 -1.72727,0 -32.1818,-30.5455 -32.1818,-32 -0.272727,-31.8182"/>
    </object>
   </objectgroup>
  </tile>
  <tile id="843">
   <objectgroup>
    <object id="1" x="0.272727" y="32.0909">
     <polygon points="0,0 1.72727,-0.181818 31.8182,-30.2727 31.9091,-32.1818 -0.272727,-32.0909"/>
    </object>
   </objectgroup>
  </tile>
  <tile id="848">
   <objectgroup>
    <object id="1" x="0.363636" y="30.1818">
     <polygon points="0,0 28.5455,-14.0909 31.9091,-14.2727 31.9091,1.63636 0.0909091,1.54545"/>
    </object>
   </objectgroup>
  </tile>
  <tile id="849">
   <objectgroup>
    <object id="1" x="0.181818" y="14.2727">
     <polygon points="0,0 28,-13.9091 31.5455,-14 31.5455,17.8182 -0.272727,17.8182"/>
    </object>
   </objectgroup>
  </tile>
  <tile id="850">
   <objectgroup>
    <object id="1" x="0.0909091" y="0.363636">
     <polygon points="0,0 3.54545,-0.0909091 31.8182,13.8182 32,31.2727 -0.0909091,31.7273"/>
    </object>
   </objectgroup>
  </tile>
  <tile id="851">
   <objectgroup>
    <object id="1" x="0" y="15.9091">
     <polygon points="0,0 3.27273,0.181818 31.5455,14 31.7273,15.8182 -0.181818,16.4545"/>
    </object>
   </objectgroup>
  </tile>
  <tile id="868">
   <objectgroup>
    <object id="1" x="0.363636" y="30.1818">
     <polygon points="0,0 28.5455,-14.0909 31.9091,-14.2727 31.9091,1.63636 0.0909091,1.54545"/>
    </object>
   </objectgroup>
  </tile>
  <tile id="869">
   <objectgroup>
    <object id="1" x="0.181818" y="14.2727">
     <polygon points="0,0 28,-13.9091 31.5455,-14 31.5455,17.8182 -0.272727,17.8182"/>
    </object>
   </objectgroup>
  </tile>
  <tile id="870">
   <objectgroup>
    <object id="1" x="0.0909091" y="0.363636">
     <polygon points="0,0 3.54545,-0.0909091 31.8182,13.8182 32,31.2727 -0.0909091,31.7273"/>
    </object>
   </objectgroup>
  </tile>
  <tile id="871">
   <objectgroup>
    <object id="1" x="0" y="15.9091">
     <polygon points="0,0 3.27273,0.181818 31.5455,14 31.7273,15.8182 -0.181818,16.4545"/>
    </object>
   </objectgroup>
  </tile>
  <tile id="872">
   <objectgroup>
    <object id="1" x="0.363636" y="2.09091">
     <polygon points="0,0 27.9091,13.8182 31.8182,13.7273 31.9091,-2 -0.363636,-1.81818"/>
    </object>
   </objectgroup>
  </tile>
  <tile id="873">
   <objectgroup>
    <object id="1" x="32.0909" y="32.0909">
     <polygon points="0,0 -3.81818,-0.0909091 -32.0909,-14.2727 -32.0909,-32.1818 0,-31.9091"/>
    </object>
   </objectgroup>
  </tile>
  <tile id="874">
   <objectgroup>
    <object id="1" x="4" y="32">
     <polygon points="0,0 28,-13.9091 27.8182,-31.5455 -3.72727,-31.6364 -3.90909,-0.181818"/>
    </object>
   </objectgroup>
  </tile>
  <tile id="875">
   <objectgroup>
    <object id="1" x="0.272727" y="15.9091">
     <polygon points="0,0 3.81818,0 31.8182,-14.1818 31.8182,-15.8182 0,-15.8182"/>
    </object>
   </objectgroup>
  </tile>
  <tile id="876">
   <objectgroup>
    <object id="1" x="4" y="32">
     <polygon points="0,0 28,-13.9091 27.8182,-31.5455 -3.72727,-31.6364 -3.90909,-0.181818"/>
    </object>
   </objectgroup>
  </tile>
  <tile id="877">
   <objectgroup>
    <object id="1" x="0.272727" y="15.9091">
     <polygon points="0,0 3.81818,0 31.8182,-14.1818 31.8182,-15.8182 0,-15.8182"/>
    </object>
   </objectgroup>
  </tile>
  <tile id="878">
   <objectgroup>
    <object id="1" x="0.363636" y="2.09091">
     <polygon points="0,0 27.9091,13.8182 31.8182,13.7273 31.9091,-2 -0.363636,-1.81818"/>
    </object>
   </objectgroup>
  </tile>
  <tile id="879">
   <objectgroup>
    <object id="1" x="32.0909" y="32.0909">
     <polygon points="0,0 -3.81818,-0.0909091 -32.0909,-14.2727 -32.0909,-32.1818 0,-31.9091"/>
    </object>
   </objectgroup>
  </tile>
  <tile id="952">
   <objectgroup>
    <object id="1" x="30.1818" y="0.181818">
     <polygon points="0,0 -30.3592,29.8532 -30.4314,31.588 1.37339,31.7326 1.44567,-0.433702"/>
    </object>
   </objectgroup>
  </tile>
  <tile id="953">
   <objectgroup>
    <object id="1" x="1.72727" y="0">
     <polygon points="0,0 29.9255,29.8532 30.2869,31.7326 -1.59024,32.0217 -1.80709,0"/>
    </object>
   </objectgroup>
  </tile>
  <tile id="954">
   <objectgroup>
    <object id="1" x="30.1818" y="0.181818">
     <polygon points="0,0 -30.3592,29.8532 -30.4314,31.588 1.37339,31.7326 1.44567,-0.433702"/>
    </object>
   </objectgroup>
  </tile>
  <tile id="955">
   <objectgroup>
    <object id="1" x="1.72727" y="0">
     <polygon points="0,0 29.9255,29.8532 30.2869,31.7326 -1.59024,32.0217 -1.80709,0"/>
    </object>
   </objectgroup>
  </tile>
  <tile id="962">
   <objectgroup>
    <object id="1" x="0.272727" y="32.0909">
     <polygon points="0,0 1.72727,-0.181818 31.8182,-30.2727 31.9091,-32.1818 -0.272727,-32.0909"/>
    </object>
   </objectgroup>
  </tile>
  <tile id="963">
   <objectgroup>
    <object id="1" x="32.0909" y="31.9091">
     <polygon points="0,0 -1.72727,0 -32.1818,-30.5455 -32.1818,-32 -0.272727,-31.8182"/>
    </object>
   </objectgroup>
  </tile>
  <tile id="970">
   <objectgroup>
    <object id="1" x="30.1818" y="0.181818">
     <polygon points="0,0 -30.3592,29.8532 -30.4314,31.588 1.37339,31.7326 1.44567,-0.433702"/>
    </object>
   </objectgroup>
  </tile>
  <tile id="971">
   <objectgroup>
    <object id="1" x="1.72727" y="0">
     <polygon points="0,0 29.9255,29.8532 30.2869,31.7326 -1.59024,32.0217 -1.80709,0"/>
    </object>
   </objectgroup>
  </tile>
  <tile id="972">
   <objectgroup>
    <object id="1" x="0.181818" y="14.2727">
     <polygon points="0,0 28,-13.9091 31.5455,-14 31.5455,17.8182 -0.272727,17.8182"/>
    </object>
   </objectgroup>
  </tile>
  <tile id="973">
   <objectgroup>
    <object id="1" x="0.0909091" y="0.363636">
     <polygon points="0,0 3.54545,-0.0909091 31.8182,13.8182 32,31.2727 -0.0909091,31.7273"/>
    </object>
   </objectgroup>
  </tile>
  <tile id="976">
   <objectgroup>
    <object id="1" x="32.0909" y="31.9091">
     <polygon points="0,0 -1.72727,0 -32.1818,-30.5455 -32.1818,-32 -0.272727,-31.8182"/>
    </object>
   </objectgroup>
  </tile>
  <tile id="977">
   <objectgroup>
    <object id="1" x="0.272727" y="32.0909">
     <polygon points="0,0 1.72727,-0.181818 31.8182,-30.2727 31.9091,-32.1818 -0.272727,-32.0909"/>
    </object>
   </objectgroup>
  </tile>
  <tile id="978">
   <objectgroup>
    <object id="1" x="32.0909" y="31.9091">
     <polygon points="0,0 -1.72727,0 -32.1818,-30.5455 -32.1818,-32 -0.272727,-31.8182"/>
    </object>
   </objectgroup>
  </tile>
  <tile id="979">
   <objectgroup>
    <object id="1" x="0.272727" y="32.0909">
     <polygon points="0,0 1.72727,-0.181818 31.8182,-30.2727 31.9091,-32.1818 -0.272727,-32.0909"/>
    </object>
   </objectgroup>
  </tile>
  <tile id="984">
   <objectgroup>
    <object id="1" x="0.363636" y="30.1818">
     <polygon points="0,0 28.5455,-14.0909 31.9091,-14.2727 31.9091,1.63636 0.0909091,1.54545"/>
    </object>
   </objectgroup>
  </tile>
  <tile id="985">
   <objectgroup>
    <object id="1" x="0.181818" y="14.2727">
     <polygon points="0,0 28,-13.9091 31.5455,-14 31.5455,17.8182 -0.272727,17.8182"/>
    </object>
   </objectgroup>
  </tile>
  <tile id="986">
   <objectgroup>
    <object id="1" x="0.0909091" y="0.363636">
     <polygon points="0,0 3.54545,-0.0909091 31.8182,13.8182 32,31.2727 -0.0909091,31.7273"/>
    </object>
   </objectgroup>
  </tile>
  <tile id="987">
   <objectgroup>
    <object id="1" x="0" y="15.9091">
     <polygon points="0,0 3.27273,0.181818 31.5455,14 31.7273,15.8182 -0.181818,16.4545"/>
    </object>
   </objectgroup>
  </tile>
  <tile id="996">
   <objectgroup>
    <object id="1" x="32.0909" y="32.0909">
     <polygon points="0,0 -3.81818,-0.0909091 -32.0909,-14.2727 -32.0909,-32.1818 0,-31.9091"/>
    </object>
   </objectgroup>
  </tile>
  <tile id="997">
   <objectgroup>
    <object id="1" x="4" y="32">
     <polygon points="0,0 28,-13.9091 27.8182,-31.5455 -3.72727,-31.6364 -3.90909,-0.181818"/>
    </object>
   </objectgroup>
  </tile>
  <tile id="1008">
   <objectgroup>
    <object id="1" x="0.363636" y="2.09091">
     <polygon points="0,0 27.9091,13.8182 31.8182,13.7273 31.9091,-2 -0.363636,-1.81818"/>
    </object>
   </objectgroup>
  </tile>
  <tile id="1009">
   <objectgroup>
    <object id="1" x="32.0909" y="32.0909">
     <polygon points="0,0 -3.81818,-0.0909091 -32.0909,-14.2727 -32.0909,-32.1818 0,-31.9091"/>
    </object>
   </objectgroup>
  </tile>
  <tile id="1010">
   <objectgroup>
    <object id="1" x="4" y="32">
     <polygon points="0,0 28,-13.9091 27.8182,-31.5455 -3.72727,-31.6364 -3.90909,-0.181818"/>
    </object>
   </objectgroup>
  </tile>
  <tile id="1011">
   <objectgroup>
    <object id="1" x="0.272727" y="15.9091">
     <polygon points="0,0 3.81818,0 31.8182,-14.1818 31.8182,-15.8182 0,-15.8182"/>
    </object>
   </objectgroup>
  </tile>
  <tile id="1016">
   <objectgroup>
    <object id="1" x="0.363636" y="30.1818">
     <polygon points="0,0 28.5455,-14.0909 31.9091,-14.2727 31.9091,1.63636 0.0909091,1.54545"/>
    </object>
   </objectgroup>
  </tile>
  <tile id="1017">
   <objectgroup>
    <object id="1" x="0.181818" y="14.2727">
     <polygon points="0,0 28,-13.9091 31.5455,-14 31.5455,17.8182 -0.272727,17.8182"/>
    </object>
   </objectgroup>
  </tile>
  <tile id="1018">
   <objectgroup>
    <object id="1" x="0.0909091" y="0.363636">
     <polygon points="0,0 3.54545,-0.0909091 31.8182,13.8182 32,31.2727 -0.0909091,31.7273"/>
    </object>
   </objectgroup>
  </tile>
  <tile id="1019">
   <objectgroup>
    <object id="1" x="0" y="15.9091">
     <polygon points="0,0 3.27273,0.181818 31.5455,14 31.7273,15.8182 -0.181818,16.4545"/>
    </object>
   </objectgroup>
  </tile>
  <tile id="1024">
   <objectgroup>
    <object id="1" x="4" y="32">
     <polygon points="0,0 28,-13.9091 27.8182,-31.5455 -3.72727,-31.6364 -3.90909,-0.181818"/>
    </object>
   </objectgroup>
  </tile>
  <tile id="1025">
   <objectgroup>
    <object id="1" x="0.272727" y="15.9091">
     <polygon points="0,0 3.81818,0 31.8182,-14.1818 31.8182,-15.8182 0,-15.8182"/>
    </object>
   </objectgroup>
  </tile>
  <tile id="1026">
   <objectgroup>
    <object id="1" x="0.363636" y="2.09091">
     <polygon points="0,0 27.9091,13.8182 31.8182,13.7273 31.9091,-2 -0.363636,-1.81818"/>
    </object>
   </objectgroup>
  </tile>
  <tile id="1027">
   <objectgroup>
    <object id="1" x="32.0909" y="32.0909">
     <polygon points="0,0 -3.81818,-0.0909091 -32.0909,-14.2727 -32.0909,-32.1818 0,-31.9091"/>
    </object>
   </objectgroup>
  </tile>
  <tile id="1136">
   <objectgroup>
    <object id="1" x="30.1818" y="0.181818">
     <polygon points="0,0 -30.3592,29.8532 -30.4314,31.588 1.37339,31.7326 1.44567,-0.433702"/>
    </object>
   </objectgroup>
  </tile>
  <tile id="1137">
   <objectgroup>
    <object id="1" x="1.72727" y="0">
     <polygon points="0,0 29.9255,29.8532 30.2869,31.7326 -1.59024,32.0217 -1.80709,0"/>
    </object>
   </objectgroup>
  </tile>
  <tile id="1138">
   <objectgroup>
    <object id="1" x="30.1818" y="0.181818">
     <polygon points="0,0 -30.3592,29.8532 -30.4314,31.588 1.37339,31.7326 1.44567,-0.433702"/>
    </object>
   </objectgroup>
  </tile>
  <tile id="1139">
   <objectgroup>
    <object id="1" x="1.72727" y="0">
     <polygon points="0,0 29.9255,29.8532 30.2869,31.7326 -1.59024,32.0217 -1.80709,0"/>
    </object>
   </objectgroup>
  </tile>
  <tile id="1146">
   <objectgroup>
    <object id="1" x="0.272727" y="32.0909">
     <polygon points="0,0 1.72727,-0.181818 31.8182,-30.2727 31.9091,-32.1818 -0.272727,-32.0909"/>
    </object>
   </objectgroup>
  </tile>
  <tile id="1147">
   <objectgroup>
    <object id="1" x="32.0909" y="31.9091">
     <polygon points="0,0 -1.72727,0 -32.1818,-30.5455 -32.1818,-32 -0.272727,-31.8182"/>
    </object>
   </objectgroup>
  </tile>
  <tile id="1154">
   <objectgroup>
    <object id="1" x="30.1818" y="0.181818">
     <polygon points="0,0 -30.3592,29.8532 -30.4314,31.588 1.37339,31.7326 1.44567,-0.433702"/>
    </object>
   </objectgroup>
  </tile>
  <tile id="1155">
   <objectgroup>
    <object id="1" x="1.72727" y="0">
     <polygon points="0,0 29.9255,29.8532 30.2869,31.7326 -1.59024,32.0217 -1.80709,0"/>
    </object>
   </objectgroup>
  </tile>
  <tile id="1156">
   <objectgroup>
    <object id="1" x="0.181818" y="14.2727">
     <polygon points="0,0 28,-13.9091 31.5455,-14 31.5455,17.8182 -0.272727,17.8182"/>
    </object>
   </objectgroup>
  </tile>
  <tile id="1157">
   <objectgroup>
    <object id="1" x="0.0909091" y="0.363636">
     <polygon points="0,0 3.54545,-0.0909091 31.8182,13.8182 32,31.2727 -0.0909091,31.7273"/>
    </object>
   </objectgroup>
  </tile>
  <tile id="1160">
   <objectgroup>
    <object id="1" x="32.0909" y="31.9091">
     <polygon points="0,0 -1.72727,0 -32.1818,-30.5455 -32.1818,-32 -0.272727,-31.8182"/>
    </object>
   </objectgroup>
  </tile>
  <tile id="1161">
   <objectgroup>
    <object id="1" x="0.272727" y="32.0909">
     <polygon points="0,0 1.72727,-0.181818 31.8182,-30.2727 31.9091,-32.1818 -0.272727,-32.0909"/>
    </object>
   </objectgroup>
  </tile>
  <tile id="1162">
   <objectgroup>
    <object id="1" x="32.0909" y="31.9091">
     <polygon points="0,0 -1.72727,0 -32.1818,-30.5455 -32.1818,-32 -0.272727,-31.8182"/>
    </object>
   </objectgroup>
  </tile>
  <tile id="1163">
   <objectgroup>
    <object id="1" x="0.272727" y="32.0909">
     <polygon points="0,0 1.72727,-0.181818 31.8182,-30.2727 31.9091,-32.1818 -0.272727,-32.0909"/>
    </object>
   </objectgroup>
  </tile>
  <tile id="1168">
   <objectgroup>
    <object id="1" x="0.363636" y="30.1818">
     <polygon points="0,0 28.5455,-14.0909 31.9091,-14.2727 31.9091,1.63636 0.0909091,1.54545"/>
    </object>
   </objectgroup>
  </tile>
  <tile id="1169">
   <objectgroup>
    <object id="1" x="0.181818" y="14.2727">
     <polygon points="0,0 28,-13.9091 31.5455,-14 31.5455,17.8182 -0.272727,17.8182"/>
    </object>
   </objectgroup>
  </tile>
  <tile id="1170">
   <objectgroup>
    <object id="1" x="0.0909091" y="0.363636">
     <polygon points="0,0 3.54545,-0.0909091 31.8182,13.8182 32,31.2727 -0.0909091,31.7273"/>
    </object>
   </objectgroup>
  </tile>
  <tile id="1171">
   <objectgroup>
    <object id="1" x="0" y="15.9091">
     <polygon points="0,0 3.27273,0.181818 31.5455,14 31.7273,15.8182 -0.181818,16.4545"/>
    </object>
   </objectgroup>
  </tile>
  <tile id="1181">
   <objectgroup>
    <object id="1" x="4" y="32">
     <polygon points="0,0 28,-13.9091 27.8182,-31.5455 -3.72727,-31.6364 -3.90909,-0.181818"/>
    </object>
   </objectgroup>
  </tile>
  <tile id="1192">
   <objectgroup>
    <object id="1" x="0.363636" y="2.09091">
     <polygon points="0,0 27.9091,13.8182 31.8182,13.7273 31.9091,-2 -0.363636,-1.81818"/>
    </object>
   </objectgroup>
  </tile>
  <tile id="1193">
   <objectgroup>
    <object id="1" x="32.0909" y="32.0909">
     <polygon points="0,0 -3.81818,-0.0909091 -32.0909,-14.2727 -32.0909,-32.1818 0,-31.9091"/>
    </object>
   </objectgroup>
  </tile>
  <tile id="1194">
   <objectgroup>
    <object id="1" x="4" y="32">
     <polygon points="0,0 28,-13.9091 27.8182,-31.5455 -3.72727,-31.6364 -3.90909,-0.181818"/>
    </object>
   </objectgroup>
  </tile>
  <tile id="1195">
   <objectgroup>
    <object id="1" x="0.272727" y="15.9091">
     <polygon points="0,0 3.81818,0 31.8182,-14.1818 31.8182,-15.8182 0,-15.8182"/>
    </object>
   </objectgroup>
  </tile>
  <tile id="1200">
   <objectgroup>
    <object id="1" x="0.363636" y="30.1818">
     <polygon points="0,0 28.5455,-14.0909 31.9091,-14.2727 31.9091,1.63636 0.0909091,1.54545"/>
    </object>
   </objectgroup>
  </tile>
  <tile id="1201">
   <objectgroup>
    <object id="1" x="0.181818" y="14.2727">
     <polygon points="0,0 28,-13.9091 31.5455,-14 31.5455,17.8182 -0.272727,17.8182"/>
    </object>
   </objectgroup>
  </tile>
  <tile id="1202">
   <objectgroup>
    <object id="1" x="0.0909091" y="0.363636">
     <polygon points="0,0 3.54545,-0.0909091 31.8182,13.8182 32,31.2727 -0.0909091,31.7273"/>
    </object>
   </objectgroup>
  </tile>
  <tile id="1203">
   <objectgroup>
    <object id="1" x="0" y="15.9091">
     <polygon points="0,0 3.27273,0.181818 31.5455,14 31.7273,15.8182 -0.181818,16.4545"/>
    </object>
   </objectgroup>
  </tile>
  <tile id="1208">
   <objectgroup>
    <object id="1" x="4" y="32">
     <polygon points="0,0 28,-13.9091 27.8182,-31.5455 -3.72727,-31.6364 -3.90909,-0.181818"/>
    </object>
   </objectgroup>
  </tile>
  <tile id="1209">
   <objectgroup>
    <object id="1" x="0.272727" y="15.9091">
     <polygon points="0,0 3.81818,0 31.8182,-14.1818 31.8182,-15.8182 0,-15.8182"/>
    </object>
   </objectgroup>
  </tile>
  <tile id="1210">
   <objectgroup>
    <object id="1" x="0.363636" y="2.09091">
     <polygon points="0,0 27.9091,13.8182 31.8182,13.7273 31.9091,-2 -0.363636,-1.81818"/>
    </object>
   </objectgroup>
  </tile>
  <tile id="1211">
   <objectgroup>
    <object id="1" x="32.0909" y="32.0909">
     <polygon points="0,0 -3.81818,-0.0909091 -32.0909,-14.2727 -32.0909,-32.1818 0,-31.9091"/>
    </object>
   </objectgroup>
  </tile>
  <tile id="1248">
   <objectgroup draworder="index" id="2">
    <object id="1" x="0" y="2" width="32" height="30"/>
   </objectgroup>
  </tile>
  <tile id="1249">
   <objectgroup draworder="index" id="2">
    <object id="1" x="0" y="2" width="32" height="30"/>
   </objectgroup>
  </tile>
  <tile id="1250">
   <objectgroup draworder="index" id="2">
    <object id="1" x="0" y="2" width="32" height="30"/>
   </objectgroup>
  </tile>
  <wangsets>
   <wangset name="SueloTierra" type="corner" tile="9">
    <wangcolor name="" color="#ff0000" tile="9" probability="1"/>
    <wangtile tileid="0" wangid="0,0,0,1,0,0,0,0"/>
    <wangtile tileid="1" wangid="0,0,0,0,0,1,0,0"/>
    <wangtile tileid="2" wangid="0,1,0,1,0,0,0,0"/>
    <wangtile tileid="3" wangid="0,0,0,0,0,1,0,1"/>
    <wangtile tileid="4" wangid="0,1,0,0,0,0,0,0"/>
    <wangtile tileid="5" wangid="0,0,0,0,0,0,0,1"/>
    <wangtile tileid="9" wangid="0,0,0,1,0,1,0,0"/>
    <wangtile tileid="10" wangid="0,0,0,1,0,1,0,0"/>
    <wangtile tileid="11" wangid="0,0,0,1,0,1,0,0"/>
    <wangtile tileid="12" wangid="0,1,0,1,0,1,0,1"/>
    <wangtile tileid="13" wangid="0,1,0,1,0,1,0,1"/>
    <wangtile tileid="14" wangid="0,1,0,1,0,1,0,1"/>
    <wangtile tileid="15" wangid="0,1,0,0,0,0,0,1"/>
    <wangtile tileid="16" wangid="0,1,0,0,0,0,0,1"/>
    <wangtile tileid="17" wangid="0,1,0,0,0,0,0,1"/>
    <wangtile tileid="18" wangid="0,1,0,1,0,0,0,0"/>
    <wangtile tileid="19" wangid="0,1,0,1,0,0,0,0"/>
    <wangtile tileid="20" wangid="0,1,0,1,0,0,0,0"/>
    <wangtile tileid="21" wangid="0,0,0,0,0,1,0,1"/>
    <wangtile tileid="22" wangid="0,0,0,0,0,1,0,1"/>
    <wangtile tileid="23" wangid="0,0,0,0,0,1,0,1"/>
    <wangtile tileid="94" wangid="0,1,0,0,0,1,0,1"/>
    <wangtile tileid="95" wangid="0,1,0,1,0,0,0,1"/>
    <wangtile tileid="118" wangid="0,0,0,1,0,1,0,1"/>
    <wangtile tileid="119" wangid="0,1,0,1,0,1,0,0"/>
   </wangset>
   <wangset name="SueloPiedra" type="corner" tile="193">
    <wangcolor name="" color="#ff0000" tile="193" probability="1"/>
    <wangtile tileid="184" wangid="0,0,0,1,0,0,0,0"/>
    <wangtile tileid="185" wangid="0,0,0,0,0,1,0,0"/>
    <wangtile tileid="186" wangid="0,1,0,1,0,0,0,0"/>
    <wangtile tileid="187" wangid="0,0,0,0,0,1,0,1"/>
    <wangtile tileid="188" wangid="0,1,0,0,0,0,0,0"/>
    <wangtile tileid="189" wangid="0,0,0,0,0,0,0,1"/>
    <wangtile tileid="193" wangid="0,0,0,1,0,1,0,0"/>
    <wangtile tileid="194" wangid="0,0,0,1,0,1,0,0"/>
    <wangtile tileid="195" wangid="0,0,0,1,0,1,0,0"/>
    <wangtile tileid="196" wangid="0,1,0,1,0,1,0,1"/>
    <wangtile tileid="197" wangid="0,1,0,1,0,1,0,1"/>
    <wangtile tileid="198" wangid="0,1,0,1,0,1,0,1"/>
    <wangtile tileid="199" wangid="0,1,0,0,0,0,0,1"/>
    <wangtile tileid="200" wangid="0,1,0,0,0,0,0,1"/>
    <wangtile tileid="201" wangid="0,1,0,0,0,0,0,1"/>
    <wangtile tileid="202" wangid="0,1,0,1,0,0,0,0"/>
    <wangtile tileid="203" wangid="0,1,0,1,0,0,0,0"/>
    <wangtile tileid="204" wangid="0,1,0,1,0,0,0,0"/>
    <wangtile tileid="205" wangid="0,0,0,0,0,1,0,1"/>
    <wangtile tileid="206" wangid="0,0,0,0,0,1,0,1"/>
    <wangtile tileid="207" wangid="0,0,0,0,0,1,0,1"/>
    <wangtile tileid="278" wangid="0,1,0,0,0,1,0,1"/>
    <wangtile tileid="279" wangid="0,1,0,1,0,0,0,1"/>
    <wangtile tileid="302" wangid="0,0,0,1,0,1,0,1"/>
    <wangtile tileid="303" wangid="0,1,0,1,0,1,0,0"/>
   </wangset>
   <wangset name="SueloArena" type="corner" tile="386">
    <wangcolor name="" color="#ff0000" tile="386" probability="1"/>
    <wangtile tileid="376" wangid="0,0,0,1,0,0,0,0"/>
    <wangtile tileid="377" wangid="0,0,0,0,0,1,0,0"/>
    <wangtile tileid="378" wangid="0,1,0,1,0,0,0,0"/>
    <wangtile tileid="379" wangid="0,0,0,0,0,1,0,1"/>
    <wangtile tileid="380" wangid="0,1,0,0,0,0,0,0"/>
    <wangtile tileid="381" wangid="0,0,0,0,0,0,0,1"/>
    <wangtile tileid="385" wangid="0,0,0,1,0,1,0,0"/>
    <wangtile tileid="386" wangid="0,0,0,1,0,1,0,0"/>
    <wangtile tileid="387" wangid="0,0,0,1,0,1,0,0"/>
    <wangtile tileid="388" wangid="0,1,0,1,0,1,0,1"/>
    <wangtile tileid="389" wangid="0,1,0,1,0,1,0,1"/>
    <wangtile tileid="390" wangid="0,1,0,1,0,1,0,1"/>
    <wangtile tileid="391" wangid="0,1,0,0,0,0,0,1"/>
    <wangtile tileid="392" wangid="0,1,0,0,0,0,0,1"/>
    <wangtile tileid="393" wangid="0,1,0,0,0,0,0,1"/>
    <wangtile tileid="394" wangid="0,1,0,1,0,0,0,0"/>
    <wangtile tileid="395" wangid="0,1,0,1,0,0,0,0"/>
    <wangtile tileid="396" wangid="0,1,0,1,0,0,0,0"/>
    <wangtile tileid="397" wangid="0,0,0,0,0,1,0,1"/>
    <wangtile tileid="398" wangid="0,0,0,0,0,1,0,1"/>
    <wangtile tileid="399" wangid="0,0,0,0,0,1,0,1"/>
    <wangtile tileid="462" wangid="0,0,0,1,0,1,0,1"/>
    <wangtile tileid="463" wangid="0,1,0,1,0,1,0,0"/>
    <wangtile tileid="478" wangid="0,1,0,0,0,1,0,1"/>
    <wangtile tileid="479" wangid="0,1,0,1,0,0,0,1"/>
   </wangset>
   <wangset name="SueloArenaColiseo" type="corner" tile="922">
    <wangcolor name="" color="#ff0000" tile="922" probability="1"/>
    <wangtile tileid="880" wangid="0,0,0,1,0,0,0,0"/>
    <wangtile tileid="881" wangid="0,0,0,0,0,1,0,0"/>
    <wangtile tileid="882" wangid="0,1,0,1,0,0,0,0"/>
    <wangtile tileid="883" wangid="0,0,0,0,0,1,0,1"/>
    <wangtile tileid="884" wangid="0,1,0,0,0,0,0,0"/>
    <wangtile tileid="885" wangid="0,0,0,0,0,0,0,1"/>
    <wangtile tileid="888" wangid="0,1,0,0,0,0,0,1"/>
    <wangtile tileid="889" wangid="0,1,0,0,0,0,0,1"/>
    <wangtile tileid="890" wangid="0,1,0,1,0,0,0,0"/>
    <wangtile tileid="891" wangid="0,1,0,1,0,0,0,0"/>
    <wangtile tileid="892" wangid="0,1,0,1,0,0,0,0"/>
    <wangtile tileid="893" wangid="0,0,0,0,0,1,0,1"/>
    <wangtile tileid="894" wangid="0,0,0,0,0,1,0,1"/>
    <wangtile tileid="895" wangid="0,0,0,0,0,1,0,1"/>
    <wangtile tileid="913" wangid="0,1,0,0,0,0,0,1"/>
    <wangtile tileid="921" wangid="0,0,0,1,0,1,0,0"/>
    <wangtile tileid="922" wangid="0,0,0,1,0,1,0,0"/>
    <wangtile tileid="923" wangid="0,0,0,1,0,1,0,0"/>
    <wangtile tileid="924" wangid="0,1,0,1,0,1,0,1"/>
    <wangtile tileid="925" wangid="0,1,0,1,0,1,0,1"/>
    <wangtile tileid="926" wangid="0,1,0,1,0,1,0,1"/>
    <wangtile tileid="927" wangid="0,1,0,0,0,0,0,1"/>
    <wangtile tileid="1022" wangid="0,1,0,0,0,1,0,1"/>
    <wangtile tileid="1023" wangid="0,1,0,1,0,0,0,1"/>
    <wangtile tileid="1046" wangid="0,0,0,1,0,1,0,1"/>
    <wangtile tileid="1047" wangid="0,1,0,1,0,1,0,0"/>
   </wangset>
   <wangset name="SueloMadera" type="corner" tile="1106">
    <wangcolor name="" color="#ff0000" tile="1106" probability="1"/>
    <wangtile tileid="1064" wangid="0,0,0,1,0,0,0,0"/>
    <wangtile tileid="1065" wangid="0,0,0,0,0,1,0,0"/>
    <wangtile tileid="1066" wangid="0,1,0,1,0,0,0,0"/>
    <wangtile tileid="1067" wangid="0,0,0,0,0,1,0,1"/>
    <wangtile tileid="1068" wangid="0,1,0,0,0,0,0,0"/>
    <wangtile tileid="1069" wangid="0,0,0,0,0,0,0,1"/>
    <wangtile tileid="1074" wangid="0,1,0,1,0,0,0,0"/>
    <wangtile tileid="1075" wangid="0,1,0,1,0,0,0,0"/>
    <wangtile tileid="1076" wangid="0,1,0,1,0,0,0,0"/>
    <wangtile tileid="1077" wangid="0,0,0,0,0,1,0,1"/>
    <wangtile tileid="1078" wangid="0,0,0,0,0,1,0,1"/>
    <wangtile tileid="1079" wangid="0,0,0,0,0,1,0,1"/>
    <wangtile tileid="1097" wangid="0,1,0,0,0,0,0,1"/>
    <wangtile tileid="1105" wangid="0,0,0,1,0,1,0,0"/>
    <wangtile tileid="1106" wangid="0,0,0,1,0,1,0,0"/>
    <wangtile tileid="1107" wangid="0,0,0,1,0,1,0,0"/>
    <wangtile tileid="1206" wangid="0,1,0,0,0,1,0,1"/>
    <wangtile tileid="1207" wangid="0,1,0,1,0,0,0,1"/>
    <wangtile tileid="1230" wangid="0,0,0,1,0,1,0,1"/>
    <wangtile tileid="1231" wangid="0,1,0,1,0,1,0,0"/>
   </wangset>
  </wangsets>
 </tileset>
 <tileset firstgid="1777" name="bg" tilewidth="32" tileheight="32" tilecount="0" columns="32">
  <image source="../../../../../Downloads/Rome_BG-export.png" width="1024" height="704"/>
 </tileset>
 <tileset firstgid="1777" name="Koopa" tilewidth="41" tileheight="60" tilecount="1" columns="0">
  <grid orientation="orthogonal" width="1" height="1"/>
  <tile id="0" x="0" y="0" width="41" height="60">
   <image source="../assets/GameSprites/Characters/Enemigos/Koopa/Koopa_walk_R.png" width="205" height="60"/>
  </tile>
 </tileset>
 <tileset firstgid="1778" name="Monedas" tilewidth="32" tileheight="32" tilecount="18" columns="9">
  <image source="../assets/GameSprites/Items/Coins.png" width="288" height="64"/>
  <tile id="0">
   <animation>
    <frame tileid="0" duration="100"/>
    <frame tileid="1" duration="100"/>
    <frame tileid="2" duration="100"/>
    <frame tileid="3" duration="100"/>
    <frame tileid="4" duration="100"/>
    <frame tileid="5" duration="100"/>
    <frame tileid="6" duration="100"/>
    <frame tileid="7" duration="100"/>
    <frame tileid="8" duration="100"/>
   </animation>
  </tile>
  <tile id="9">
   <animation>
    <frame tileid="9" duration="100"/>
    <frame tileid="10" duration="100"/>
    <frame tileid="11" duration="100"/>
    <frame tileid="12" duration="100"/>
    <frame tileid="13" duration="100"/>
    <frame tileid="14" duration="100"/>
    <frame tileid="15" duration="100"/>
    <frame tileid="16" duration="100"/>
    <frame tileid="17" duration="100"/>
   </animation>
  </tile>
 </tileset>
 <tileset firstgid="1796" name="barraFin" tilewidth="64" tileheight="32" tilecount="1" columns="1">
  <image source="../assets/GameSprites/Items/barraFin.png" width="64" height="32"/>
 </tileset>
 <tileset firstgid="1797" name="Goomba" tilewidth="30" tileheight="30" tilecount="4" columns="4">
  <image source="../assets/GameSprites/Characters/Enemigos/Goomba/GombRome_Walk.png" width="120" height="30"/>
 </tileset>
 <tileset firstgid="1801" name="Piranha" tilewidth="44" tileheight="56" tilecount="1" columns="1">
  <image source="../assets/GameSprites/Characters/Enemigos/PiranhaPlant/PiranhaPlant_Idle.png" width="44" height="56"/>
 </tileset>
 <tileset firstgid="1802" name="Pokey" tilewidth="30" tileheight="30" tilecount="2" columns="2">
  <image source="../assets/GameSprites/Characters/Enemigos/Pokey/Pokey.png" width="60" height="30"/>
  <tile id="1">
   <properties>
    <property name="segments" type="int" value="5"/>
    <property name="speed" type="float" value="0.5"/>
   </properties>
  </tile>
 </tileset>
 <tileset firstgid="1804" source="SunIntensity.tsx"/>
 <tileset firstgid="1813" source="Colosseum_BG.tsx"/>
 <tileset firstgid="2539" source="bgCloud.tsx"/>
 <tileset firstgid="2795" source="Water.tsx"/>
 <layer id="2" name="CapaFondo" width="296" height="26">
  <data encoding="csv">
624,256,256,256,256,256,256,624,0,0,0,0,0,0,0,0,0,0,0,0,0,0,0,0,0,0,0,0,0,0,0,0,0,0,0,0,0,0,0,0,0,0,0,0,0,0,0,0,0,0,0,0,0,0,0,0,0,0,0,0,0,0,0,0,0,0,0,0,0,0,0,0,0,0,0,0,0,0,0,0,0,0,0,0,0,0,0,0,0,0,0,0,0,0,0,0,0,0,0,0,0,0,0,0,0,0,0,0,0,0,0,0,0,0,0,0,0,0,0,0,0,0,0,0,0,0,0,0,0,0,0,0,0,0,0,0,0,0,0,0,0,0,0,0,0,0,0,0,0,0,0,0,0,0,0,0,0,0,0,0,0,0,0,0,0,0,0,0,0,0,0,0,0,0,0,0,0,0,0,0,0,0,0,0,0,0,0,0,0,0,0,0,0,0,0,0,0,0,0,0,0,0,0,0,0,0,0,0,0,0,0,0,0,0,0,0,0,0,0,0,0,0,0,0,0,0,0,0,0,0,0,0,0,0,0,0,0,0,0,0,0,0,0,0,0,0,0,0,0,0,0,0,0,0,0,0,0,0,0,0,0,0,0,0,0,0,0,0,0,0,0,0,0,0,0,0,0,0,0,0,0,0,0,0,0,0,0,0,0,0,0,0,0,0,0,0,
624,256,256,256,256,256,256,624,0,0,0,0,0,0,0,0,0,0,0,0,0,0,0,0,0,0,0,0,0,0,0,0,0,0,0,0,0,0,0,0,0,0,0,0,0,0,0,0,0,0,0,0,0,0,0,0,0,0,0,0,0,0,0,0,0,0,0,0,0,0,0,0,0,0,0,0,0,0,0,0,0,0,0,0,0,0,0,0,0,0,0,0,0,0,0,0,0,0,0,0,0,0,0,0,0,0,0,0,0,0,0,0,0,0,0,0,0,0,0,0,0,0,0,0,0,0,0,0,0,0,0,0,0,0,0,0,0,0,0,0,0,0,0,0,0,0,0,0,0,0,0,0,0,0,0,0,0,0,0,0,0,0,0,0,0,0,0,0,0,0,0,0,0,0,0,0,0,0,0,0,0,0,0,0,0,0,0,0,0,0,0,0,0,0,0,0,0,0,0,0,0,0,0,0,0,0,0,0,0,0,0,0,0,0,0,0,0,0,0,0,0,0,0,0,0,0,0,0,0,0,0,0,0,0,0,0,0,0,0,0,0,0,0,0,0,0,0,0,0,0,0,0,0,0,0,0,0,0,0,0,0,0,0,0,0,0,0,0,0,0,0,0,0,0,0,0,0,0,0,0,0,0,0,0,0,0,0,0,0,0,0,0,0,0,0,0,
624,256,256,256,256,256,256,624,0,0,0,0,0,0,0,0,0,0,0,0,0,0,0,0,0,0,0,0,0,0,0,0,0,0,0,0,0,0,0,0,0,0,0,0,0,0,0,0,0,0,0,0,0,0,0,0,0,0,0,0,0,0,0,0,0,0,0,0,0,0,0,0,0,0,0,0,0,0,0,0,0,0,0,0,0,0,0,0,0,0,0,0,0,0,0,0,0,0,0,0,0,0,0,0,0,0,0,0,0,0,0,0,0,0,0,0,0,0,0,0,0,0,0,0,0,0,0,0,0,0,0,0,0,0,0,0,0,0,0,0,0,0,0,0,0,0,0,0,0,0,0,0,0,0,0,0,0,0,0,0,0,0,0,0,0,0,0,0,0,0,0,0,0,0,0,0,0,0,0,0,0,0,0,0,0,0,0,0,0,0,0,0,0,0,0,0,0,0,0,0,0,0,0,0,0,0,0,0,0,0,0,0,0,0,0,0,0,0,0,0,0,0,0,0,0,0,0,0,0,0,0,0,0,0,0,0,0,0,0,0,0,0,0,0,0,0,0,0,0,0,0,0,0,0,0,0,0,0,0,0,0,0,0,0,0,0,0,0,0,0,0,0,0,0,0,0,0,0,0,0,0,0,0,0,0,0,0,0,0,0,0,0,0,0,0,0,
624,256,256,256,256,256,256,624,0,0,0,0,0,0,0,0,0,0,0,0,0,0,0,0,0,0,0,0,0,0,0,0,0,0,0,0,0,0,0,0,0,0,0,0,0,0,0,0,0,0,0,0,0,0,0,0,0,0,0,0,0,0,0,0,0,0,0,0,0,0,0,0,0,0,0,0,0,0,0,0,0,0,0,0,0,0,0,0,0,0,0,0,0,0,0,0,0,0,0,0,0,0,0,0,0,0,0,0,0,0,0,0,0,0,0,0,0,0,0,0,0,0,0,0,0,0,0,0,0,0,0,0,0,0,0,0,0,0,0,0,0,0,0,0,0,0,0,0,0,0,0,0,0,0,0,0,0,0,0,0,0,0,0,0,0,0,0,0,0,0,0,0,0,0,0,0,0,0,0,0,0,0,0,0,0,0,0,0,0,0,0,0,0,0,0,0,0,0,0,0,0,0,0,0,0,0,0,0,0,0,0,0,0,0,0,0,0,0,0,0,0,0,0,0,0,0,0,0,0,0,0,0,0,0,0,0,0,0,0,0,0,0,0,0,0,0,0,0,0,0,0,0,0,0,0,0,0,0,0,0,0,0,0,0,0,0,0,0,0,0,0,0,0,0,0,0,0,0,0,0,0,0,0,0,0,0,0,0,0,0,0,0,0,0,0,0,
624,256,256,256,256,256,256,624,0,0,0,0,0,0,0,0,0,0,0,0,0,0,0,0,0,0,0,0,0,0,0,0,0,0,0,0,0,0,0,0,0,0,0,0,0,0,0,0,0,0,0,0,0,0,0,0,0,0,0,0,0,0,0,0,0,0,0,0,0,0,0,0,0,0,0,0,0,0,0,0,0,0,0,0,0,0,0,0,0,0,0,0,0,0,0,0,0,0,0,0,0,0,0,0,0,0,0,0,0,0,0,0,0,0,0,0,0,0,0,0,0,0,0,0,0,0,0,0,0,0,0,0,0,0,0,0,0,0,0,0,0,0,0,0,0,0,0,0,0,0,0,0,0,0,0,0,0,0,0,0,0,0,0,0,0,0,0,0,0,0,0,0,0,0,0,0,0,0,0,0,0,0,0,0,0,0,0,0,0,0,0,0,0,0,0,0,0,0,0,0,0,0,0,0,0,0,0,0,0,0,0,0,0,0,0,0,0,0,0,0,0,0,0,0,0,0,0,0,0,0,0,0,0,0,0,0,0,0,0,0,0,0,0,0,0,0,0,0,0,0,0,0,0,0,0,0,0,0,0,0,0,0,0,0,0,0,0,0,0,0,0,0,0,0,0,0,0,0,0,0,0,0,0,0,0,0,0,0,0,0,0,0,0,0,0,0,
624,256,256,256,256,256,256,624,1821,1822,1823,1824,1825,1826,1827,1828,1829,1830,1831,1832,1833,1834,1835,1836,1837,1838,1839,1840,1841,1842,1843,1844,1845,1813,1814,1815,1816,1817,1818,1819,1820,1821,1822,1823,1824,1825,1826,1827,1828,1829,1830,1831,1832,1833,1834,1835,1836,1837,1838,1839,1840,1841,1842,1843,1844,1845,1813,1814,1815,1816,1817,1818,1819,1820,1821,1822,1823,1824,1825,1826,1827,1828,1829,1830,1831,1832,1833,1834,1835,1836,1837,1838,1839,1840,1841,1842,1843,1844,1845,1813,1814,1815,1816,1817,1818,1819,1820,1821,1822,1823,1824,1825,1826,1827,1828,1829,1830,1831,1832,1833,1834,1835,1836,1837,1838,1839,1840,1841,1842,1843,1844,1845,1813,1814,1815,1816,1817,1818,1819,1820,1821,1822,1823,1824,1825,1826,1827,1828,1829,1830,1831,1832,1833,1834,1835,1836,1837,1838,1839,1840,1841,1842,1843,1844,1845,1813,1814,1815,1816,1817,1818,1819,1820,1821,1822,1823,1824,1825,1826,1827,1828,1829,1830,1831,1832,1833,1834,1835,1836,1837,1838,1839,1840,1841,1842,1843,1844,1845,1813,1814,1815,1816,1817,1818,1819,1820,1821,1822,1823,1824,1825,1826,1827,1828,1829,1830,1831,1832,1833,1834,1835,1836,1837,1838,1839,1840,1841,1842,1843,1844,1845,1813,1814,1815,1816,1817,1818,1819,1820,1821,1822,1823,1824,1825,1826,1827,1828,1829,1830,1831,1832,1833,1834,1835,1836,1837,1838,1839,1840,1841,1842,1843,1844,1845,1813,1814,1815,1816,1817,1818,1819,1820,1821,1822,1823,1824,1825,1826,1827,1828,1829,1830,1831,1832,1833,1834,1835,1836,1837,1838,1839,1840,1841,1842,1843,1844,
624,256,256,256,256,256,256,624,1854,1855,1856,1857,1858,1859,1860,1861,1862,1863,1864,1865,1866,1867,1868,1869,1870,1871,1872,1873,1874,1875,1876,1877,1878,1846,1847,1848,1849,1850,1851,1852,1853,1854,1855,1856,1857,1858,1859,1860,1861,1862,1863,1864,1865,1866,1867,1868,1869,1870,1871,1872,1873,1874,1875,1876,1877,1878,1846,1847,1848,1849,1850,1851,1852,1853,1854,1855,1856,1857,1858,1859,1860,1861,1862,1863,1864,1865,1866,1867,1868,1869,1870,1871,1872,1873,1874,1875,1876,1877,1878,1846,1847,1848,1849,1850,1851,1852,1853,1854,1855,1856,1857,1858,1859,1860,1861,1862,1863,1864,1865,1866,1867,1868,1869,1870,1871,1872,1873,1874,1875,1876,1877,1878,1846,1847,1848,1849,1850,1851,1852,1853,1854,1855,1856,1857,1858,1859,1860,1861,1862,1863,1864,1865,1866,1867,1868,1869,1870,1871,1872,1873,1874,1875,1876,1877,1878,1846,1847,1848,1849,1850,1851,1852,1853,1854,1855,1856,1857,1858,1859,1860,1861,1862,1863,1864,1865,1866,1867,1868,1869,1870,1871,1872,1873,1874,1875,1876,1877,1878,1846,1847,1848,1849,1850,1851,1852,1853,1854,1855,1856,1857,1858,1859,1860,1861,1862,1863,1864,1865,1866,1867,1868,1869,1870,1871,1872,1873,1874,1875,1876,1877,1878,1846,1847,1848,1849,1850,1851,1852,1853,1854,1855,1856,1857,1858,1859,1860,1861,1862,1863,1864,1865,1866,1867,1868,1869,1870,1871,1872,1873,1874,1875,1876,1877,1878,1846,1847,1848,1849,1850,1851,1852,1853,1854,1855,1856,1857,1858,1859,1860,1861,1862,1863,1864,1865,1866,1867,1868,1869,1870,1871,1872,1873,1874,1875,1876,1877,
624,256,256,256,256,256,256,624,1887,1888,1889,1890,1891,1892,1893,1894,1895,1896,1897,1898,1899,1900,1901,1902,1903,1904,1905,1906,1907,1908,1909,1910,1911,1879,1880,1881,1882,1883,1884,1885,1886,1887,1888,1889,1890,1891,1892,1893,1894,1895,1896,1897,1898,1899,1900,1901,1902,1903,1904,1905,1906,1907,1908,1909,1910,1911,1879,1880,1881,1882,1883,1884,1885,1886,1887,1888,1889,1890,1891,1892,1893,1894,1895,1896,1897,1898,1899,1900,1901,1902,1903,1904,1905,1906,1907,1908,1909,1910,1911,1879,1880,1881,1882,1883,1884,1885,1886,1887,1888,1889,1890,1891,1892,1893,1894,1895,1896,1897,1898,1899,1900,1901,1902,1903,1904,1905,1906,1907,1908,1909,1910,1911,1879,1880,1881,1882,1883,1884,1885,1886,1887,1888,1889,1890,1891,1892,1893,1894,1895,1896,1897,1898,1899,1900,1901,1902,1903,1904,1905,1906,1907,1908,1909,1910,1911,1879,1880,1881,1882,1883,1884,1885,1886,1887,1888,1889,1890,1891,1892,1893,1894,1895,1896,1897,1898,1899,1900,1901,1902,1903,1904,1905,1906,1907,1908,1909,1910,1911,1879,1880,1881,1882,1883,1884,1885,1886,1887,1888,1889,1890,1891,1892,1893,1894,1895,1896,1897,1898,1899,1900,1901,1902,1903,1904,1905,1906,1907,1908,1909,1910,1911,1879,1880,1881,1882,1883,1884,1885,1886,1887,1888,1889,1890,1891,1892,1893,1894,1895,1896,1897,1898,1899,1900,1901,1902,1903,1904,1905,1906,1907,1908,1909,1910,1911,1879,1880,1881,1882,1883,1884,1885,1886,1887,1888,1889,1890,1891,1892,1893,1894,1895,1896,1897,1898,1899,1900,1901,1902,1903,1904,1905,1906,1907,1908,1909,1910,
624,256,256,256,256,256,256,624,1920,1921,1922,1923,1924,1925,1926,1927,1928,1929,1930,1931,1932,1933,1934,1935,1936,1937,1938,1939,1940,1941,1942,1943,1944,1912,1913,1914,1915,1916,1917,1918,1919,1920,1921,1922,1923,1924,1925,1926,1927,1928,1929,1930,1931,1932,1933,1934,1935,1936,1937,1938,1939,1940,1941,1942,1943,1944,1912,1913,1914,1915,1916,1917,1918,1919,1920,1921,1922,1923,1924,1925,1926,1927,1928,1929,1930,1931,1932,1933,1934,1935,1936,1937,1938,1939,1940,1941,1942,1943,1944,1912,1913,1914,1915,1916,1917,1918,1919,1920,1921,1922,1923,1924,1925,1926,1927,1928,1929,1930,1931,1932,1933,1934,1935,1936,1937,1938,1939,1940,1941,1942,1943,1944,1912,1913,1914,1915,1916,1917,1918,1919,1920,1921,1922,1923,1924,1925,1926,1927,1928,1929,1930,1931,1932,1933,1934,1935,1936,1937,1938,1939,1940,1941,1942,1943,1944,1912,1913,1914,1915,1916,1917,1918,1919,1920,1921,1922,1923,1924,1925,1926,1927,1928,1929,1930,1931,1932,1933,1934,1935,1936,1937,1938,1939,1940,1941,1942,1943,1944,1912,1913,1914,1915,1916,1917,1918,1919,1920,1921,1922,1923,1924,1925,1926,1927,1928,1929,1930,1931,1932,1933,1934,1935,1936,1937,1938,1939,1940,1941,1942,1943,1944,1912,1913,1914,1915,1916,1917,1918,1919,1920,1921,1922,1923,1924,1925,1926,1927,1928,1929,1930,1931,1932,1933,1934,1935,1936,1937,1938,1939,1940,1941,1942,1943,1944,1912,1913,1914,1915,1916,1917,1918,1919,1920,1921,1922,1923,1924,1925,1926,1927,1928,1929,1930,1931,1932,1933,1934,1935,1936,1937,1938,1939,1940,1941,1942,1943,
624,256,256,256,256,256,256,624,1953,1954,1955,1956,1957,1958,1959,1960,1961,1962,1963,1964,1965,1966,1967,1968,1969,1970,1971,1972,1973,1974,1975,1976,1977,1945,1946,1947,1948,1949,1950,1951,1952,1953,1954,1955,1956,1957,1958,1959,1960,1961,1962,1963,1964,1965,1966,1967,1968,1969,1970,1971,1972,1973,1974,1975,1976,1977,1945,1946,1947,1948,1949,1950,1951,1952,1953,1954,1955,1956,1957,1958,1959,1960,1961,1962,1963,1964,1965,1966,1967,1968,1969,1970,1971,1972,1973,1974,1975,1976,1977,1945,1946,1947,1948,1949,1950,1951,1952,1953,1954,1955,1956,1957,1958,1959,1960,1961,1962,1963,1964,1965,1966,1967,1968,1969,1970,1971,1972,1973,1974,1975,1976,1977,1945,1946,1947,1948,1949,1950,1951,1952,1953,1954,1955,1956,1957,1958,1959,1960,1961,1962,1963,1964,1965,1966,1967,1968,1969,1970,1971,1972,1973,1974,1975,1976,1977,1945,1946,1947,1948,1949,1950,1951,1952,1953,1954,1955,1956,1957,1958,1959,1960,1961,1962,1963,1964,1965,1966,1967,1968,1969,1970,1971,1972,1973,1974,1975,1976,1977,1945,1946,1947,1948,1949,1950,1951,1952,1953,1954,1955,1956,1957,1958,1959,1960,1961,1962,1963,1964,1965,1966,1967,1968,1969,1970,1971,1972,1973,1974,1975,1976,1977,1945,1946,1947,1948,1949,1950,1951,1952,1953,1954,1955,1956,1957,1958,1959,1960,1961,1962,1963,1964,1965,1966,1967,1968,1969,1970,1971,1972,1973,1974,1975,1976,1977,1945,1946,1947,1948,1949,1950,1951,1952,1953,1954,1955,1956,1957,1958,1959,1960,1961,1962,1963,1964,1965,1966,1967,1968,1969,1970,1971,1972,1973,1974,1975,1976,
624,256,256,256,256,256,256,624,1986,1987,1988,1989,1990,1991,1992,1993,1994,1995,1996,1997,1998,1999,2000,2001,2002,2003,2004,2005,2006,2007,2008,2009,2010,1978,1979,1980,1981,1982,1983,1984,1985,1986,1987,1988,1989,1990,1991,1992,1993,1994,1995,1996,1997,1998,1999,2000,2001,2002,2003,2004,2005,2006,2007,2008,2009,2010,1978,1979,1980,1981,1982,1983,1984,1985,1986,1987,1988,1989,1990,1991,1992,1993,1994,1995,1996,1997,1998,1999,2000,2001,2002,2003,2004,2005,2006,2007,2008,2009,2010,1978,1979,1980,1981,1982,1983,1984,1985,1986,1987,1988,1989,1990,1991,1992,1993,1994,1995,1996,1997,1998,1999,2000,2001,2002,2003,2004,2005,2006,2007,2008,2009,2010,1978,1979,1980,1981,1982,1983,1984,1985,1986,1987,1988,1989,1990,1991,1992,1993,1994,1995,1996,1997,1998,1999,2000,2001,2002,2003,2004,2005,2006,2007,2008,2009,2010,1978,1979,1980,1981,1982,1983,1984,1985,1986,1987,1988,1989,1990,1991,1992,1993,1994,1995,1996,1997,1998,1999,2000,2001,2002,2003,2004,2005,2006,2007,2008,2009,2010,1978,1979,1980,1981,1982,1983,1984,1985,1986,1987,1988,1989,1990,1991,1992,1993,1994,1995,1996,1997,1998,1999,2000,2001,2002,2003,2004,2005,2006,2007,2008,2009,2010,1978,1979,1980,1981,1982,1983,1984,1985,1986,1987,1988,1989,1990,1991,1992,1993,1994,1995,1996,1997,1998,1999,2000,2001,2002,2003,2004,2005,2006,2007,2008,2009,2010,1978,1979,1980,1981,1982,1983,1984,1985,1986,1987,1988,1989,1990,1991,1992,1993,1994,1995,1996,1997,1998,1999,2000,2001,2002,2003,2004,2005,2006,2007,2008,2009,
624,256,256,256,256,256,256,624,2019,2020,2021,2022,2023,2024,2025,2026,2027,2028,2029,2030,2031,2032,2033,2034,2035,2036,2037,2038,2039,2040,2041,2042,2043,2011,2012,2013,2014,2015,2016,2017,2018,2019,2020,2021,2022,2023,2024,2025,2026,2027,2028,2029,2030,2031,2032,2033,2034,2035,2036,2037,2038,2039,2040,2041,2042,2043,2011,2012,2013,2014,2015,2016,2017,2018,2019,2020,2021,2022,2023,2024,2025,2026,2027,2028,2029,2030,2031,2032,2033,2034,2035,2036,2037,2038,2039,2040,2041,2042,2043,2011,2012,2013,2014,2015,2016,2017,2018,2019,2020,2021,2022,2023,2024,2025,2026,2027,2028,2029,2030,2031,2032,2033,2034,2035,2036,2037,2038,2039,2040,2041,2042,2043,2011,2012,2013,2014,2015,2016,2017,2018,2019,2020,2021,2022,2023,2024,2025,2026,2027,2028,2029,2030,2031,2032,2033,2034,2035,2036,2037,2038,2039,2040,2041,2042,2043,2011,2012,2013,2014,2015,2016,2017,2018,2019,2020,2021,2022,2023,2024,2025,2026,2027,2028,2029,2030,2031,2032,2033,2034,2035,2036,2037,2038,2039,2040,2041,2042,2043,2011,2012,2013,2014,2015,2016,2017,2018,2019,2020,2021,2022,2023,2024,2025,2026,2027,2028,2029,2030,2031,2032,2033,2034,2035,2036,2037,2038,2039,2040,2041,2042,2043,2011,2012,2013,2014,2015,2016,2017,2018,2019,2020,2021,2022,2023,2024,2025,2026,2027,2028,2029,2030,2031,2032,2033,2034,2035,2036,2037,2038,2039,2040,2041,2042,2043,2011,2012,2013,2014,2015,2016,2017,2018,2019,2020,2021,2022,2023,2024,2025,2026,2027,2028,2029,2030,2031,2032,2033,2034,2035,2036,2037,2038,2039,2040,2041,2042,
624,256,256,256,256,256,256,624,2052,2053,2054,2055,2056,2057,2058,2059,2060,2061,2062,2063,2064,2065,2066,2067,2068,2069,2070,2071,2072,2073,2074,2075,2076,2044,2045,2046,2047,2048,2049,2050,2051,2052,2053,2054,2055,2056,2057,2058,2059,2060,2061,2062,2063,2064,2065,2066,2067,2068,2069,2070,2071,2072,2073,2074,2075,2076,2044,2045,2046,2047,2048,2049,2050,2051,2052,2053,2054,2055,2056,2057,2058,2059,2060,2061,2062,2063,2064,2065,2066,2067,2068,2069,2070,2071,2072,2073,2074,2075,2076,2044,2045,2046,2047,2048,2049,2050,2051,2052,2053,2054,2055,2056,2057,2058,2059,2060,2061,2062,2063,2064,2065,2066,2067,2068,2069,2070,2071,2072,2073,2074,2075,2076,2044,2045,2046,2047,2048,2049,2050,2051,2052,2053,2054,2055,2056,2057,2058,2059,2060,2061,2062,2063,2064,2065,2066,2067,2068,2069,2070,2071,2072,2073,2074,2075,2076,2044,2045,2046,2047,2048,2049,2050,2051,2052,2053,2054,2055,2056,2057,2058,2059,2060,2061,2062,2063,2064,2065,2066,2067,2068,2069,2070,2071,2072,2073,2074,2075,2076,2044,2045,2046,2047,2048,2049,2050,2051,2052,2053,2054,2055,2056,2057,2058,2059,2060,2061,2062,2063,2064,2065,2066,2067,2068,2069,2070,2071,2072,2073,2074,2075,2076,2044,2045,2046,2047,2048,2049,2050,2051,2052,2053,2054,2055,2056,2057,2058,2059,2060,2061,2062,2063,2064,2065,2066,2067,2068,2069,2070,2071,2072,2073,2074,2075,2076,2044,2045,2046,2047,2048,2049,2050,2051,2052,2053,2054,2055,2056,2057,2058,2059,2060,2061,2062,2063,2064,2065,2066,2067,2068,2069,2070,2071,2072,2073,2074,2075,
624,624,624,624,624,624,624,624,2085,2086,2087,2088,2089,2090,2091,2092,2093,2094,2095,2096,2097,2098,2099,2100,2101,2102,2103,2104,2105,2106,2107,2108,2109,2077,2078,2079,2080,2081,2082,2083,2084,2085,2086,2087,2088,2089,2090,2091,2092,2093,2094,2095,2096,2097,2098,2099,2100,2101,2102,2103,2104,2105,2106,2107,2108,2109,2077,2078,2079,2080,2081,2082,2083,2084,2085,2086,2087,2088,2089,2090,2091,2092,2093,2094,2095,2096,2097,2098,2099,2100,2101,2102,2103,2104,2105,2106,2107,2108,2109,2077,2078,2079,2080,2081,2082,2083,2084,2085,2086,2087,2088,2089,2090,2091,2092,2093,2094,2095,2096,2097,2098,2099,2100,2101,2102,2103,2104,2105,2106,2107,2108,2109,2077,2078,2079,2080,2081,2082,2083,2084,2085,2086,2087,2088,2089,2090,2091,2092,2093,2094,2095,2096,2097,2098,2099,2100,2101,2102,2103,2104,2105,2106,2107,2108,2109,2077,2078,2079,2080,2081,2082,2083,2084,2085,2086,2087,2088,2089,2090,2091,2092,2093,2094,2095,2096,2097,2098,2099,2100,2101,2102,2103,2104,2105,2106,2107,2108,2109,2077,2078,2079,2080,2081,2082,2083,2084,2085,2086,2087,2088,2089,2090,2091,2092,2093,2094,2095,2096,2097,2098,2099,2100,2101,2102,2103,2104,2105,2106,2107,2108,2109,2077,2078,2079,2080,2081,2082,2083,2084,2085,2086,2087,2088,2089,2090,2091,2092,2093,2094,2095,2096,2097,2098,2099,2100,2101,2102,2103,2104,2105,2106,2107,2108,2109,2077,2078,2079,2080,2081,2082,2083,2084,2085,2086,2087,2088,2089,2090,2091,2092,2093,2094,2095,2096,2097,2098,2099,2100,2101,2102,2103,2104,2105,2106,2107,2108,
624,256,256,256,256,256,256,624,2118,2119,2120,2121,2122,2123,2124,2125,2126,2127,2128,2129,2130,2131,2132,2133,2134,2135,2136,2137,2138,2139,2140,2141,2142,2110,2111,2112,2113,2114,2115,2116,2117,2118,2119,2120,2121,2122,2123,2124,2125,2126,2127,2128,2129,2130,2131,2132,2133,2134,2135,2136,2137,2138,2139,2140,2141,2142,2110,2111,2112,2113,2114,2115,2116,2117,2118,2119,2120,2121,2122,2123,2124,2125,2126,2127,2128,2129,2130,2131,2132,2133,2134,2135,2136,2137,2138,2139,2140,2141,2142,2110,2111,2112,2113,2114,2115,2116,2117,2118,2119,2120,2121,2122,2123,2124,2125,2126,2127,2128,2129,2130,2131,2132,2133,2134,2135,2136,2137,2138,2139,2140,2141,2142,2110,2111,2112,2113,2114,2115,2116,2117,2118,2119,2120,2121,2122,2123,2124,2125,2126,2127,2128,2129,2130,2131,2132,2133,2134,2135,2136,2137,2138,2139,2140,2141,2142,2110,2111,2112,2113,2114,2115,2116,2117,2118,2119,2120,2121,2122,2123,2124,2125,2126,2127,2128,2129,2130,2131,2132,2133,2134,2135,2136,2137,2138,2139,2140,2141,2142,2110,2111,2112,2113,2114,2115,2116,2117,2118,2119,2120,2121,2122,2123,2124,2125,2126,2127,2128,2129,2130,2131,2132,2133,2134,2135,2136,2137,2138,2139,2140,2141,2142,2110,2111,2112,2113,2114,2115,2116,2117,2118,2119,2120,2121,2122,2123,2124,2125,2126,2127,2128,2129,2130,2131,2132,2133,2134,2135,2136,2137,2138,2139,2140,2141,2142,2110,2111,2112,2113,2114,2115,2116,2117,2118,2119,2120,2121,2122,2123,2124,2125,2126,2127,2128,2129,2130,2131,2132,2133,2134,2135,2136,2137,2138,2139,2140,2141,
624,256,256,256,256,256,256,624,2151,2152,2153,2154,2155,2156,2157,2158,2159,2160,2161,2162,2163,2164,2165,2166,2167,2168,2169,2170,2171,2172,2173,2174,2175,2143,2144,2145,2146,2147,2148,2149,2150,2151,2152,2153,2154,2155,2156,2157,2158,2159,2160,2161,2162,2163,2164,2165,2166,2167,2168,2169,2170,2171,2172,2173,2174,2175,2143,2144,2145,2146,2147,2148,2149,2150,2151,2152,2153,2154,2155,2156,2157,2158,2159,2160,2161,2162,2163,2164,2165,2166,2167,2168,2169,2170,2171,2172,2173,2174,2175,2143,2144,2145,2146,2147,2148,2149,2150,2151,2152,2153,2154,2155,2156,2157,2158,2159,2160,2161,2162,2163,2164,2165,2166,2167,2168,2169,2170,2171,2172,2173,2174,2175,2143,2144,2145,2146,2147,2148,2149,2150,2151,2152,2153,2154,2155,2156,2157,2158,2159,2160,2161,2162,2163,2164,2165,2166,2167,2168,2169,2170,2171,2172,2173,2174,2175,2143,2144,2145,2146,2147,2148,2149,2150,2151,2152,2153,2154,2155,2156,2157,2158,2159,2160,2161,2162,2163,2164,2165,2166,2167,2168,2169,2170,2171,2172,2173,2174,2175,2143,2144,2145,2146,2147,2148,2149,2150,2151,2152,2153,2154,2155,2156,2157,2158,2159,2160,2161,2162,2163,2164,2165,2166,2167,2168,2169,2170,2171,2172,2173,2174,2175,2143,2144,2145,2146,2147,2148,2149,2150,2151,2152,2153,2154,2155,2156,2157,2158,2159,2160,2161,2162,2163,2164,2165,2166,2167,2168,2169,2170,2171,2172,2173,2174,2175,2143,2144,2145,2146,2147,2148,2149,2150,2151,2152,2153,2154,2155,2156,2157,2158,2159,2160,2161,2162,2163,2164,2165,2166,2167,2168,2169,2170,2171,2172,2173,2174,
624,256,256,256,256,256,256,624,2184,2185,2186,2187,2188,2189,2190,2191,2192,2193,2194,2195,2196,2197,2198,2199,2200,2201,2202,2203,2204,2205,2206,2207,2208,2176,2177,2178,2179,2180,2181,2182,2183,2184,2185,2186,2187,2188,2189,2190,2191,2192,2193,2194,2195,2196,2197,2198,2199,2200,2201,2202,2203,2204,2205,2206,2207,2208,2176,2177,2178,2179,2180,2181,2182,2183,2184,2185,2186,2187,2188,2189,2190,2191,2192,2193,2194,2195,2196,2197,2198,2199,2200,2201,2202,2203,2204,2205,2206,2207,2208,2176,2177,2178,2179,2180,2181,2182,2183,2184,2185,2186,2187,2188,2189,2190,2191,2192,2193,2194,2195,2196,2197,2198,2199,2200,2201,2202,2203,2204,2205,2206,2207,2208,2176,2177,2178,2179,2180,2181,2182,2183,2184,2185,2186,2187,2188,2189,2190,2191,2192,2193,2194,2195,2196,2197,2198,2199,2200,2201,2202,2203,2204,2205,2206,2207,2208,2176,2177,2178,2179,2180,2181,2182,2183,2184,2185,2186,2187,2188,2189,2190,2191,2192,2193,2194,2195,2196,2197,2198,2199,2200,2201,2202,2203,2204,2205,2206,2207,2208,2176,2177,2178,2179,2180,2181,2182,2183,2184,2185,2186,2187,2188,2189,2190,2191,2192,2193,2194,2195,2196,2197,2198,2199,2200,2201,2202,2203,2204,2205,2206,2207,2208,2176,2177,2178,2179,2180,2181,2182,2183,2184,2185,2186,2187,2188,2189,2190,2191,2192,2193,2194,2195,2196,2197,2198,2199,2200,2201,2202,2203,2204,2205,2206,2207,2208,2176,2177,2178,2179,2180,2181,2182,2183,2184,2185,2186,2187,2188,2189,2190,2191,2192,2193,2194,2195,2196,2197,2198,2199,2200,2201,2202,2203,2204,2205,2206,2207,
624,256,256,256,256,256,256,624,2217,2218,2219,2220,2221,2222,2223,2224,2225,2226,2227,2228,2229,2230,2231,2232,2233,2234,2235,2236,2237,2238,2239,2240,2241,2209,2210,2211,2212,2213,2214,2215,2216,2217,2218,2219,2220,2221,2222,2223,2224,2225,2226,2227,2228,2229,2230,2231,2232,2233,2234,2235,2236,2237,2238,2239,2240,2241,2209,2210,2211,2212,2213,2214,2215,2216,2217,2218,2219,2220,2221,2222,2223,2224,2225,2226,2227,2228,2229,2230,2231,2232,2233,2234,2235,2236,2237,2238,2239,2240,2241,2209,2210,2211,2212,2213,2214,2215,2216,2217,2218,2219,2220,2221,2222,2223,2224,2225,2226,2227,2228,2229,2230,2231,2232,2233,2234,2235,2236,2237,2238,2239,2240,2241,2209,2210,2211,2212,2213,2214,2215,2216,2217,2218,2219,2220,2221,2222,2223,2224,2225,2226,2227,2228,2229,2230,2231,2232,2233,2234,2235,2236,2237,2238,2239,2240,2241,2209,2210,2211,2212,2213,2214,2215,2216,2217,2218,2219,2220,2221,2222,2223,2224,2225,2226,2227,2228,2229,2230,2231,2232,2233,2234,2235,2236,2237,2238,2239,2240,2241,2209,2210,2211,2212,2213,2214,2215,2216,2217,2218,2219,2220,2221,2222,2223,2224,2225,2226,2227,2228,2229,2230,2231,2232,2233,2234,2235,2236,2237,2238,2239,2240,2241,2209,2210,2211,2212,2213,2214,2215,2216,2217,2218,2219,2220,2221,2222,2223,2224,2225,2226,2227,2228,2229,2230,2231,2232,2233,2234,2235,2236,2237,2238,2239,2240,2241,2209,2210,2211,2212,2213,2214,2215,2216,2217,2218,2219,2220,2221,2222,2223,2224,2225,2226,2227,2228,2229,2230,2231,2232,2233,2234,2235,2236,2237,2238,2239,2240,
624,256,256,256,256,256,256,624,2250,2251,2252,2253,2254,2255,2256,2257,2258,2259,2260,2261,2262,2263,2264,2265,2266,2267,2268,2269,2270,2271,2272,2273,2274,2242,2243,2244,2245,2246,2247,2248,2249,2250,2251,2252,2253,2254,2255,2256,2257,2258,2259,2260,2261,2262,2263,2264,2265,2266,2267,2268,2269,2270,2271,2272,2273,2274,2242,2243,2244,2245,2246,2247,2248,2249,2250,2251,2252,2253,2254,2255,2256,2257,2258,2259,2260,2261,2262,2263,2264,2265,2266,2267,2268,2269,2270,2271,2272,2273,2274,2242,2243,2244,2245,2246,2247,2248,2249,2250,2251,2252,2253,2254,2255,2256,2257,2258,2259,2260,2261,2262,2263,2264,2265,2266,2267,2268,2269,2270,2271,2272,2273,2274,2242,2243,2244,2245,2246,2247,2248,2249,2250,2251,2252,2253,2254,2255,2256,2257,2258,2259,2260,2261,2262,2263,2264,2265,2266,2267,2268,2269,2270,2271,2272,2273,2274,2242,2243,2244,2245,2246,2247,2248,2249,2250,2251,2252,2253,2254,2255,2256,2257,2258,2259,2260,2261,2262,2263,2264,2265,2266,2267,2268,2269,2270,2271,2272,2273,2274,2242,2243,2244,2245,2246,2247,2248,2249,2250,2251,2252,2253,2254,2255,2256,2257,2258,2259,2260,2261,2262,2263,2264,2265,2266,2267,2268,2269,2270,2271,2272,2273,2274,2242,2243,2244,2245,2246,2247,2248,2249,2250,2251,2252,2253,2254,2255,2256,2257,2258,2259,2260,2261,2262,2263,2264,2265,2266,2267,2268,2269,2270,2271,2272,2273,2274,2242,2243,2244,2245,2246,2247,2248,2249,2250,2251,2252,2253,2254,2255,2256,2257,2258,2259,2260,2261,2262,2263,2264,2265,2266,2267,2268,2269,2270,2271,2272,2273,
2275,256,256,256,256,256,256,2282,2283,2284,2285,2286,2287,2288,2289,2290,2291,2292,2293,2294,2295,2296,2297,2298,2299,2300,2301,2302,2303,2304,2305,2306,2307,2275,2276,2277,2278,2279,2280,2281,2282,2283,2284,2285,2286,2287,2288,2289,2290,2291,2292,2293,2294,2295,2296,2297,2298,2299,2300,2301,2302,2303,2304,2305,2306,2307,2275,2276,2277,2278,2279,2280,2281,2282,2283,2284,2285,2286,2287,2288,2289,2290,2291,2292,2293,2294,2295,2296,2297,2298,2299,2300,2301,2302,2303,2304,2305,2306,2307,2275,2276,2277,2278,2279,2280,2281,2282,2283,2284,2285,2286,2287,2288,2289,2290,2291,2292,2293,2294,2295,2296,2297,2298,2299,2300,2301,2302,2303,2304,2305,2306,2307,2275,2276,2277,2278,2279,2280,2281,2282,2283,2284,2285,2286,2287,2288,2289,2290,2291,2292,2293,2294,2295,2296,2297,2298,2299,2300,2301,2302,2303,2304,2305,2306,2307,2275,2276,2277,2278,2279,2280,2281,2282,2283,2284,2285,2286,2287,2288,2289,2290,2291,2292,2293,2294,2295,2296,2297,2298,2299,2300,2301,2302,2303,2304,2305,2306,2307,2275,2276,2277,2278,2279,2280,2281,2282,2283,2284,2285,2286,2287,2288,2289,2290,2291,2292,2293,2294,2295,2296,2297,2298,2299,2300,2301,2302,2303,2304,2305,2306,2307,2275,2276,2277,2278,2279,2280,2281,2282,2283,2284,2285,2286,2287,2288,2289,2290,2291,2292,2293,2294,2295,2296,2297,2298,2299,2300,2301,2302,2303,2304,2305,2306,2307,2275,2276,2277,2278,2279,2280,2281,2282,2283,2284,2285,2286,2287,2288,2289,2290,2291,2292,2293,2294,2295,2296,2297,2298,2299,2300,2301,2302,2303,2304,2305,2306,
2308,2309,2310,2311,2312,2313,2314,2315,2316,2317,2318,2319,2320,2321,2322,2323,2324,2325,2326,2327,2328,2329,2330,2331,2332,2333,2334,2335,2336,2337,2338,2339,2340,2308,2309,2310,2311,2312,2313,2314,2315,2316,2317,2318,2319,2320,2321,2322,2323,2324,2325,2326,2327,2328,2329,2330,2331,2332,2333,2334,2335,2336,2337,2338,2339,2340,2308,2309,2310,2311,2312,2313,2314,2315,2316,2317,2318,2319,2320,2321,2322,2323,2324,2325,2326,2327,2328,2329,2330,2331,2332,2333,2334,2335,2336,2337,2338,2339,2340,2308,2309,2310,2311,2312,2313,2314,2315,2316,2317,2318,2319,2320,2321,2322,2323,2324,2325,2326,2327,2328,2329,2330,2331,2332,2333,2334,2335,2336,2337,2338,2339,2340,2308,2309,2310,2311,2312,2313,2314,2315,2316,2317,2318,2319,2320,2321,2322,2323,2324,2325,2326,2327,2328,2329,2330,2331,2332,2333,2334,2335,2336,2337,2338,2339,2340,2308,2309,2310,2311,2312,2313,2314,2315,2316,2317,2318,2319,2320,2321,2322,2323,2324,2325,2326,2327,2328,2329,2330,2331,2332,2333,2334,2335,2336,2337,2338,2339,2340,2308,2309,2310,2311,2312,2313,2314,2315,2316,2317,2318,2319,2320,2321,2322,2323,2324,2325,2326,2327,2328,2329,2330,2331,2332,2333,2334,2335,2336,2337,2338,2339,2340,2308,2309,2310,2311,2312,2313,2314,2315,2316,2317,2318,2319,2320,2321,2322,2323,2324,2325,2326,2327,2328,2329,2330,2331,2332,2333,2334,2335,2336,2337,2338,2339,2340,2308,2309,2310,2311,2312,2313,2314,2315,2316,2317,2318,2319,2320,2321,2322,2323,2324,2325,2326,2327,2328,2329,2330,2331,2332,2333,2334,2335,2336,2337,2338,2339,
2341,2342,2343,2344,2345,2346,2347,2348,2349,2350,2351,2352,2353,2354,2355,2356,2357,2358,2359,2360,2361,2362,2363,2364,2365,2366,2367,2368,2369,2370,2371,2372,2373,2341,2342,2343,2344,2345,2346,2347,2348,2349,2350,2351,2352,2353,2354,2355,2356,2357,2358,2359,2360,2361,2362,2363,2364,2365,2366,2367,2368,2369,2370,2371,2372,2373,2341,2342,2343,2344,2345,2346,2347,2348,2349,2350,2351,2352,2353,2354,2355,2356,2357,2358,2359,2360,2361,2362,2363,2364,2365,2366,2367,2368,2369,2370,2371,2372,2373,2341,2342,2343,2344,2345,2346,2347,2348,2349,2350,2351,2352,2353,2354,2355,2356,2357,2358,2359,2360,2361,2362,2363,2364,2365,2366,2367,2368,2369,2370,2371,2372,2373,2341,2342,2343,2344,2345,2346,2347,2348,2349,2350,2351,2352,2353,2354,2355,2356,2357,2358,2359,2360,2361,2362,2363,2364,2365,2366,2367,2368,2369,2370,2371,2372,2373,2341,2342,2343,2344,2345,2346,2347,2348,2349,2350,2351,2352,2353,2354,2355,2356,2357,2358,2359,2360,2361,2362,2363,2364,2365,2366,2367,2368,2369,2370,2371,2372,2373,2341,2342,2343,2344,2345,2346,2347,2348,2349,2350,2351,2352,2353,2354,2355,2356,2357,2358,2359,2360,2361,2362,2363,2364,2365,2366,2367,2368,2369,2370,2371,2372,2373,2341,2342,2343,2344,2345,2346,2347,2348,2349,2350,2351,2352,2353,2354,2355,2356,2357,2358,2359,2360,2361,2362,2363,2364,2365,2366,2367,2368,2369,2370,2371,2372,2373,2341,2342,2343,2344,2345,2346,2347,2348,2349,2350,2351,2352,2353,2354,2355,2356,2357,2358,2359,2360,2361,2362,2363,2364,2365,2366,2367,2368,2369,2370,2371,2372,
2374,2375,2376,2377,2378,2379,2380,2381,2382,2383,2384,2385,2386,2387,2388,2389,2390,2391,2392,2393,2394,2395,2396,2397,2398,2399,2400,2401,2402,2403,2404,2405,2406,2374,2375,2376,2377,2378,2379,2380,2381,2382,2383,2384,2385,2386,2387,2388,2389,2390,2391,2392,2393,2394,2395,2396,2397,2398,2399,2400,2401,2402,2403,2404,2405,2406,2374,2375,2376,2377,2378,2379,2380,2381,2382,2383,2384,2385,2386,2387,2388,2389,2390,2391,2392,2393,2394,2395,2396,2397,2398,2399,2400,2401,2402,2403,2404,2405,2406,2374,2375,2376,2377,2378,2379,2380,2381,2382,2383,2384,2385,2386,2387,2388,2389,2390,2391,2392,2393,2394,2395,2396,2397,2398,2399,2400,2401,2402,2403,2404,2405,2406,2374,2375,2376,2377,2378,2379,2380,2381,2382,2383,2384,2385,2386,2387,2388,2389,2390,2391,2392,2393,2394,2395,2396,2397,2398,2399,2400,2401,2402,2403,2404,2405,2406,2374,2375,2376,2377,2378,2379,2380,2381,2382,2383,2384,2385,2386,2387,2388,2389,2390,2391,2392,2393,2394,2395,2396,2397,2398,2399,2400,2401,2402,2403,2404,2405,2406,2374,2375,2376,2377,2378,2379,2380,2381,2382,2383,2384,2385,2386,2387,2388,2389,2390,2391,2392,2393,2394,2395,2396,2397,2398,2399,2400,2401,2402,2403,2404,2405,2406,2374,2375,2376,2377,2378,2379,2380,2381,2382,2383,2384,2385,2386,2387,2388,2389,2390,2391,2392,2393,2394,2395,2396,2397,2398,2399,2400,2401,2402,2403,2404,2405,2406,2374,2375,2376,2377,2378,2379,2380,2381,2382,2383,2384,2385,2386,2387,2388,2389,2390,2391,2392,2393,2394,2395,2396,2397,2398,2399,2400,2401,2402,2403,2404,2405,
2407,2408,2409,2410,2411,2412,2413,2414,2415,2416,2417,2418,2419,2420,2421,2422,2423,2424,2425,2426,2427,2428,2429,2430,2431,2432,2433,2434,2435,2436,2437,2438,2439,2407,2408,2409,2410,2411,2412,2413,2414,2415,2416,2417,2418,2419,2420,2421,2422,2423,2424,2425,2426,2427,2428,2429,2430,2431,2432,2433,2434,2435,2436,2437,2438,2439,2407,2408,2409,2410,2411,2412,2413,2414,2415,2416,2417,2418,2419,2420,2421,2422,2423,2424,2425,2426,2427,2428,2429,2430,2431,2432,2433,2434,2435,2436,2437,2438,2439,2407,2408,2409,2410,2411,2412,2413,2414,2415,2416,2417,2418,2419,2420,2421,2422,2423,2424,2425,2426,2427,2428,2429,2430,2431,2432,2433,2434,2435,2436,2437,2438,2439,2407,2408,2409,2410,2411,2412,2413,2414,2415,2416,2417,2418,2419,2420,2421,2422,2423,2424,2425,2426,2427,2428,2429,2430,2431,2432,2433,2434,2435,2436,2437,2438,2439,2407,2408,2409,2410,2411,2412,2413,2414,2415,2416,2417,2418,2419,2420,2421,2422,2423,2424,2425,2426,2427,2428,2429,2430,2431,2432,2433,2434,2435,2436,2437,2438,2439,2407,2408,2409,2410,2411,2412,2413,2414,2415,2416,2417,2418,2419,2420,2421,2422,2423,2424,2425,2426,2427,2428,2429,2430,2431,2432,2433,2434,2435,2436,2437,2438,2439,2407,2408,2409,2410,2411,2412,2413,2414,2415,2416,2417,2418,2419,2420,2421,2422,2423,2424,2425,2426,2427,2428,2429,2430,2431,2432,2433,2434,2435,2436,2437,2438,2439,2407,2408,2409,2410,2411,2412,2413,2414,2415,2416,2417,2418,2419,2420,2421,2422,2423,2424,2425,2426,2427,2428,2429,2430,2431,2432,2433,2434,2435,2436,2437,2438,
2440,2441,2442,2443,2444,2445,2446,2447,2448,2449,2450,2451,2452,2453,2454,2455,2456,2457,2458,2459,2460,2461,2462,2463,2464,2465,2466,2467,2468,2469,2470,2471,2472,2440,2441,2442,2443,2444,2445,2446,2447,2448,2449,2450,2451,2452,2453,2454,2455,2456,2457,2458,2459,2460,2461,2462,2463,2464,2465,2466,2467,2468,2469,2470,2471,2472,2440,2441,2442,2443,2444,2445,2446,2447,2448,2449,2450,2451,2452,2453,2454,2455,2456,2457,2458,2459,2460,2461,2462,2463,2464,2465,2466,2467,2468,2469,2470,2471,2472,2440,2441,2442,2443,2444,2445,2446,2447,2448,2449,2450,2451,2452,2453,2454,2455,2456,2457,2458,2459,2460,2461,2462,2463,2464,2465,2466,2467,2468,2469,2470,2471,2472,2440,2441,2442,2443,2444,2445,2446,2447,2448,2449,2450,2451,2452,2453,2454,2455,2456,2457,2458,2459,2460,2461,2462,2463,2464,2465,2466,2467,2468,2469,2470,2471,2472,2440,2441,2442,2443,2444,2445,2446,2447,2448,2449,2450,2451,2452,2453,2454,2455,2456,2457,2458,2459,2460,2461,2462,2463,2464,2465,2466,2467,2468,2469,2470,2471,2472,2440,2441,2442,2443,2444,2445,2446,2447,2448,2449,2450,2451,2452,2453,2454,2455,2456,2457,2458,2459,2460,2461,2462,2463,2464,2465,2466,2467,2468,2469,2470,2471,2472,2440,2441,2442,2443,2444,2445,2446,2447,2448,2449,2450,2451,2452,2453,2454,2455,2456,2457,2458,2459,2460,2461,2462,2463,2464,2465,2466,2467,2468,2469,2470,2471,2472,2440,2441,2442,2443,2444,2445,2446,2447,2448,2449,2450,2451,2452,2453,2454,2455,2456,2457,2458,2459,2460,2461,2462,2463,2464,2465,2466,2467,2468,2469,2470,2471,
2473,2474,2475,2476,2477,2478,2479,2480,2481,2482,2483,2484,2485,2486,2487,2488,2489,2490,2491,2492,2493,2494,2495,2496,2497,2498,2499,2500,2501,2502,2503,2504,2505,2473,2474,2475,2476,2477,2478,2479,2480,2481,2482,2483,2484,2485,2486,2487,2488,2489,2490,2491,2492,2493,2494,2495,2496,2497,2498,2499,2500,2501,2502,2503,2504,2505,2473,2474,2475,2476,2477,2478,2479,2480,2481,2482,2483,2484,2485,2486,2487,2488,2489,2490,2491,2492,2493,2494,2495,2496,2497,2498,2499,2500,2501,2502,2503,2504,2505,2473,2474,2475,2476,2477,2478,2479,2480,2481,2482,2483,2484,2485,2486,2487,2488,2489,2490,2491,2492,2493,2494,2495,2496,2497,2498,2499,2500,2501,2502,2503,2504,2505,2473,2474,2475,2476,2477,2478,2479,2480,2481,2482,2483,2484,2485,2486,2487,2488,2489,2490,2491,2492,2493,2494,2495,2496,2497,2498,2499,2500,2501,2502,2503,2504,2505,2473,2474,2475,2476,2477,2478,2479,2480,2481,2482,2483,2484,2485,2486,2487,2488,2489,2490,2491,2492,2493,2494,2495,2496,2497,2498,2499,2500,2501,2502,2503,2504,2505,2473,2474,2475,2476,2477,2478,2479,2480,2481,2482,2483,2484,2485,2486,2487,2488,2489,2490,2491,2492,2493,2494,2495,2496,2497,2498,2499,2500,2501,2502,2503,2504,2505,2473,2474,2475,2476,2477,2478,2479,2480,2481,2482,2483,2484,2485,2486,2487,2488,2489,2490,2491,2492,2493,2494,2495,2496,2497,2498,2499,2500,2501,2502,2503,2504,2505,2473,2474,2475,2476,2477,2478,2479,2480,2481,2482,2483,2484,2485,2486,2487,2488,2489,2490,2491,2492,2493,2494,2495,2496,2497,2498,2499,2500,2501,2502,2503,2504
</data>
 </layer>
 <layer id="26" name="CapaFalsoSuelo" width="296" height="26" opacity="0.6" tintcolor="#a6a6a6">
  <data encoding="csv">
0,0,0,0,0,0,0,0,0,0,0,0,0,0,0,0,0,0,0,0,0,0,0,0,0,0,0,0,0,0,0,0,0,0,0,0,0,0,0,0,0,0,0,0,0,0,0,0,0,0,0,0,0,0,0,0,0,0,0,0,0,0,0,0,0,0,0,0,0,0,0,0,0,0,0,0,0,0,0,0,0,0,0,0,0,0,0,0,0,0,0,0,0,0,0,0,0,0,0,0,0,0,0,0,0,0,0,0,0,0,0,0,0,0,0,0,0,0,0,0,0,0,0,0,0,0,0,0,0,0,0,0,0,0,0,0,0,0,0,0,0,0,0,0,0,0,0,0,0,0,0,0,0,0,0,0,0,0,0,0,0,0,0,0,0,0,0,0,0,0,0,0,0,0,0,0,0,0,0,0,0,0,0,0,0,0,0,0,0,0,0,0,0,0,0,0,0,0,0,0,0,0,0,0,0,0,0,0,0,0,0,0,0,0,0,0,0,0,0,0,0,0,0,0,0,0,0,0,0,0,0,0,0,0,0,0,0,0,0,0,0,0,0,0,0,0,0,0,0,0,0,0,0,0,0,0,0,0,0,0,0,0,0,0,0,0,0,0,0,0,0,0,0,0,0,0,0,0,0,0,0,0,0,0,0,0,0,0,0,0,0,0,0,0,0,0,
0,0,0,0,0,0,0,0,0,0,0,0,0,0,0,0,0,0,0,0,0,0,0,0,0,0,0,0,0,0,0,0,0,0,0,0,0,0,0,0,0,0,0,0,0,0,0,0,0,0,0,0,0,0,0,0,0,0,0,0,0,0,0,0,0,0,0,0,0,0,0,0,0,0,0,0,0,0,0,0,0,0,0,0,0,0,0,0,0,0,0,0,0,0,0,0,0,0,0,0,0,0,0,0,0,0,0,0,0,0,0,0,0,0,0,0,0,0,0,0,0,0,0,0,0,0,0,0,0,0,0,0,0,0,0,0,0,0,0,0,0,0,0,0,0,0,0,0,0,0,0,0,0,0,0,0,0,0,0,0,0,0,0,0,0,0,0,0,0,0,0,0,0,0,0,0,0,0,0,0,0,0,0,0,0,0,0,0,0,0,0,0,0,0,0,0,0,0,0,0,0,0,0,0,0,0,0,0,0,0,0,0,0,0,0,0,0,0,0,0,0,0,0,0,0,0,0,0,0,0,0,0,0,0,0,0,0,0,0,0,0,0,0,0,0,0,0,0,0,0,0,0,0,0,0,0,0,0,0,0,0,0,0,0,0,0,0,0,0,0,0,0,0,0,0,0,0,0,0,0,0,0,0,0,0,0,0,0,0,0,0,0,0,0,0,0,
0,0,0,0,0,0,0,0,0,0,0,0,0,0,0,0,0,0,0,0,0,0,0,0,0,0,0,0,0,0,0,0,0,0,0,0,0,0,0,0,0,0,0,0,0,0,0,0,0,0,0,0,0,0,0,0,0,0,0,0,0,0,0,0,0,0,0,0,0,0,0,0,0,0,0,0,0,0,0,0,0,0,0,0,0,0,0,0,0,0,0,0,0,0,0,0,0,0,0,0,0,0,0,0,0,0,0,0,0,0,0,0,0,0,0,0,0,0,0,0,0,0,0,0,0,0,0,0,0,0,0,0,0,0,0,0,0,0,0,0,0,0,0,0,0,0,0,0,0,0,0,0,0,0,0,0,0,0,0,0,0,0,0,0,0,0,0,0,0,0,0,0,0,0,0,0,0,0,0,0,0,0,0,0,0,0,0,0,0,0,0,0,0,0,0,0,0,0,0,0,0,0,0,0,0,0,0,0,0,0,0,0,0,0,0,0,0,0,0,0,0,0,0,0,0,0,0,0,0,0,0,0,0,0,0,0,0,0,0,0,0,0,0,0,0,0,0,0,0,0,0,0,0,0,0,0,0,0,0,0,0,0,0,0,0,0,0,0,0,0,0,0,0,0,0,0,0,0,0,0,0,0,0,0,0,0,0,0,0,0,0,0,0,0,0,0,
0,0,0,0,0,0,0,0,0,0,0,0,0,0,0,0,0,0,0,0,0,0,0,0,0,0,0,0,0,0,0,0,0,0,0,0,0,0,0,0,0,0,0,0,0,0,0,0,0,0,0,0,0,0,0,0,0,0,0,0,0,0,0,0,0,0,0,0,0,0,0,0,0,0,0,0,0,0,0,0,0,0,0,0,0,0,0,0,0,0,0,0,0,0,0,0,0,0,0,0,0,0,0,0,0,0,0,0,0,0,0,0,0,0,0,0,0,0,0,0,0,0,0,0,0,0,0,0,0,0,0,0,0,0,0,0,0,0,0,0,0,0,0,0,0,0,0,0,0,0,0,0,0,0,0,0,0,0,0,0,0,0,0,0,0,0,0,0,0,0,0,0,0,0,0,0,0,0,0,0,0,0,0,0,0,0,0,0,0,0,0,0,0,0,0,0,0,0,0,0,0,0,0,0,0,0,0,0,0,0,0,0,0,0,0,0,0,0,0,0,0,0,0,0,0,0,0,0,0,0,0,0,0,0,0,0,0,0,0,0,0,0,0,0,0,0,0,0,0,0,0,0,0,0,0,0,0,0,0,0,0,0,0,0,0,0,0,0,0,0,0,0,0,0,0,0,0,0,0,0,0,0,0,0,0,0,0,0,0,0,0,0,0,0,0,0,
0,0,0,0,0,0,0,0,0,0,0,0,0,0,0,0,0,0,0,0,0,0,0,0,0,0,0,0,0,0,0,0,0,0,0,0,0,0,0,0,0,0,0,0,0,0,0,0,0,0,0,0,0,0,0,0,0,0,0,0,0,0,0,0,0,0,0,0,0,0,0,0,0,0,0,0,0,0,0,0,0,0,0,0,0,0,0,0,0,0,0,0,0,0,0,0,0,0,0,0,0,0,0,0,0,0,0,0,0,0,0,0,0,0,0,0,0,0,0,0,0,0,0,0,0,0,0,0,0,0,0,0,0,0,0,0,0,0,0,0,0,0,0,0,0,0,0,0,0,0,0,0,0,0,0,0,0,0,0,0,0,0,0,0,0,0,0,0,0,0,0,0,0,0,0,0,0,0,0,0,0,0,0,0,0,0,0,0,0,0,0,0,0,0,0,0,0,0,0,0,0,0,0,0,1067,1068,0,0,0,0,0,0,0,0,0,0,0,0,0,0,0,0,0,0,0,0,0,0,0,0,0,0,0,0,0,0,0,0,0,0,0,0,0,0,0,0,0,0,0,0,0,0,0,0,0,0,0,0,0,0,0,0,0,0,0,0,0,0,0,0,0,0,0,0,0,0,0,0,0,0,0,0,0,0,0,0,0,0,0,0,0,0,0,0,0,0,
0,0,0,0,0,0,0,0,0,0,0,0,0,0,0,0,0,0,0,0,0,0,0,0,0,0,0,0,0,0,0,0,0,0,0,0,0,0,0,0,0,0,0,0,0,0,0,0,0,0,0,0,0,0,0,0,0,0,0,0,0,0,0,0,0,0,0,0,0,0,0,0,0,0,0,0,0,0,0,0,0,0,0,0,0,0,0,0,0,0,0,0,0,0,0,0,0,0,0,0,0,0,0,0,0,0,0,0,0,0,0,0,0,0,0,0,0,0,0,0,0,0,0,0,0,0,0,0,0,0,0,0,0,0,0,0,0,0,0,0,0,0,0,0,0,0,0,0,0,0,0,0,0,0,0,0,0,0,0,0,0,0,0,0,0,0,0,0,0,0,0,0,0,0,0,0,0,0,0,0,0,0,0,0,0,0,0,0,0,0,0,0,0,0,0,0,0,0,0,0,0,0,0,0,1067,1068,0,0,0,0,0,0,0,0,0,0,0,0,0,0,0,0,0,0,0,0,0,0,0,0,0,0,0,0,0,0,0,0,0,0,0,0,0,0,0,0,0,0,0,0,0,0,0,0,0,0,0,0,0,0,0,0,0,0,0,0,0,0,0,0,0,0,0,0,0,0,0,0,0,0,0,0,0,0,0,0,0,0,624,0,0,0,0,0,0,0,
0,0,0,0,0,0,0,0,0,0,0,0,0,0,0,0,0,0,0,0,0,0,0,0,0,0,0,0,0,0,0,0,0,0,0,0,0,0,0,0,0,0,0,0,0,0,0,0,0,0,0,0,0,0,0,0,0,0,0,0,0,0,0,0,0,0,0,0,0,0,0,0,0,0,0,0,0,0,0,0,0,0,0,0,0,0,0,0,0,0,0,0,0,0,0,0,0,0,0,0,0,0,0,0,0,0,0,0,0,0,0,0,0,0,0,0,0,0,0,0,0,0,0,0,0,0,0,0,0,0,0,0,0,0,0,0,0,0,0,0,0,0,0,0,0,0,0,0,0,0,0,0,0,0,0,0,0,0,0,0,0,0,0,0,0,0,0,0,0,0,0,0,0,0,0,0,0,0,0,0,0,0,0,0,0,0,0,0,0,0,0,0,0,0,0,0,0,0,0,0,0,0,0,0,1067,1068,0,0,0,0,0,0,0,0,0,0,0,0,0,0,0,0,0,0,0,0,0,0,0,0,0,0,0,0,0,0,0,0,0,0,0,0,0,0,0,0,0,0,0,0,0,0,0,0,0,0,0,0,0,0,0,0,0,0,0,0,0,0,0,0,0,0,0,0,0,0,0,0,0,0,0,0,0,0,0,0,0,0,624,0,0,0,0,0,0,0,
0,0,0,0,0,0,0,0,0,0,0,0,0,0,0,0,0,0,0,0,0,0,0,0,0,0,0,0,0,0,0,0,0,0,0,0,0,0,0,0,0,0,0,0,0,0,0,0,0,0,0,0,0,0,0,0,0,0,0,0,0,0,0,0,0,0,0,0,0,0,0,0,0,0,0,0,0,0,0,0,0,0,0,0,0,0,0,0,0,0,0,0,0,0,0,0,0,0,0,0,0,0,0,0,0,0,0,0,0,0,0,0,0,0,0,0,0,0,0,0,0,0,0,0,0,0,0,0,0,0,0,0,0,0,0,0,0,0,0,0,0,0,0,0,0,0,0,0,0,0,0,0,0,0,0,0,0,0,0,0,0,0,0,0,0,0,0,0,0,0,0,0,0,0,0,0,0,0,0,0,0,0,0,0,0,0,0,0,0,0,0,0,0,0,0,0,0,0,0,0,0,0,0,0,1067,1068,0,0,0,0,0,0,0,0,0,0,0,0,0,0,0,0,0,0,0,0,0,0,0,0,0,0,0,0,0,0,0,0,0,0,0,0,0,0,0,0,0,0,0,0,0,0,0,0,0,0,0,0,0,0,0,0,0,0,0,0,0,0,0,0,0,0,0,0,0,0,0,0,0,0,0,0,0,0,0,0,0,0,624,0,0,0,0,0,0,0,
0,0,0,0,0,0,0,0,0,0,0,0,0,0,0,0,0,0,0,0,0,0,0,0,0,0,0,0,0,0,0,0,0,0,0,0,0,0,0,0,0,0,0,0,0,0,0,0,0,0,0,0,0,0,0,0,0,0,0,0,0,0,0,0,0,0,0,0,0,0,0,0,0,0,0,0,0,0,0,0,0,0,0,0,0,0,0,0,0,0,0,0,0,0,0,0,0,0,0,0,0,0,0,0,0,0,0,0,0,0,0,0,0,0,0,0,0,0,0,256,256,256,256,256,256,256,0,0,0,0,0,0,0,0,0,0,0,256,256,256,256,256,256,256,256,256,256,0,0,0,0,0,0,0,0,0,0,0,0,0,0,0,0,0,0,0,0,0,0,0,0,0,0,0,0,0,0,0,0,0,0,0,0,0,0,0,0,0,0,0,0,0,0,0,0,0,0,0,0,0,0,0,0,0,1067,1068,0,0,0,0,0,0,0,0,0,0,0,0,0,0,0,0,0,0,0,0,0,0,0,0,0,0,0,0,0,0,0,0,0,0,0,0,0,0,0,0,0,0,0,0,0,0,0,0,0,0,0,0,0,0,0,0,0,0,0,0,0,0,0,0,0,0,0,0,0,0,0,0,0,0,0,0,0,0,0,0,0,0,624,0,0,0,0,0,0,0,
0,0,0,0,0,0,0,0,0,0,0,0,0,0,0,0,0,0,0,0,0,0,0,0,0,0,0,0,0,0,0,0,0,0,0,0,0,0,0,0,0,0,0,0,0,0,0,0,0,0,0,0,0,0,0,0,0,0,0,0,0,0,0,0,0,0,0,0,0,0,0,0,0,0,0,0,0,0,0,0,0,0,0,0,0,0,0,0,0,0,0,0,0,0,0,0,0,0,0,0,0,0,0,0,0,0,0,0,0,0,0,0,0,0,0,0,0,256,256,256,256,256,256,256,256,256,256,256,256,256,256,256,256,256,256,256,256,256,256,256,256,256,256,256,256,256,256,0,0,0,0,0,0,0,0,0,0,0,0,0,0,0,0,0,0,0,0,0,0,0,0,0,0,0,0,0,0,0,0,0,0,0,0,0,0,0,0,0,0,0,0,0,0,0,0,0,0,0,0,0,0,0,0,0,1067,1068,0,0,0,0,0,0,0,0,0,0,0,0,0,0,0,0,0,0,0,0,0,0,0,0,0,0,0,0,0,0,0,0,0,0,0,0,0,0,0,0,0,0,0,0,0,0,0,0,0,0,0,0,0,0,0,0,0,0,0,0,0,0,0,0,0,0,0,0,0,0,0,0,0,0,0,0,0,0,0,0,0,0,624,0,0,0,0,0,0,0,
0,0,0,0,0,0,0,0,0,0,0,0,0,0,0,0,0,0,0,0,0,0,0,0,0,0,0,0,0,0,0,0,0,0,0,0,0,0,0,0,0,0,0,0,0,0,0,0,0,0,0,0,0,0,0,0,0,0,0,0,0,0,0,0,0,0,0,0,0,0,0,0,0,0,0,0,0,0,0,0,0,0,0,0,0,0,0,0,0,0,0,0,0,0,0,0,0,0,0,0,0,0,0,0,0,0,0,0,0,0,0,0,0,0,0,0,0,256,256,256,256,256,256,256,256,256,256,256,256,256,256,256,256,256,256,256,256,256,256,256,256,256,256,256,256,256,256,0,0,0,0,0,0,0,0,0,0,0,0,0,0,0,0,0,0,0,0,0,0,0,0,0,0,0,0,0,0,0,0,0,0,0,0,0,0,0,0,0,0,0,0,0,0,0,0,0,0,0,0,0,0,0,0,0,1067,1068,0,0,0,0,0,0,0,0,0,0,0,0,0,0,0,0,0,0,0,0,0,0,0,0,0,0,0,0,0,0,0,0,0,0,0,0,0,0,0,0,0,0,0,0,0,0,0,0,0,0,0,0,0,0,0,0,0,0,0,0,0,0,0,0,0,0,0,0,0,0,0,0,0,0,0,0,0,0,0,0,0,0,624,0,0,0,0,0,0,0,
0,0,0,0,0,0,0,0,0,0,0,0,0,0,0,0,0,0,0,0,0,0,0,0,0,0,0,0,0,0,0,0,0,0,0,0,0,0,0,0,0,0,0,0,0,0,0,0,0,0,0,0,0,0,0,0,0,0,0,0,0,0,0,0,0,0,0,0,0,0,0,0,0,0,0,0,0,0,0,0,0,0,0,0,0,0,0,0,0,0,0,0,0,0,0,0,0,0,0,0,0,0,0,0,0,0,0,0,0,0,0,0,0,0,0,0,0,256,256,256,256,256,256,256,256,256,256,256,256,256,256,256,256,256,256,256,256,256,256,256,256,256,256,256,256,256,256,0,0,0,0,0,0,0,0,0,0,0,0,0,0,0,0,0,0,0,0,0,0,0,0,0,0,0,0,0,0,0,0,0,0,0,0,0,0,0,0,0,0,0,0,0,0,0,0,0,0,0,0,0,0,0,0,0,1067,1068,0,0,0,0,0,0,0,0,0,0,0,0,0,0,0,0,0,0,0,0,0,0,0,0,0,0,0,0,0,0,0,0,0,0,0,0,0,0,0,0,0,0,0,0,0,0,0,0,0,0,0,0,0,0,0,0,0,0,0,0,0,0,0,0,0,0,0,0,0,0,0,0,0,0,0,0,0,0,0,0,0,0,624,0,0,0,0,0,0,0,
0,0,0,0,0,0,0,0,0,0,0,0,0,0,0,0,0,0,0,0,0,0,0,0,0,0,0,0,0,0,0,0,0,0,0,0,0,0,0,0,0,0,0,0,0,0,0,0,0,0,0,0,0,0,0,0,0,0,0,0,0,0,0,0,0,0,0,0,0,0,0,0,0,0,0,0,0,0,0,0,0,0,0,0,0,0,0,0,0,0,0,0,0,0,0,0,0,0,0,0,0,0,0,0,0,0,0,0,0,0,0,0,0,0,0,0,0,256,256,256,256,256,256,256,256,256,256,256,256,256,256,256,256,256,256,256,256,256,256,256,256,256,256,256,256,256,256,0,0,0,0,0,0,0,0,0,0,0,0,0,0,0,0,0,0,0,0,0,0,0,0,0,0,0,0,0,0,0,0,0,0,0,0,0,0,0,0,0,0,0,0,0,0,0,0,0,0,0,0,0,0,0,0,0,1067,1068,0,0,0,0,0,0,0,0,0,0,0,0,0,0,0,0,0,0,0,0,0,0,0,0,0,0,0,0,0,0,0,0,0,0,0,0,0,0,0,0,0,0,0,0,0,0,0,0,0,0,0,0,0,0,0,0,0,0,0,0,0,0,0,0,0,0,0,0,0,0,0,0,0,0,0,0,0,0,0,0,0,0,624,0,0,0,0,0,0,0,
0,0,0,0,0,0,0,0,0,0,0,0,0,0,0,0,0,0,0,0,0,0,0,0,0,0,0,0,0,0,0,0,0,0,0,0,0,0,0,0,0,0,0,0,0,0,0,0,0,0,0,0,0,0,0,0,0,0,0,0,0,0,0,0,0,0,0,0,0,0,0,0,0,0,0,0,0,0,0,0,0,0,0,0,0,0,0,0,0,0,0,0,0,0,0,0,0,0,0,0,0,0,0,0,0,0,0,0,0,0,0,0,0,0,0,0,0,256,256,256,256,256,256,256,256,256,256,256,256,256,256,256,256,256,256,256,256,256,256,256,256,256,256,256,256,256,256,0,0,0,0,0,0,0,0,0,0,0,0,0,0,0,0,0,0,0,0,0,0,0,0,0,0,0,0,0,0,0,0,0,0,0,0,0,0,0,0,0,0,0,0,0,0,0,0,0,0,0,0,0,0,0,0,0,1067,1068,0,0,0,0,0,0,0,0,0,0,0,0,0,0,0,0,0,0,0,0,0,0,0,0,0,0,0,0,0,0,0,0,0,0,0,0,0,0,0,0,0,0,0,0,0,0,0,0,0,0,0,0,0,0,0,0,0,0,0,0,0,0,0,0,0,0,0,0,0,0,0,0,0,0,0,0,0,0,0,0,0,0,624,0,0,0,0,0,0,0,
0,0,0,0,0,0,0,0,0,0,0,0,0,0,0,0,0,0,0,0,0,0,0,0,0,0,0,0,0,0,0,0,0,0,0,0,0,0,0,0,0,0,0,0,0,0,0,0,0,0,0,0,0,0,0,0,0,0,0,0,0,0,0,0,0,0,0,0,0,0,0,0,0,0,0,0,0,0,0,0,0,0,0,0,0,0,0,0,0,0,0,0,0,0,0,0,0,0,0,0,0,0,0,0,0,0,0,0,0,0,0,0,0,0,0,0,0,0,256,256,256,256,256,256,256,256,256,256,256,256,256,256,256,256,256,256,256,256,256,256,256,256,256,256,256,256,256,0,0,0,0,0,0,0,0,0,0,0,0,0,0,0,0,0,0,0,0,0,0,0,0,0,0,0,0,0,0,0,0,0,0,0,0,0,0,0,0,0,0,0,0,0,0,0,0,0,0,0,0,0,0,0,0,0,1067,1068,0,0,0,0,0,0,0,0,0,0,0,0,0,0,0,0,0,0,0,0,0,0,0,0,0,0,0,0,0,0,0,0,0,0,0,0,0,0,0,0,0,0,0,0,0,0,0,0,0,0,0,0,0,0,0,0,0,0,0,0,0,0,0,0,0,0,0,0,0,0,0,0,0,0,0,0,0,0,0,0,0,0,624,0,0,0,0,0,0,0,
0,0,0,0,0,0,0,0,0,0,0,0,0,0,0,0,0,0,0,0,0,0,0,0,0,0,0,0,0,0,0,0,0,0,0,0,0,0,0,0,0,0,0,0,0,0,0,0,0,0,0,0,0,0,0,0,0,0,0,0,0,0,0,0,0,0,0,0,0,0,0,0,0,0,0,0,0,0,0,0,0,0,0,0,0,0,0,0,0,0,0,0,0,0,0,0,0,0,0,0,0,0,0,0,0,0,0,0,0,0,0,0,0,0,0,0,0,0,0,0,0,0,0,0,0,0,0,0,0,0,0,0,0,0,0,0,0,0,0,0,0,0,0,0,0,0,0,0,0,0,0,0,0,0,0,0,0,0,0,0,0,0,0,0,0,0,0,0,0,0,0,0,0,0,0,0,0,0,0,0,0,0,0,0,0,0,0,0,0,0,0,0,0,0,0,0,0,0,0,0,0,0,0,0,0,0,0,0,0,0,0,0,0,0,0,0,0,0,0,0,0,0,0,0,0,0,0,0,0,0,0,0,0,0,0,0,0,0,0,0,0,0,0,0,0,0,0,0,0,0,0,0,0,0,0,0,0,0,0,0,0,0,0,0,0,0,0,0,0,0,1140,0,0,0,0,0,0,0,0,0,0,0,0,0,0,0,0,0,624,0,0,0,0,0,0,0,
0,0,0,0,0,0,0,0,0,0,0,0,0,0,0,0,0,0,0,0,0,0,0,0,0,0,0,0,0,0,0,0,0,0,0,0,0,0,0,0,0,0,0,0,0,0,0,0,0,0,0,0,0,0,0,0,0,0,0,0,0,0,0,0,0,0,0,0,0,0,0,0,0,0,0,0,0,0,0,0,0,0,0,0,0,0,0,0,0,0,0,0,0,0,0,0,0,0,0,0,0,0,0,0,0,0,0,0,0,0,0,0,0,0,0,0,0,0,0,0,0,0,0,0,0,0,0,0,0,0,0,0,0,0,0,0,0,0,0,0,0,0,0,0,0,0,0,0,0,0,0,0,0,0,0,0,0,0,0,0,0,0,0,0,0,0,0,0,0,0,0,0,0,0,0,0,0,0,0,0,0,0,0,0,0,0,0,0,0,0,0,0,0,1186,1186,1186,1186,1186,1186,1186,1186,1186,1186,1186,1186,1186,1186,1186,1186,1186,1186,1186,1186,1186,1186,0,0,0,0,0,0,0,0,0,0,0,0,0,0,0,0,0,0,0,0,0,0,0,0,0,0,0,0,0,0,0,0,0,0,0,0,0,0,0,0,0,0,0,0,0,0,0,0,0,0,0,0,0,0,0,1148,0,0,0,0,0,0,0,0,0,0,0,0,0,0,0,0,0,624,0,0,0,0,0,0,0,
0,0,0,0,0,0,0,0,0,0,0,0,0,0,0,0,0,0,0,0,0,0,0,0,0,0,0,0,0,0,0,0,0,0,0,0,0,0,0,0,0,0,0,0,0,0,0,0,0,0,0,0,0,0,0,0,0,0,0,0,0,0,0,0,0,0,0,0,0,0,0,0,0,0,0,0,0,0,0,0,0,0,0,0,0,0,0,0,0,0,0,0,0,0,0,0,0,0,0,0,0,0,0,0,0,0,0,0,0,0,0,0,0,0,0,0,0,0,0,0,0,0,0,0,0,0,0,0,0,0,0,0,0,0,0,0,0,0,0,0,0,0,0,0,0,0,0,0,0,0,0,0,0,0,0,0,0,0,0,0,0,0,0,0,0,0,0,0,0,0,0,0,0,0,1163,1140,0,0,0,0,0,0,0,0,0,0,0,0,0,0,0,0,0,0,0,0,1186,1186,1186,1186,1186,1186,1186,1186,1186,1186,1186,1186,1186,1186,1186,1186,1186,0,1186,0,0,0,0,0,0,0,0,0,0,0,0,0,0,0,0,0,0,0,0,0,0,0,0,0,0,0,0,0,0,0,0,0,0,0,0,0,0,0,0,0,0,0,0,0,0,0,0,0,0,0,0,0,0,0,0,0,0,0,0,0,0,0,0,0,0,0,0,0,0,0,0,0,624,0,0,0,0,0,0,0,
0,0,0,0,0,0,0,0,0,0,0,0,0,0,0,0,0,0,0,0,0,0,0,0,0,0,0,0,0,0,0,0,0,0,0,0,0,0,0,0,0,0,0,0,0,0,0,0,0,0,0,0,0,0,0,0,0,0,0,0,0,0,0,0,0,0,0,0,0,0,0,0,0,0,0,0,0,0,0,0,0,0,0,0,0,0,0,0,0,0,0,0,0,0,0,0,0,0,0,0,0,0,0,0,0,0,0,0,0,0,0,0,0,0,0,0,0,0,0,0,0,0,0,0,0,0,0,0,0,0,0,0,0,0,0,0,0,0,0,0,0,0,0,0,0,0,0,0,0,0,0,0,0,0,0,0,0,0,0,0,0,0,0,0,0,0,0,0,0,0,0,0,0,0,0,1148,1140,0,0,0,0,0,0,0,0,0,0,0,0,0,0,0,0,0,0,0,0,1186,1186,1186,1186,1186,1186,1186,1186,1186,1186,1186,1186,1186,1186,1186,0,0,0,0,0,0,0,0,0,0,0,0,0,0,0,0,0,0,0,0,0,0,0,0,0,0,0,0,0,0,0,0,0,0,0,0,0,0,0,0,0,0,0,0,0,0,0,0,0,0,0,0,0,0,0,0,0,0,0,0,0,0,0,0,0,0,0,0,0,0,0,0,0,0,0,0,0,0,0,0,0,0,0,0,
0,0,0,0,0,0,0,0,0,0,0,0,0,0,0,0,0,0,0,0,0,0,0,0,0,0,0,0,0,0,0,0,0,0,0,0,0,0,0,0,0,0,0,0,0,0,0,0,0,0,0,0,0,0,0,0,0,0,0,0,0,0,0,0,0,0,0,0,0,0,0,0,0,0,0,0,0,0,0,0,0,0,0,0,0,0,0,0,0,0,0,0,0,0,0,0,0,0,0,0,0,0,0,0,0,0,0,0,0,0,0,0,0,0,0,0,0,0,0,0,0,0,0,0,0,0,0,0,0,0,0,0,0,0,0,0,0,0,0,0,0,0,0,0,0,0,0,0,0,0,0,0,0,0,0,0,0,0,0,0,0,0,0,0,0,0,0,0,0,0,0,0,0,0,0,0,1148,1140,0,0,0,0,0,0,0,0,0,0,0,0,0,0,0,0,0,0,0,0,1186,1186,1186,1186,1186,1186,1186,1186,1186,1186,1186,1186,1186,0,0,0,0,0,0,0,0,0,0,0,0,0,0,0,0,0,0,0,0,0,0,0,0,0,0,0,0,0,0,0,0,0,0,0,0,0,0,0,0,0,0,0,0,0,0,0,0,0,0,0,0,0,0,0,0,0,0,0,0,0,0,0,0,0,0,0,0,0,0,0,0,0,0,0,0,0,0,0,0,0,0,0,0,0,
0,0,0,0,0,0,0,0,0,0,0,0,0,0,0,0,0,0,0,0,0,0,0,0,0,0,0,0,0,0,0,0,0,0,0,0,0,0,0,0,0,0,0,0,0,0,0,0,0,0,0,0,0,0,0,0,0,0,0,0,0,0,0,0,0,0,0,0,0,0,0,0,0,0,0,0,0,0,0,0,0,0,0,0,0,0,0,0,0,0,0,0,0,0,0,0,0,0,0,0,0,0,0,0,0,0,0,0,0,0,0,0,0,0,0,0,0,0,0,0,0,0,0,0,0,0,0,0,0,0,0,0,0,0,0,0,0,0,0,0,0,0,0,0,0,0,0,0,0,0,0,0,0,0,0,0,0,0,0,0,0,0,0,0,0,0,0,0,0,0,0,0,0,0,0,0,0,1148,0,0,0,0,0,0,0,0,0,0,0,0,0,0,0,0,0,0,0,0,0,0,0,0,0,0,0,0,0,0,0,0,0,0,0,0,0,0,0,0,0,0,0,0,0,0,0,0,0,0,0,0,0,0,0,0,0,0,0,0,0,0,0,0,0,0,0,0,0,0,0,0,0,0,0,0,0,0,0,0,0,0,0,0,0,0,0,0,0,0,0,0,0,0,0,0,0,0,0,0,0,0,0,0,0,0,0,0,0,0,0,0,0,0,0,0,0,0,
0,0,0,0,0,0,0,0,0,0,0,0,0,0,0,0,0,0,0,0,0,0,0,0,0,0,0,0,0,0,0,0,0,0,0,0,0,0,0,0,0,0,0,0,0,0,0,0,0,0,0,0,0,0,0,0,0,0,0,0,0,0,0,0,0,0,0,0,0,0,0,0,0,0,0,0,0,0,0,0,0,0,0,0,0,0,0,0,0,0,0,0,0,0,0,0,0,0,0,0,0,0,0,0,0,0,0,0,0,0,0,0,0,0,0,0,0,0,0,0,0,0,0,0,0,0,0,0,0,0,0,0,0,0,0,0,0,0,0,0,0,0,0,0,0,0,0,0,0,0,0,0,0,0,0,0,0,0,0,0,0,0,0,0,0,0,0,0,0,0,0,0,0,0,0,0,0,0,0,0,0,0,0,0,0,0,0,0,0,0,0,0,0,0,0,0,0,0,0,0,0,0,0,0,0,0,0,0,0,0,0,0,0,0,0,0,0,0,0,0,0,0,0,0,0,0,0,0,0,0,0,0,0,0,0,0,0,0,0,0,0,0,0,0,0,0,0,0,0,0,0,0,0,0,0,0,0,0,0,0,0,0,0,0,0,0,0,0,0,0,0,0,0,0,0,0,0,0,0,0,0,0,0,0,0,0,0,0,0,0,0,0,0,0,0,0,
0,0,0,0,0,0,0,0,0,0,0,0,0,0,0,0,0,0,0,0,0,0,0,0,0,0,0,0,0,0,0,0,0,0,0,0,0,0,0,0,0,0,0,0,0,0,0,0,0,0,0,0,0,0,0,0,0,0,0,0,0,0,0,0,0,0,0,0,0,0,0,0,0,0,0,0,0,0,0,0,0,0,0,0,0,0,0,0,0,0,0,0,0,0,0,0,0,0,0,0,0,0,0,0,0,0,0,0,0,0,0,0,0,0,0,0,0,0,0,0,0,0,0,0,0,0,0,0,0,0,0,0,0,0,0,0,0,0,0,0,0,0,0,0,0,0,0,0,0,0,0,0,0,0,0,0,0,0,0,0,0,0,0,0,0,0,0,0,0,0,0,0,0,0,0,0,0,0,0,0,0,0,0,0,0,0,0,0,0,0,0,0,0,0,0,0,0,0,0,0,0,0,0,0,0,0,0,0,0,0,0,0,0,0,0,0,0,0,0,0,0,0,0,0,0,0,0,0,0,0,0,0,0,0,0,0,0,0,0,0,0,0,0,0,0,0,0,0,0,0,0,0,0,0,0,0,0,0,0,0,0,0,0,0,0,0,0,0,0,0,0,0,0,0,0,0,0,0,0,0,0,0,0,0,0,0,0,0,0,0,0,0,0,0,0,0,
0,0,0,0,0,0,0,0,0,0,0,0,0,0,0,0,0,0,0,0,0,0,0,0,0,0,0,0,0,0,0,0,0,0,0,0,0,0,0,0,0,0,0,0,0,0,0,0,0,0,0,0,0,0,0,0,0,0,0,0,0,0,0,0,0,0,0,0,0,0,0,0,0,0,0,0,0,0,0,0,0,0,0,0,0,0,0,0,0,0,0,0,0,0,0,0,0,0,0,0,0,0,0,0,0,0,0,0,0,0,0,0,0,0,0,0,0,0,0,0,0,0,0,0,0,0,0,0,0,0,0,0,0,0,0,0,0,0,0,0,0,0,0,0,0,0,0,0,0,0,0,0,0,0,0,0,0,0,0,0,0,0,0,0,0,0,0,0,0,0,0,0,0,0,0,0,0,0,0,0,0,0,0,0,0,0,0,0,0,0,0,0,0,0,0,0,0,0,0,0,0,0,0,0,0,0,0,0,0,0,0,0,0,0,0,0,0,0,0,0,0,0,0,0,0,0,0,0,0,0,0,0,0,0,0,0,0,0,0,0,0,0,0,0,0,0,0,0,0,0,0,0,0,0,0,0,0,0,0,0,0,0,0,0,0,0,0,0,0,0,0,0,0,0,0,0,0,0,0,0,0,0,0,0,0,0,0,0,0,0,0,0,0,0,0,0,
0,0,0,0,0,0,0,0,0,0,0,0,0,0,0,0,0,0,0,0,0,0,0,0,0,0,0,0,0,0,0,0,0,0,0,0,0,0,0,0,0,0,0,0,0,0,0,0,0,0,0,0,0,0,0,0,0,0,0,0,0,0,0,0,0,0,0,0,0,0,0,0,0,0,0,0,0,0,0,0,0,0,0,0,0,0,0,0,0,0,0,0,0,0,0,0,0,0,0,0,0,0,0,0,0,0,0,0,0,0,0,0,0,0,0,0,0,0,0,0,0,0,0,0,0,0,0,0,0,0,0,0,0,0,0,0,0,0,0,0,0,0,0,0,0,0,0,0,0,0,0,0,0,0,0,0,0,0,0,0,0,0,0,0,0,0,0,0,0,0,0,0,0,0,0,0,0,0,0,0,0,0,0,0,0,0,0,0,0,0,0,0,0,0,0,0,0,0,0,0,0,0,0,0,0,0,0,0,0,0,0,0,0,0,0,0,0,0,0,0,0,0,0,0,0,0,0,0,0,0,0,0,0,0,0,0,0,0,0,0,0,0,0,0,0,0,0,0,0,0,0,0,0,0,0,0,0,0,0,0,0,0,0,0,0,0,0,0,0,0,0,0,0,0,0,0,0,0,0,0,0,0,0,0,0,0,0,0,0,0,0,0,0,0,0,0,
0,0,0,0,0,0,0,0,0,0,0,0,0,0,0,0,0,0,0,0,0,0,0,0,0,0,0,0,0,0,0,0,0,0,0,0,0,0,0,0,0,0,0,0,0,0,0,0,0,0,0,0,0,0,0,0,0,0,0,0,0,0,0,0,0,0,0,0,0,0,0,0,0,0,0,0,0,0,0,0,0,0,0,0,0,0,0,0,0,0,0,0,0,0,0,0,0,0,0,0,0,0,0,0,0,0,0,0,0,0,0,0,0,0,0,0,0,0,0,0,0,0,0,0,0,0,0,0,0,0,0,0,0,0,0,0,0,0,0,0,0,0,0,0,0,0,0,0,0,0,0,0,0,0,0,0,0,0,0,0,0,0,0,0,0,0,0,0,0,0,0,0,0,0,0,0,0,0,0,0,0,0,0,0,0,0,0,0,0,0,0,0,0,0,0,0,0,0,0,0,0,0,0,0,0,0,0,0,0,0,0,0,0,0,0,0,0,0,0,0,0,0,0,0,0,0,0,0,0,0,0,0,0,0,0,0,0,0,0,0,0,0,0,0,0,0,0,0,0,0,0,0,0,0,0,0,0,0,0,0,0,0,0,0,0,0,0,0,0,0,0,0,0,0,0,0,0,0,0,0,0,0,0,0,0,0,0,0,0,0,0,0,0,0,0,0
</data>
 </layer>
 <objectgroup id="11" name="BarraFin">
  <object id="722" gid="1796" x="9248" y="416" width="64" height="32"/>
 </objectgroup>
 <layer id="15" name="CapaDecoraciones" width="296" height="26">
  <data encoding="csv">
0,0,0,0,0,0,0,0,0,0,0,0,0,0,0,0,0,0,0,0,0,0,0,0,0,0,0,0,0,0,0,0,0,0,0,0,0,0,0,0,0,0,0,0,0,0,0,0,0,0,0,0,0,0,0,0,0,0,0,0,0,0,0,0,0,0,0,0,0,0,0,0,0,0,0,0,0,0,0,0,0,0,0,0,0,0,0,0,0,0,0,0,0,0,0,0,0,0,0,0,0,0,0,0,0,0,0,0,0,0,0,0,0,0,0,0,0,0,0,0,0,0,0,0,0,0,0,0,0,0,0,0,0,0,0,0,0,0,0,0,0,0,0,0,0,0,0,0,0,0,0,0,0,0,0,0,0,0,0,0,0,0,0,0,0,0,0,0,0,0,0,0,0,0,0,0,0,0,0,0,0,0,0,0,0,0,0,0,0,0,0,0,0,0,0,0,0,0,0,0,0,0,0,0,0,0,0,0,0,0,0,0,0,0,0,0,0,0,0,0,0,616,0,0,0,0,0,0,0,0,0,0,0,0,0,0,0,0,0,0,0,0,0,0,0,0,0,0,0,0,0,0,0,0,0,0,0,0,0,0,0,0,0,0,0,0,0,0,0,0,0,0,0,0,0,0,0,0,0,0,0,0,0,0,0,0,0,0,616,0,0,0,0,0,0,0,
624,0,0,0,0,0,0,624,0,0,0,0,0,0,0,0,0,0,0,0,0,0,0,0,0,0,0,0,0,0,0,0,0,0,0,0,0,0,0,0,0,0,0,0,0,0,0,0,0,0,0,0,0,0,0,0,0,0,0,0,0,0,0,0,0,0,0,0,0,0,0,0,0,0,0,0,0,0,0,0,0,0,0,0,0,0,0,0,0,0,0,0,0,0,0,0,0,0,0,0,0,0,0,0,0,0,0,0,0,0,0,0,0,0,0,0,0,0,0,0,0,0,0,0,0,0,0,0,0,0,0,0,0,0,0,0,0,0,0,0,0,0,0,0,0,0,0,0,0,0,0,0,0,0,0,0,0,0,0,0,0,0,0,0,0,0,0,0,0,0,0,0,0,0,0,0,0,0,0,0,0,0,0,0,0,0,0,0,0,0,0,0,0,0,0,0,0,0,0,0,0,0,0,0,0,0,0,0,0,0,0,0,0,0,0,0,0,0,0,0,0,576,0,0,0,0,0,0,0,0,0,0,0,0,0,0,0,0,0,0,0,0,0,0,0,0,0,0,0,0,0,0,0,0,0,0,0,0,0,0,0,0,0,0,0,0,0,0,0,0,0,0,0,0,0,0,0,0,0,0,0,0,0,0,0,0,0,0,576,0,0,0,0,0,0,0,
624,624,624,624,624,624,624,624,0,0,0,0,0,0,0,0,0,0,0,0,0,0,0,0,0,0,0,0,0,0,0,0,0,0,0,0,0,0,0,0,0,0,0,0,0,0,0,0,0,0,0,0,0,0,0,0,0,0,0,0,0,0,0,0,0,0,0,0,0,0,0,0,0,0,0,0,0,0,0,0,0,0,0,0,0,0,0,0,0,0,0,0,0,0,0,0,0,0,0,0,0,0,0,0,0,0,0,0,0,0,0,0,0,0,0,0,0,0,0,0,0,0,0,0,0,0,0,0,0,0,0,0,0,0,0,0,0,0,0,0,0,0,0,0,0,0,0,0,0,0,0,0,0,0,0,0,0,0,0,0,0,0,0,0,0,0,0,0,0,0,0,0,0,0,0,0,0,0,0,0,0,0,0,0,0,0,0,0,0,0,0,0,0,0,0,0,0,0,0,0,0,0,0,0,0,0,0,0,0,0,0,0,0,0,0,0,0,0,0,0,0,584,0,0,0,0,0,0,0,0,0,0,0,0,0,0,0,0,0,0,0,0,0,0,0,0,0,0,0,0,0,0,0,0,0,0,0,0,0,0,0,0,0,0,0,0,0,0,0,0,0,0,0,0,0,0,0,0,0,0,0,0,0,0,0,0,0,0,584,0,0,0,0,0,0,0,
624,624,629,630,631,632,624,624,0,0,0,0,0,0,0,0,0,0,0,0,0,0,0,0,0,0,0,0,0,0,0,0,0,0,0,0,0,0,0,0,0,0,0,0,0,0,0,0,0,0,0,0,0,0,0,0,0,0,0,0,0,0,0,0,0,0,0,0,0,0,0,0,0,0,0,0,0,0,0,0,0,0,0,0,0,0,0,0,0,0,0,0,0,0,0,0,0,0,0,0,0,0,0,0,0,0,0,0,0,0,0,0,0,0,0,0,0,0,0,0,0,0,0,0,0,0,0,0,0,0,0,0,0,0,0,0,0,0,0,0,0,0,0,0,0,0,0,0,0,0,0,0,0,0,0,0,0,0,0,0,0,0,0,0,0,0,0,0,0,0,0,0,0,0,0,0,0,0,0,0,0,0,0,0,0,0,0,0,0,0,0,0,0,0,0,0,0,0,0,1257,1258,1258,1258,1259,0,0,0,0,0,0,1259,0,0,0,0,0,0,0,0,0,0,592,0,0,0,0,0,0,0,0,0,0,0,0,0,0,0,0,0,0,0,0,0,0,0,0,0,0,0,0,0,0,0,0,0,0,0,0,0,0,0,0,0,0,0,0,0,0,0,0,0,0,0,0,0,0,0,0,0,0,0,0,0,0,0,0,0,0,592,0,0,0,0,0,0,0,
624,622,0,0,0,0,623,624,0,0,0,0,0,0,0,0,0,0,0,0,0,0,0,0,0,0,0,0,0,0,0,0,0,0,0,0,0,0,0,0,0,0,0,0,0,0,0,0,0,0,0,0,0,0,0,0,0,0,0,0,0,0,0,0,0,0,0,0,0,0,0,0,0,0,0,0,0,0,0,0,0,0,0,0,0,0,0,0,0,0,0,0,0,0,0,0,0,0,0,0,0,0,0,0,0,0,0,0,0,0,0,0,0,0,0,0,0,0,0,0,0,0,0,0,0,0,0,0,0,0,0,0,0,0,0,0,0,0,0,0,0,0,0,0,0,0,0,0,0,0,0,0,0,0,0,0,0,0,0,0,0,0,0,0,0,0,0,0,0,0,0,0,0,0,0,0,0,0,0,0,0,0,0,0,0,0,0,0,0,0,0,0,0,0,0,0,0,0,0,1257,1258,1258,1258,1259,0,0,1257,1258,1258,1258,1259,0,0,0,0,0,0,0,0,0,0,600,0,0,0,0,0,0,0,0,0,0,0,0,0,0,0,0,0,0,0,0,0,0,0,0,0,0,0,0,0,0,0,0,0,0,0,0,0,0,0,0,0,0,0,0,0,0,0,0,0,0,0,0,0,0,0,0,0,0,0,0,0,0,0,0,0,0,600,0,0,0,0,0,0,0,
624,0,0,0,0,0,0,624,0,0,0,0,0,0,0,0,0,0,0,0,0,0,0,0,0,0,0,0,0,0,0,0,0,0,0,0,0,0,0,0,0,0,0,0,0,0,0,0,0,0,0,0,0,0,0,0,0,0,0,0,0,0,0,0,0,0,0,0,0,0,0,0,0,0,0,0,0,0,0,0,0,0,0,0,0,0,0,0,0,0,0,0,0,0,0,0,0,0,0,0,0,0,0,0,0,0,0,0,0,0,0,0,0,0,0,0,624,624,624,624,624,624,624,624,624,624,624,624,624,624,624,624,624,624,624,624,624,0,0,0,0,0,0,0,0,0,0,0,0,0,0,0,0,0,0,0,0,0,0,0,0,0,0,0,0,0,0,0,0,0,0,0,0,0,0,0,0,0,0,0,0,0,0,0,0,0,0,0,0,0,0,0,0,0,0,0,0,0,0,1265,1266,1266,1266,1267,0,0,1257,1258,1258,1258,1259,0,0,0,0,0,0,0,0,0,0,0,0,0,0,0,0,0,0,0,0,0,0,0,0,0,0,0,0,0,0,0,0,0,0,0,0,0,0,0,0,0,0,0,0,0,0,0,0,0,0,0,0,0,0,0,0,0,0,0,0,0,0,0,0,0,0,0,0,0,0,0,0,0,0,0,0,0,608,0,624,0,0,0,0,0,
624,0,0,0,0,0,0,624,0,0,0,0,0,0,0,0,0,0,0,0,0,0,0,0,0,0,0,0,0,0,0,0,0,0,0,0,0,0,0,0,0,0,0,0,0,0,0,0,0,0,0,0,0,0,0,0,0,0,0,0,0,0,0,0,0,0,0,0,0,0,0,0,0,0,0,0,0,0,0,0,0,0,0,0,0,0,0,0,0,0,0,0,0,0,0,0,0,0,0,0,0,0,0,0,0,0,0,0,0,0,0,0,0,0,0,0,0,624,624,624,624,624,624,624,624,624,624,624,624,624,624,624,624,624,624,624,624,624,0,0,0,0,0,0,0,0,0,0,0,0,0,0,0,0,0,0,0,0,0,0,0,0,0,0,0,0,0,0,0,0,0,0,0,0,0,0,0,0,0,0,0,0,0,0,0,0,0,0,0,0,0,0,0,0,0,0,0,0,0,1257,1258,1258,1258,1259,0,0,0,0,0,0,1259,0,0,0,0,0,0,0,0,0,0,0,0,0,0,0,0,0,0,0,0,0,0,0,0,0,0,0,0,0,0,0,0,0,0,0,0,0,0,0,0,0,0,0,0,0,0,0,0,0,0,0,0,0,0,0,0,0,0,0,0,0,0,0,0,0,0,0,0,0,0,0,0,0,0,0,0,0,616,0,624,0,0,0,0,0,
624,0,0,0,0,0,0,624,0,0,0,0,0,0,0,0,0,0,0,0,0,0,0,0,0,0,0,0,0,0,0,0,0,0,0,0,0,0,0,0,0,0,0,0,0,0,0,0,0,0,0,0,0,0,0,0,0,0,0,0,0,0,0,0,0,0,0,0,0,0,0,0,0,0,0,0,0,0,0,0,0,0,0,0,0,0,0,0,0,0,0,0,0,0,0,0,0,0,0,0,0,0,0,0,0,0,0,0,0,0,0,0,0,0,0,0,0,624,624,624,624,624,624,624,624,624,624,624,624,624,624,624,624,624,624,624,624,624,0,0,0,0,0,0,0,0,0,0,0,0,0,0,0,0,0,0,0,0,0,0,0,0,0,0,0,0,0,0,0,0,0,0,0,0,0,0,0,0,0,0,0,0,0,0,0,0,0,0,0,0,0,0,0,0,0,0,0,0,0,1265,1266,1266,1266,1267,0,0,1257,1258,1258,1258,1259,0,0,0,0,0,0,0,0,0,0,0,0,0,0,0,0,0,0,0,0,0,0,0,0,0,0,0,0,0,0,0,0,0,0,0,0,0,0,0,0,0,0,0,0,0,0,0,0,0,0,0,0,0,0,0,0,0,0,0,0,0,0,0,0,0,0,0,0,0,0,0,0,0,0,0,0,0,576,0,624,0,0,0,0,0,
624,624,624,624,624,624,624,624,0,0,0,0,0,0,0,0,0,0,0,0,0,0,0,0,0,0,0,0,0,0,0,0,0,0,0,0,0,0,0,0,0,0,0,0,0,0,0,0,0,0,0,0,0,0,0,0,0,0,0,0,0,0,0,0,0,0,0,0,0,0,0,0,0,0,0,0,0,0,0,0,0,0,0,0,0,0,0,0,0,0,0,0,0,0,0,0,0,0,0,0,0,0,0,0,0,0,0,0,0,0,0,0,0,0,0,0,0,624,624,624,624,624,624,624,624,624,624,624,624,624,624,624,624,624,624,624,624,624,0,0,0,0,0,0,0,0,0,0,0,0,0,0,0,0,0,0,0,0,0,0,0,0,0,0,0,0,0,0,0,0,0,0,0,0,0,0,0,0,0,0,0,0,0,0,0,0,0,0,0,0,0,0,0,0,0,0,0,0,0,1257,1258,1258,1258,1259,0,0,1265,1266,1266,1266,1267,0,0,0,0,0,0,0,0,0,0,0,0,0,0,0,0,0,0,0,0,0,0,0,0,0,0,0,0,0,0,0,0,0,0,0,0,0,0,0,0,0,0,0,0,0,0,0,0,0,0,0,0,0,0,0,0,0,0,0,0,0,0,0,0,0,0,0,0,0,0,0,0,0,0,0,0,0,592,0,624,0,0,0,0,0,
624,624,629,630,631,632,624,624,0,0,0,0,0,0,0,0,0,0,0,0,0,0,0,0,0,0,0,0,0,0,0,0,0,0,0,0,0,0,0,0,0,0,0,0,0,0,0,0,0,0,0,0,0,0,0,0,0,0,0,0,0,0,0,0,0,0,0,0,0,0,0,0,0,0,0,0,0,0,0,0,0,0,0,0,0,0,0,0,0,0,0,0,0,0,0,0,0,0,0,0,0,0,0,0,0,0,0,0,0,0,0,0,0,0,0,0,0,624,629,630,631,632,624,629,630,631,632,624,629,630,631,632,624,629,630,631,632,624,0,0,0,0,624,0,0,0,0,624,0,0,0,0,0,0,0,0,0,0,0,0,0,0,0,0,0,0,0,0,0,0,0,0,0,0,0,0,0,0,0,0,0,0,0,0,0,0,0,0,0,0,0,0,0,0,0,0,0,0,0,1265,1266,1266,1266,1267,0,0,1257,1258,1258,1258,1259,0,0,0,0,0,0,0,0,0,0,0,0,0,0,0,0,0,0,0,0,0,0,0,0,0,0,0,0,0,0,0,0,0,0,0,0,0,0,0,0,0,0,0,0,0,0,0,0,0,0,0,0,0,0,0,0,0,0,0,0,0,0,0,0,0,0,0,0,0,0,0,0,0,0,0,0,0,600,0,624,0,0,0,0,0,
624,622,0,0,0,0,623,624,0,0,0,0,0,0,0,0,0,0,0,0,0,0,0,0,0,0,0,0,0,0,0,0,0,0,0,0,0,0,0,0,0,0,0,0,0,0,0,0,0,0,0,0,0,0,0,0,0,0,0,0,0,0,0,0,0,0,0,0,0,0,0,0,0,0,0,0,0,0,0,0,0,0,0,0,0,0,0,0,0,0,0,0,0,0,0,0,0,0,0,0,0,0,0,0,0,0,0,0,0,0,0,0,0,0,0,0,0,0,0,0,0,0,0,0,0,0,0,0,0,0,0,0,0,0,0,0,0,0,0,0,0,0,0,0,0,0,0,0,0,0,0,0,0,0,0,0,1114,1071,1072,1071,1072,1117,1071,1072,1071,1072,1116,0,0,0,0,0,0,0,0,0,0,0,0,0,0,0,0,0,0,0,0,0,0,0,0,0,0,0,0,0,0,0,0,1257,1258,1258,1258,1259,0,0,1265,1266,1266,1266,1267,0,0,0,0,0,0,0,0,0,0,0,0,0,0,0,0,0,0,0,0,0,0,0,0,0,0,0,0,0,0,0,0,0,0,0,0,0,0,0,0,0,0,0,0,0,0,0,0,0,0,0,0,0,0,0,0,0,0,0,0,0,0,0,0,0,0,0,0,0,0,0,0,0,0,0,0,0,608,0,624,0,0,0,0,0,
624,0,0,0,0,0,0,624,0,0,0,0,0,0,0,0,0,0,0,0,0,0,0,0,0,0,0,0,0,0,0,0,0,0,0,0,0,0,0,0,0,0,0,0,0,0,0,0,0,0,0,0,0,0,0,0,0,0,0,0,0,0,0,0,0,0,0,0,0,0,0,0,0,0,0,0,0,0,0,0,0,0,0,0,0,0,0,0,0,0,0,0,0,0,0,0,0,0,0,0,0,0,0,0,0,0,0,0,0,0,0,0,0,0,0,0,0,0,0,0,0,0,0,0,0,0,0,0,0,0,0,0,0,0,0,0,0,0,0,0,0,0,0,0,0,0,0,0,0,0,0,0,0,0,0,0,0,1265,1265,1266,1266,1118,1266,1266,1266,1267,0,0,0,0,0,0,0,0,0,0,0,0,0,0,0,0,0,0,0,0,0,0,0,0,0,0,0,0,0,0,0,0,0,1265,1266,1266,1266,1267,0,0,1257,1258,1258,1258,1259,0,0,0,0,0,0,0,0,0,0,0,0,0,0,0,0,0,0,0,0,0,0,0,0,0,0,0,0,0,0,0,0,0,0,0,0,0,0,0,0,0,0,0,0,0,0,0,0,0,0,0,0,0,0,0,0,0,0,0,0,0,0,0,0,0,0,0,0,0,0,0,0,0,0,0,0,0,616,0,624,0,0,0,0,0,
624,0,0,0,0,0,0,624,0,0,0,0,0,0,0,0,0,0,0,0,0,0,0,0,0,0,0,0,0,0,0,0,0,0,0,0,0,0,0,0,0,0,0,0,0,0,0,0,0,0,0,0,0,0,0,0,0,0,0,0,0,0,0,0,0,0,0,0,0,0,0,0,0,0,0,0,0,0,0,0,0,0,0,0,0,0,0,0,0,0,0,0,0,0,0,0,0,0,0,0,0,0,0,0,0,0,0,0,0,0,0,0,0,0,0,0,0,0,0,0,0,0,0,0,0,0,0,0,0,0,0,0,0,0,0,0,0,0,0,0,0,0,0,0,0,0,0,0,0,0,0,0,0,0,0,0,0,1265,1265,1258,1266,1118,1266,1266,1266,1259,0,0,0,0,0,0,0,0,0,0,0,0,0,0,0,0,0,0,0,0,0,0,0,0,0,0,0,0,0,0,0,0,0,1257,1258,1258,1258,1259,0,0,1257,1258,1258,1258,1259,0,0,0,0,0,0,0,0,0,0,0,0,0,0,0,0,0,0,0,0,0,0,0,0,0,0,1257,1258,1259,0,0,0,0,0,0,0,0,0,0,0,0,0,0,0,0,0,0,0,0,0,0,1257,1258,1259,0,0,0,0,0,0,0,0,0,0,0,0,0,0,0,0,0,0,0,0,0,0,0,576,0,624,0,0,0,0,0,
624,0,0,0,0,0,0,624,0,0,0,0,0,0,0,0,0,0,0,0,0,0,0,0,0,0,0,0,0,0,0,0,0,0,0,0,0,0,0,0,0,0,0,0,0,0,0,0,0,0,0,0,0,0,0,0,0,0,0,0,0,0,0,0,0,0,0,0,0,0,0,0,0,0,0,0,0,0,0,0,0,0,0,0,0,0,0,0,0,0,0,0,0,0,0,0,0,0,0,0,0,0,0,0,0,0,0,0,0,0,0,0,0,0,0,0,0,0,0,0,0,0,0,0,0,0,0,0,0,0,0,0,0,0,0,0,0,0,0,0,0,0,0,0,0,0,0,0,0,0,0,0,0,0,0,0,0,1265,1265,1258,1258,1118,1266,1266,1266,1259,0,0,0,0,0,0,0,0,0,0,0,0,0,0,0,0,0,0,0,0,0,0,0,0,0,0,0,0,0,0,0,0,0,1265,1266,1266,1266,1267,0,0,1265,1266,1266,1266,1267,0,0,0,0,0,0,0,0,0,0,0,0,0,0,0,0,0,0,0,0,0,0,0,0,0,0,1265,1266,1267,0,0,0,0,0,0,0,0,0,0,0,0,0,0,0,0,0,0,0,0,0,0,1265,1266,1267,0,0,0,0,0,0,0,0,0,0,0,0,0,0,0,0,0,0,0,0,0,0,0,584,0,624,0,0,0,0,0,
624,624,624,624,624,624,624,624,0,0,0,0,0,0,0,0,0,0,0,0,0,0,0,0,0,0,0,0,0,0,0,0,0,0,0,0,0,0,0,0,0,0,0,0,0,0,0,0,0,0,0,0,0,0,0,0,0,0,0,0,0,0,0,0,0,0,0,0,0,0,0,0,0,0,0,0,0,0,0,0,0,0,0,0,0,0,0,0,0,0,0,0,0,0,0,0,0,0,0,0,0,0,0,0,0,0,0,0,0,0,0,0,0,0,0,0,0,0,0,0,0,0,0,0,0,0,0,0,0,0,0,0,0,0,0,0,0,0,0,0,0,0,0,0,0,0,0,0,0,0,0,0,0,0,0,0,0,1265,1265,1266,1266,1118,1266,1266,1266,1259,0,0,0,0,0,0,0,0,0,0,0,0,0,0,0,0,0,0,0,0,0,0,0,0,0,0,0,0,0,0,0,0,0,1273,1274,1274,1274,1275,0,0,1273,1274,1274,1274,1275,0,0,0,0,0,0,0,0,0,0,0,0,0,0,0,0,0,0,0,0,0,0,0,0,0,0,1273,1274,1275,0,0,0,0,0,0,0,0,0,0,0,0,0,0,0,0,0,0,0,0,0,0,1273,1274,1275,0,0,0,0,0,0,0,0,0,0,0,0,0,0,0,0,0,0,0,0,0,0,0,592,0,624,0,0,0,0,0,
624,624,629,630,631,632,624,624,0,0,0,0,0,0,0,0,0,0,0,0,0,0,0,0,0,0,0,0,0,0,0,0,0,0,0,0,0,0,0,1257,1258,1259,1257,1258,1259,1257,1258,1259,1257,1258,1259,1257,1258,1259,1257,1258,1259,1257,1258,1259,1257,1258,1259,1257,1258,1259,1257,1258,1259,1257,1258,1259,1257,1258,1259,0,0,0,0,0,0,0,0,0,0,0,0,0,0,0,0,0,0,0,0,0,0,0,0,0,0,0,0,0,0,0,0,0,0,0,0,0,0,0,0,0,0,0,0,0,0,0,0,0,0,0,0,0,0,0,0,0,0,0,0,0,0,0,0,0,0,0,0,0,0,0,0,0,0,0,0,0,0,0,0,0,0,1265,1265,1266,1274,1118,1266,1266,1266,1259,0,0,0,0,0,0,0,0,0,0,0,0,0,0,0,0,0,0,0,0,0,0,0,0,0,0,0,0,0,0,0,0,0,0,0,0,0,1069,0,0,0,0,0,0,0,0,0,0,0,0,0,0,0,0,0,0,0,0,0,0,0,0,0,0,0,0,0,0,0,0,0,0,0,0,0,0,0,0,0,0,0,0,0,0,0,0,0,0,0,0,0,0,0,0,0,0,0,0,0,0,0,0,0,0,0,0,0,0,0,0,0,0,0,0,0,0,0,0,0,0,0,0,600,0,624,0,0,0,0,0,
624,622,0,0,0,0,623,624,0,0,0,0,0,0,0,0,0,0,0,0,0,0,0,0,0,0,0,0,0,0,0,0,0,0,0,0,0,0,0,1265,1266,1267,1265,1266,1267,1265,1266,1267,1265,1266,1267,1265,1266,1267,1265,1266,1267,1265,1266,1267,1265,1266,1267,1265,1266,1267,1265,1266,1267,1265,1266,1267,1265,1266,1275,0,0,0,0,0,0,0,0,0,0,0,0,0,0,0,0,0,0,0,0,0,0,0,0,0,0,0,0,0,0,0,0,0,0,0,0,0,0,0,0,0,0,0,0,0,0,0,0,0,0,0,0,0,0,0,0,0,0,0,0,0,0,0,0,0,0,0,0,0,0,0,0,0,0,0,0,0,0,0,0,0,0,1265,1265,1266,1258,1118,1266,1266,1266,1259,0,0,0,0,0,0,0,0,0,1140,0,0,0,0,0,0,0,0,0,0,0,0,0,0,0,0,0,0,0,0,0,0,0,0,0,0,0,0,0,0,0,0,0,0,0,0,0,0,0,0,0,0,0,0,0,0,0,0,0,0,0,0,0,0,0,0,0,0,0,0,0,1257,1258,1259,0,0,0,0,0,0,0,0,1257,1258,1259,1257,1258,1259,0,0,0,0,0,0,0,0,1257,1258,1259,0,0,0,0,0,0,1140,0,0,0,0,0,0,0,0,0,0,0,0,0,0,0,0,608,0,624,0,0,0,0,0,
624,0,603,0,0,0,0,624,0,0,0,0,0,0,0,0,0,0,0,0,0,0,0,0,0,0,0,0,0,0,0,0,0,0,0,0,0,0,0,0,0,0,0,0,0,0,0,0,0,0,0,0,0,0,0,0,0,0,0,0,0,0,0,0,0,0,0,0,0,0,0,0,0,0,0,0,0,0,0,0,0,0,0,0,0,0,0,0,0,0,0,0,0,0,0,0,0,0,0,0,0,0,0,0,0,0,0,0,0,0,0,0,0,0,0,0,0,0,0,0,0,0,0,0,0,0,0,0,0,0,0,0,0,0,0,0,0,0,0,0,0,0,0,0,0,0,0,0,0,0,0,0,1115,0,0,0,0,1273,1266,1266,1266,1118,1266,1266,1266,1275,0,0,0,1115,0,0,0,0,0,1148,1140,0,0,0,0,0,0,0,0,0,0,0,0,0,0,0,0,0,0,0,0,0,0,0,0,0,0,0,0,0,0,0,0,0,0,0,0,0,0,0,0,0,0,0,0,0,0,0,0,0,0,0,0,0,0,0,0,0,0,0,0,1273,1274,1275,0,0,0,0,0,0,0,0,1273,1274,1275,1273,1274,1275,0,0,0,0,0,0,0,0,1273,1274,1275,0,0,0,0,0,0,1148,0,0,0,0,0,0,0,0,0,0,0,0,0,0,0,0,616,0,624,0,0,0,0,0,
624,0,0,0,0,0,0,624,0,0,0,0,0,0,0,0,0,0,0,0,0,0,0,0,0,0,0,0,0,0,0,0,0,0,0,0,0,0,0,1265,1266,1267,1265,1266,1267,1265,1266,1267,1265,1266,1267,1265,1266,1267,1265,1266,1267,1265,1266,1267,1265,1266,1267,1265,1266,1267,1265,1266,1267,1265,1266,1267,1265,1266,1267,0,0,0,0,0,0,0,0,0,0,0,0,0,0,0,0,0,0,0,0,0,0,0,0,0,0,0,0,0,0,0,0,0,0,0,0,1257,1258,1258,1259,0,0,0,0,0,0,0,0,0,0,0,0,0,0,0,0,0,0,0,0,0,0,0,0,0,0,0,0,0,0,0,0,0,0,0,0,0,0,0,1174,0,0,1274,1274,1274,1274,1118,1274,1274,1274,1274,0,0,0,0,0,0,0,0,0,0,1148,1140,0,0,0,0,0,0,0,0,0,0,0,0,0,0,0,0,0,0,0,0,0,0,0,0,0,0,0,0,0,0,0,0,0,0,0,0,0,0,0,0,0,0,0,0,0,0,0,0,0,0,0,0,0,0,0,0,0,0,0,1273,1274,1275,0,0,0,0,0,0,0,0,1273,1274,1275,1273,1274,1275,0,0,0,0,0,0,0,0,1273,1274,1275,0,0,0,0,0,0,0,0,0,0,0,0,0,0,0,0,0,0,0,0,0,0,0,0,0,0,0,0,0,0,0,
624,0,0,0,0,0,0,624,0,0,0,0,0,0,0,0,0,0,0,0,0,0,0,0,0,0,0,0,0,0,0,0,0,0,0,0,0,0,0,1273,1274,1275,1273,1274,1275,1273,1274,1275,1273,1274,1275,1273,1274,1275,1273,1274,1275,1273,1274,1275,1273,1274,1275,1273,1274,1275,1273,1274,1275,1273,1274,1275,1273,1274,1275,0,0,0,0,0,0,0,0,0,0,0,0,0,0,0,0,0,0,0,0,0,0,0,0,0,0,0,0,0,0,0,0,0,0,0,0,1265,1266,1258,1267,0,0,0,0,0,0,0,0,0,0,0,0,0,0,0,0,0,0,0,0,0,0,0,0,0,0,0,0,0,0,0,0,0,0,0,0,0,0,0,0,0,0,0,0,0,0,0,0,0,0,0,0,0,0,0,0,0,0,0,0,0,0,1148,1140,0,0,0,0,0,0,0,0,0,0,0,0,0,0,0,0,0,0,0,0,0,0,0,0,0,0,0,0,0,0,0,0,0,0,0,0,0,0,0,0,0,0,0,0,0,0,0,0,0,0,0,0,0,0,0,0,0,0,0,0,0,0,0,0,0,0,0,0,0,0,0,0,0,0,0,0,0,0,0,0,0,0,0,0,0,0,0,0,0,0,0,0,0,0,0,0,0,0,0,0,0,0,0,0,0,0,1265,1266,1267,1267,1265,1266,1267,1267,0,0,0,
0,0,0,0,0,0,0,0,0,0,0,0,0,0,0,0,0,0,0,0,0,0,0,0,0,0,0,0,0,0,0,0,0,0,0,0,0,0,0,0,0,0,0,0,0,0,0,0,0,0,0,0,0,0,0,0,0,0,0,0,0,0,0,0,0,0,0,0,0,0,0,0,0,0,0,0,0,0,0,0,0,0,0,0,0,0,0,0,0,0,0,0,0,0,0,0,0,0,0,0,0,0,0,0,0,0,0,0,0,0,0,1257,1258,1258,1259,0,0,0,0,0,0,0,0,0,0,0,0,0,0,0,0,0,0,0,0,0,0,0,0,0,0,0,0,0,0,0,0,0,0,0,0,0,0,0,0,0,0,0,0,0,0,0,0,0,0,0,0,0,0,0,0,0,0,0,0,0,0,0,1148,0,0,0,0,0,0,0,0,0,0,0,0,0,0,0,0,0,0,0,0,0,0,0,0,0,0,0,0,0,0,0,0,0,0,0,0,0,0,0,0,0,0,0,0,0,0,0,0,0,0,0,0,0,0,0,0,0,0,0,0,0,0,0,0,0,0,0,0,0,0,0,0,0,0,0,0,0,0,0,0,0,0,0,0,0,0,0,0,0,0,0,0,0,0,0,0,0,0,0,0,0,0,0,0,0,0,1257,1258,1259,1259,1257,1258,1259,1259,0,0,0,
0,0,0,0,0,0,0,0,0,0,0,0,0,0,0,0,0,0,0,0,0,0,0,0,0,0,0,0,0,0,0,0,0,0,0,0,0,0,0,1257,1258,1259,1257,1258,1259,1257,1258,1259,1257,1258,1259,1257,1258,1259,1257,1258,1259,1257,1258,1259,1257,1258,1259,1257,1258,1259,1257,1258,1259,1257,1258,1259,1257,1258,1259,0,0,0,0,0,0,0,0,0,0,0,0,0,0,0,0,0,0,0,0,0,0,0,0,0,0,0,0,0,0,0,0,0,0,0,0,1265,1266,1258,1267,0,0,0,0,0,0,0,0,0,0,0,0,0,0,0,0,0,0,0,0,0,0,0,0,0,0,0,0,0,0,0,0,0,0,0,0,0,0,0,0,0,0,0,0,0,0,0,0,0,0,0,0,0,0,0,0,0,0,0,0,0,0,0,0,0,0,0,0,0,0,0,0,0,0,0,0,0,0,0,0,0,0,0,0,0,0,0,0,0,0,0,0,0,0,0,0,0,0,0,0,0,0,0,0,0,0,0,0,0,0,0,0,0,0,0,0,0,0,0,0,0,0,0,0,0,0,0,0,0,0,0,0,0,0,0,0,0,0,0,0,0,0,0,0,0,0,0,0,0,0,0,0,0,0,0,0,0,0,0,0,0,0,0,0,0,0,0,0,0,0,1265,1266,1267,1267,1265,1266,1267,1267,0,0,0,
0,0,0,0,0,0,0,0,0,0,0,0,0,0,0,0,0,0,0,0,0,0,0,0,0,0,0,0,0,0,0,0,0,0,0,0,0,0,0,1257,1258,1259,1257,1258,1259,1257,1258,1259,1257,1258,1259,1257,1258,1259,1257,1258,1259,1257,1258,1259,1257,1258,1259,1257,1258,1259,1257,1258,1259,1257,1258,1259,1257,1258,1259,0,0,0,0,0,0,0,0,0,0,0,0,0,0,0,0,0,0,0,0,0,0,0,0,0,0,0,0,0,0,0,0,0,0,0,0,1257,1258,1258,1259,0,0,0,0,0,0,0,0,0,0,0,0,0,0,0,0,0,0,0,0,0,0,0,0,0,0,0,0,0,0,0,0,0,0,0,0,0,0,0,0,0,0,0,0,0,0,0,0,0,0,0,0,0,0,0,0,0,0,0,0,0,0,0,0,0,0,0,0,0,0,0,0,0,0,0,0,0,0,0,0,0,0,0,0,0,0,0,0,0,0,0,0,0,0,0,0,0,0,0,0,0,0,0,0,0,0,0,0,0,0,0,0,0,0,0,0,0,0,0,0,0,0,0,0,0,0,0,0,0,0,0,0,0,0,0,0,0,0,0,0,0,0,0,0,0,0,0,0,0,0,0,0,0,0,0,0,0,0,0,0,0,0,0,0,0,0,0,0,0,0,1257,1258,1259,1259,1257,1258,1259,1259,0,0,0,
0,0,0,0,0,0,0,0,0,0,0,0,0,0,0,0,0,0,0,0,0,0,0,0,0,0,0,0,0,0,0,0,0,0,0,0,0,0,0,1257,1258,1259,1257,1258,1259,1257,1258,1259,1257,1258,1259,1257,1258,1259,1257,1258,1259,1257,1258,1259,1257,1258,1259,1257,1258,1259,1257,1258,1259,1257,1258,1259,1257,1258,1259,0,0,0,0,0,0,0,0,0,0,0,0,0,0,0,0,0,0,0,0,0,0,0,0,0,0,0,0,0,0,0,0,0,0,0,0,1265,1266,1258,1267,0,0,0,0,0,0,0,0,0,0,0,0,0,0,0,0,0,0,0,0,0,0,0,0,0,0,0,0,0,0,0,0,0,0,0,0,0,0,0,0,0,0,0,0,0,0,0,0,0,0,0,0,0,0,0,0,0,0,0,0,0,0,0,0,0,0,0,0,0,0,0,0,0,0,0,0,0,0,0,0,0,0,0,0,0,0,0,0,0,0,0,0,0,0,0,0,0,0,0,0,0,0,0,0,0,0,0,0,0,0,0,0,0,0,0,0,0,0,0,0,0,0,0,0,0,0,0,0,0,0,0,0,0,0,0,0,0,0,0,0,0,0,0,0,0,0,0,0,0,0,0,0,0,0,0,0,0,0,0,0,0,0,0,0,0,0,0,0,0,0,1265,1266,1267,1267,1265,1266,1267,1267,0,0,0,
0,0,0,0,0,0,0,0,0,0,0,0,0,0,0,0,0,0,0,0,0,0,0,0,0,0,0,0,0,0,0,0,0,0,0,0,0,0,0,1257,1258,1259,1257,1258,1259,1257,1258,1259,1257,1258,1259,1257,1258,1259,1257,1258,1259,1257,1258,1259,1257,1258,1259,1257,1258,1259,1257,1258,1259,1257,1258,1259,1257,1258,1259,0,0,0,0,0,0,0,0,0,0,0,0,0,0,0,0,0,0,0,0,0,0,0,0,0,0,0,0,0,0,0,0,0,0,0,0,1257,1258,1258,1259,0,0,0,0,0,0,0,0,0,0,0,0,0,0,0,0,0,0,0,0,0,0,0,0,0,0,0,0,0,0,0,0,0,0,0,0,0,0,0,0,0,0,0,0,0,0,0,0,0,0,0,0,0,0,0,0,0,0,0,0,0,0,0,0,0,0,0,0,0,0,0,0,0,0,0,0,0,0,0,0,0,0,0,0,0,0,0,0,0,0,0,0,0,0,0,0,0,0,0,0,0,0,0,0,0,0,0,0,0,0,0,0,0,0,0,0,0,0,0,0,0,0,0,0,0,0,0,0,0,0,0,0,0,0,0,0,0,0,0,0,0,0,0,0,0,0,0,0,0,0,0,0,0,0,0,0,0,0,0,0,0,0,0,0,0,0,0,0,0,0,1257,1258,1259,1259,1257,1258,1259,1259,0,0,0,
0,0,0,0,0,0,0,0,0,0,0,0,0,0,0,0,0,0,0,0,0,0,0,0,0,0,0,0,0,0,0,0,0,0,0,0,0,0,0,1265,1266,1267,1265,1266,1267,1265,1266,1267,1265,1266,1267,1265,1266,1267,1265,1266,1267,1265,1266,1267,1265,1266,1267,1265,1266,1267,1265,1266,1267,1265,1266,1267,1265,1266,1267,0,0,0,0,0,0,0,0,0,0,0,0,0,0,0,0,0,0,0,0,0,0,0,0,0,0,0,0,0,0,0,0,0,0,0,0,1265,1266,1267,1267,0,0,0,0,0,0,0,0,0,0,0,0,0,0,0,0,0,0,0,0,0,0,0,0,0,0,0,0,0,0,0,0,0,0,0,0,0,0,0,0,0,0,0,0,0,0,0,0,0,0,0,0,0,0,0,0,0,0,0,0,0,0,0,0,0,0,0,0,0,0,0,0,0,0,0,0,0,0,0,0,0,0,0,0,0,0,0,0,0,0,0,0,0,0,0,0,0,0,0,0,0,0,0,0,0,0,0,0,0,0,0,0,0,0,0,0,0,0,0,0,0,0,0,0,0,0,0,0,0,0,0,0,0,0,0,0,0,0,0,0,0,0,0,0,0,0,0,0,0,0,0,0,0,0,0,0,0,0,0,0,0,0,0,0,0,0,0,0,0,0,1265,1266,1267,1267,1265,1266,1267,1267,0,0,0
</data>
 </layer>
 <objectgroup id="24" name="AvisoBoss"/>
 <objectgroup id="10" name="Monedas">
  <object id="733" gid="1778" x="1088" y="544" width="32" height="32"/>
  <object id="734" gid="1778" x="1120" y="512" width="32" height="32"/>
  <object id="735" gid="1778" x="1152" y="480" width="32" height="32"/>
  <object id="736" gid="1778" x="1184" y="512" width="32" height="32"/>
  <object id="737" gid="1778" x="1120" y="544" width="32" height="32"/>
  <object id="738" gid="1778" x="1152" y="576" width="32" height="32"/>
  <object id="786" gid="1778" x="1184" y="608" width="32" height="32"/>
  <object id="787" gid="1778" x="1216" y="608" width="32" height="32"/>
  <object id="788" gid="1778" x="2688" y="576" width="32" height="32"/>
  <object id="789" gid="1778" x="2720" y="544" width="32" height="32"/>
  <object id="790" gid="1778" x="2752" y="512" width="32" height="32"/>
  <object id="791" gid="1778" x="2784" y="480" width="32" height="32"/>
  <object id="792" gid="1778" x="2816" y="480" width="32" height="32"/>
  <object id="798" gid="1778" x="3072" y="576" width="32" height="32"/>
  <object id="799" gid="1778" x="3104" y="544" width="32" height="32"/>
  <object id="800" gid="1778" x="3136" y="512" width="32" height="32"/>
  <object id="801" gid="1778" x="3168" y="480" width="32" height="32"/>
  <object id="802" gid="1778" x="3200" y="480" width="32" height="32"/>
  <object id="803" gid="1778" x="3392" y="544" width="32" height="32"/>
  <object id="804" gid="1778" x="3424" y="512" width="32" height="32"/>
  <object id="805" gid="1778" x="3456" y="480" width="32" height="32"/>
  <object id="806" gid="1778" x="3488" y="480" width="32" height="32"/>
  <object id="807" gid="1778" x="3520" y="480" width="32" height="32"/>
  <object id="808" gid="1778" x="3552" y="512" width="32" height="32"/>
  <object id="809" gid="1778" x="3648" y="512" width="32" height="32"/>
  <object id="810" gid="1778" x="3680" y="480" width="32" height="32"/>
  <object id="811" gid="1778" x="3712" y="448" width="32" height="32"/>
  <object id="812" gid="1778" x="3744" y="416" width="32" height="32"/>
  <object id="813" gid="1778" x="3776" y="448" width="32" height="32"/>
  <object id="818" gid="1778" x="6944" y="448" width="32" height="32"/>
  <object id="819" gid="1778" x="6336" y="576" width="32" height="32"/>
  <object id="820" gid="1778" x="6368" y="608" width="32" height="32"/>
  <object id="821" gid="1778" x="6400" y="608" width="32" height="32"/>
  <object id="822" gid="1778" x="6432" y="608" width="32" height="32"/>
  <object id="823" gid="1778" x="6368" y="576" width="32" height="32"/>
  <object id="824" gid="1778" x="6400" y="576" width="32" height="32"/>
  <object id="825" gid="1778" x="6432" y="576" width="32" height="32"/>
  <object id="826" gid="1778" x="6464" y="576" width="32" height="32"/>
  <object id="827" gid="1778" x="6496" y="576" width="32" height="32"/>
  <object id="828" gid="1778" x="6528" y="576" width="32" height="32"/>
  <object id="829" gid="1778" x="6528" y="576" width="32" height="32"/>
  <object id="830" gid="1778" x="6560" y="576" width="32" height="32"/>
  <object id="831" gid="1778" x="6592" y="576" width="32" height="32"/>
  <object id="832" gid="1778" x="6464" y="608" width="32" height="32"/>
  <object id="833" gid="1778" x="6496" y="608" width="32" height="32"/>
  <object id="834" gid="1778" x="6528" y="608" width="32" height="32"/>
  <object id="835" gid="1778" x="6560" y="608" width="32" height="32"/>
  <object id="836" gid="1778" x="6592" y="608" width="32" height="32"/>
  <object id="837" gid="1778" x="6624" y="608" width="32" height="32"/>
  <object id="838" gid="1778" x="6624" y="576" width="32" height="32"/>
  <object id="839" gid="1778" x="6656" y="576" width="32" height="32"/>
  <object id="840" gid="1778" x="6688" y="576" width="32" height="32"/>
  <object id="841" gid="1778" x="6624" y="608" width="32" height="32"/>
  <object id="842" gid="1778" x="6656" y="608" width="32" height="32"/>
  <object id="843" gid="1778" x="6688" y="608" width="32" height="32"/>
  <object id="844" gid="1778" x="6720" y="576" width="32" height="32"/>
  <object id="845" gid="1778" x="6976" y="448" width="32" height="32"/>
  <object id="846" gid="1778" x="7008" y="480" width="32" height="32"/>
  <object id="847" gid="1778" x="7040" y="512" width="32" height="32"/>
  <object id="849" gid="1778" x="5952" y="416" width="32" height="32"/>
  <object id="850" gid="1778" x="5984" y="384" width="32" height="32"/>
  <object id="851" gid="1778" x="6016" y="352" width="32" height="32"/>
  <object id="852" gid="1778" x="6048" y="352" width="32" height="32"/>
  <object id="853" gid="1778" x="6080" y="352" width="32" height="32"/>
  <object id="854" gid="1778" x="6112" y="384" width="32" height="32"/>
  <object id="855" gid="1778" x="6144" y="416" width="32" height="32"/>
  <object id="939" gid="1778" x="7616" y="448" width="32" height="32"/>
  <object id="940" gid="1778" x="7648" y="448" width="32" height="32"/>
  <object id="941" gid="1778" x="7680" y="480" width="32" height="32"/>
  <object id="942" gid="1778" x="7712" y="512" width="32" height="32"/>
  <object id="943" gid="1778" x="7584" y="448" width="32" height="32"/>
  <object id="944" gid="1778" x="7552" y="480" width="32" height="32"/>
  <object id="945" gid="1778" x="7520" y="512" width="32" height="32"/>
  <object id="948" gid="1778" x="7936" y="448" width="32" height="32"/>
  <object id="949" gid="1778" x="7968" y="448" width="32" height="32"/>
  <object id="950" gid="1778" x="8032" y="448" width="32" height="32"/>
  <object id="951" gid="1778" x="8000" y="448" width="32" height="32"/>
  <object id="952" gid="1778" x="8064" y="448" width="32" height="32"/>
  <object id="953" gid="1778" x="8096" y="448" width="32" height="32"/>
  <object id="954" gid="1778" x="7936" y="480" width="32" height="32"/>
  <object id="955" gid="1778" x="7968" y="480" width="32" height="32"/>
  <object id="956" gid="1778" x="8032" y="480" width="32" height="32"/>
  <object id="957" gid="1778" x="8000" y="480" width="32" height="32"/>
  <object id="958" gid="1778" x="8064" y="480" width="32" height="32"/>
  <object id="959" gid="1778" x="8096" y="480" width="32" height="32"/>
  <object id="960" gid="1778" x="8736" y="384" width="32" height="32"/>
  <object id="961" gid="1778" x="8768" y="352" width="32" height="32"/>
  <object id="962" gid="1778" x="8800" y="320" width="32" height="32"/>
  <object id="963" gid="1778" x="8832" y="320" width="32" height="32"/>
  <object id="964" gid="1778" x="8864" y="320" width="32" height="32"/>
  <object id="965" gid="1778" x="8896" y="352" width="32" height="32"/>
  <object id="966" gid="1778" x="8928" y="384" width="32" height="32"/>
 </objectgroup>
 <objectgroup id="21" name="Enemigos">
  <object id="699" name="Goomba" gid="1798" x="2048" y="640" width="30" height="30"/>
  <object id="700" name="Goomba" gid="1798" x="1696" y="640" width="30" height="30"/>
  <object id="703" name="Goomba" gid="1798" x="1664" y="448" width="30" height="30"/>
  <object id="704" name="Goomba" gid="1798" x="2048" y="448" width="30" height="30"/>
  <object id="705" name="Goomba" gid="1798" x="1856" y="544" width="30" height="30"/>
  <object id="723" name="Koopa" gid="1777" x="4320" y="480" width="41" height="60"/>
  <object id="814" name="Goomba" gid="1798" x="5248" y="576" width="30" height="30"/>
  <object id="815" name="Goomba" gid="1798" x="5056" y="576" width="30" height="30"/>
  <object id="816" name="Koopa" gid="1777" x="6560" y="480" width="41" height="60"/>
  <object id="817" name="Koopa" gid="1777" x="6528" y="480" width="41" height="60"/>
  <object id="932" name="Koopa" gid="1777" x="7616" y="576" width="41" height="60"/>
  <object id="935" name="Goomba" gid="1798" x="8032" y="576" width="30" height="30"/>
  <object id="937" name="Goomba" gid="1798" x="8256" y="576" width="30" height="30"/>
  <object id="970" name="Goomba" gid="1798" x="8416" y="576" width="30" height="30"/>
 </objectgroup>
 <objectgroup id="14" name="PauseBlocks"/>
 <objectgroup id="19" name="Pinchos">
  <object id="513" gid="372" x="672" y="672" width="32" height="32"/>
  <object id="514" gid="372" x="704" y="672" width="32" height="32"/>
  <object id="515" gid="372" x="736" y="672" width="32" height="32"/>
  <object id="516" gid="372" x="768" y="672" width="32" height="32"/>
  <object id="517" gid="372" x="800" y="672" width="32" height="32"/>
 </objectgroup>
 <objectgroup id="16" name="FallOffs"/>
 <objectgroup id="18" name="CaminoMonedas"/>
 <objectgroup id="17" name="Impulsos"/>
 <objectgroup id="13" name="Bloques"/>
 <objectgroup id="25" name="ApareceJefe">
  <object id="727" gid="1252" x="1248" y="672" width="32" height="32"/>
  <object id="728" gid="1252" x="1728" y="672" width="32" height="32"/>
  <object id="730" gid="1252" x="2304" y="672" width="32" height="32"/>
  <object id="848" gid="1252" x="5792" y="640" width="32" height="32"/>
  <object id="856" gid="1252" x="832" y="704" width="32" height="32"/>
  <object id="857" gid="1252" x="2880" y="608" width="32" height="32"/>
  <object id="858" gid="1252" x="5728" y="672" width="32" height="32"/>
  <object id="967" gid="1252" x="7360" y="736" width="32" height="32"/>
  <object id="968" gid="1252" x="7808" y="608" width="32" height="32"/>
  <object id="969" gid="1252" x="8512" y="608" width="32" height="32"/>
 </objectgroup>
 <objectgroup id="20" name="OneWays">
  <object id="523" gid="1249" x="1248" y="576" width="32" height="32"/>
  <object id="524" gid="1250" x="1280" y="576" width="32" height="32"/>
  <object id="527" gid="1250" x="1376" y="576" width="32" height="32"/>
  <object id="528" gid="1251" x="1408" y="576" width="32" height="32"/>
  <object id="533" gid="1249" x="1248" y="480" width="32" height="32"/>
  <object id="534" gid="1250" x="1280" y="480" width="32" height="32"/>
  <object id="537" gid="1250" x="1376" y="480" width="32" height="32"/>
  <object id="538" gid="1251" x="1408" y="480" width="32" height="32"/>
  <object id="539" gid="1249" x="1248" y="672" width="32" height="32"/>
  <object id="540" gid="1250" x="1280" y="672" width="32" height="32"/>
  <object id="543" gid="1250" x="1376" y="672" width="32" height="32"/>
  <object id="544" gid="1251" x="1408" y="672" width="32" height="32"/>
  <object id="545" gid="1249" x="1440" y="576" width="32" height="32"/>
  <object id="546" gid="1250" x="1472" y="576" width="32" height="32"/>
  <object id="549" gid="1250" x="1568" y="576" width="32" height="32"/>
  <object id="550" gid="1251" x="1600" y="576" width="32" height="32"/>
  <object id="551" gid="1249" x="1440" y="480" width="32" height="32"/>
  <object id="552" gid="1250" x="1472" y="480" width="32" height="32"/>
  <object id="555" gid="1250" x="1568" y="480" width="32" height="32"/>
  <object id="556" gid="1251" x="1600" y="480" width="32" height="32"/>
  <object id="557" gid="1249" x="1440" y="672" width="32" height="32"/>
  <object id="558" gid="1250" x="1472" y="672" width="32" height="32"/>
  <object id="561" gid="1250" x="1568" y="672" width="32" height="32"/>
  <object id="562" gid="1251" x="1600" y="672" width="32" height="32"/>
  <object id="563" gid="1249" x="1632" y="576" width="32" height="32"/>
  <object id="564" gid="1250" x="1664" y="576" width="32" height="32"/>
  <object id="567" gid="1250" x="1760" y="576" width="32" height="32"/>
  <object id="568" gid="1251" x="1792" y="576" width="32" height="32"/>
  <object id="569" gid="1249" x="1632" y="480" width="32" height="32"/>
  <object id="570" gid="1250" x="1664" y="480" width="32" height="32"/>
  <object id="573" gid="1250" x="1760" y="480" width="32" height="32"/>
  <object id="574" gid="1251" x="1792" y="480" width="32" height="32"/>
  <object id="575" gid="1249" x="1632" y="672" width="32" height="32"/>
  <object id="576" gid="1250" x="1664" y="672" width="32" height="32"/>
  <object id="579" gid="1250" x="1760" y="672" width="32" height="32"/>
  <object id="580" gid="1251" x="1792" y="672" width="32" height="32"/>
  <object id="641" gid="639" x="2048" y="672" width="32" height="32"/>
  <object id="643" gid="1249" x="1824" y="576" width="32" height="32"/>
  <object id="644" gid="1250" x="1856" y="576" width="32" height="32"/>
  <object id="647" gid="1250" x="1952" y="576" width="32" height="32"/>
  <object id="648" gid="1251" x="1984" y="576" width="32" height="32"/>
  <object id="649" gid="1249" x="1824" y="480" width="32" height="32"/>
  <object id="650" gid="1250" x="1856" y="480" width="32" height="32"/>
  <object id="653" gid="1250" x="1952" y="480" width="32" height="32"/>
  <object id="654" gid="1251" x="1984" y="480" width="32" height="32"/>
  <object id="655" gid="1249" x="1824" y="672" width="32" height="32"/>
  <object id="656" gid="1250" x="1856" y="672" width="32" height="32"/>
  <object id="659" gid="1250" x="1952" y="672" width="32" height="32"/>
  <object id="660" gid="1251" x="1984" y="672" width="32" height="32"/>
  <object id="661" gid="1249" x="2016" y="576" width="32" height="32"/>
  <object id="662" gid="1250" x="2048" y="576" width="32" height="32"/>
  <object id="665" gid="1250" x="2144" y="576" width="32" height="32"/>
  <object id="666" gid="1251" x="2176" y="576" width="32" height="32"/>
  <object id="667" gid="1249" x="2016" y="480" width="32" height="32"/>
  <object id="668" gid="1250" x="2048" y="480" width="32" height="32"/>
  <object id="671" gid="1250" x="2144" y="480" width="32" height="32"/>
  <object id="672" gid="1251" x="2176" y="480" width="32" height="32"/>
  <object id="673" gid="1249" x="2016" y="672" width="32" height="32"/>
  <object id="674" gid="1250" x="2048" y="672" width="32" height="32"/>
  <object id="677" gid="1250" x="2144" y="672" width="32" height="32"/>
  <object id="678" gid="1251" x="2176" y="672" width="32" height="32"/>
  <object id="679" gid="1249" x="2208" y="576" width="32" height="32"/>
  <object id="680" gid="1250" x="2240" y="576" width="32" height="32"/>
  <object id="684" gid="1251" x="2368" y="576" width="32" height="32"/>
  <object id="685" gid="1249" x="2208" y="480" width="32" height="32"/>
  <object id="686" gid="1250" x="2240" y="480" width="32" height="32"/>
  <object id="689" gid="1250" x="2336" y="480" width="32" height="32"/>
  <object id="690" gid="1251" x="2368" y="480" width="32" height="32"/>
  <object id="691" gid="1249" x="2208" y="672" width="32" height="32"/>
  <object id="692" gid="1250" x="2240" y="672" width="32" height="32"/>
  <object id="695" gid="1250" x="2336" y="672" width="32" height="32"/>
  <object id="696" gid="1251" x="2368" y="672" width="32" height="32"/>
  <object id="707" gid="1250" x="3584" y="576" width="32" height="32"/>
  <object id="709" gid="1251" x="3648" y="576" width="32" height="32"/>
  <object id="712" gid="639" x="9152" y="608" width="32" height="32"/>
  <object id="714" gid="1250" x="9152" y="608" width="32" height="32"/>
  <object id="715" gid="1251" x="9184" y="608" width="32" height="32"/>
  <object id="716" gid="1251" x="9216" y="608" width="32" height="32"/>
  <object id="717" gid="639" x="9280" y="608" width="32" height="32"/>
  <object id="719" gid="1250" x="9280" y="608" width="32" height="32"/>
  <object id="720" gid="1251" x="9312" y="608" width="32" height="32"/>
  <object id="721" gid="1251" x="9344" y="608" width="32" height="32"/>
  <object id="860" gid="1249" x="3552" y="576" width="32" height="32"/>
  <object id="867" gid="1250" x="3616" y="576" width="32" height="32"/>
  <object id="868" gid="1251" x="1312" y="480" width="32" height="32"/>
  <object id="869" gid="1251" x="1312" y="576" width="32" height="32"/>
  <object id="870" gid="1251" x="1312" y="672" width="32" height="32"/>
  <object id="871" gid="1251" x="1504" y="672" width="32" height="32"/>
  <object id="872" gid="1251" x="1696" y="672" width="32" height="32"/>
  <object id="873" gid="1251" x="1696" y="576" width="32" height="32"/>
  <object id="874" gid="1251" x="1696" y="480" width="32" height="32"/>
  <object id="875" gid="1251" x="1888" y="576" width="32" height="32"/>
  <object id="876" gid="1251" x="1888" y="672" width="32" height="32"/>
  <object id="877" gid="1251" x="1888" y="480" width="32" height="32"/>
  <object id="878" gid="1251" x="2080" y="576" width="32" height="32"/>
  <object id="879" gid="1251" x="2080" y="672" width="32" height="32"/>
  <object id="880" gid="1251" x="2080" y="480" width="32" height="32"/>
  <object id="881" gid="1251" x="2272" y="672" width="32" height="32"/>
  <object id="882" gid="1251" x="2272" y="576" width="32" height="32"/>
  <object id="883" gid="1251" x="2272" y="480" width="32" height="32"/>
  <object id="884" gid="1249" x="2112" y="672" width="32" height="32"/>
  <object id="885" gid="1249" x="2112" y="576" width="32" height="32"/>
  <object id="886" gid="1249" x="2304" y="576" width="32" height="32"/>
  <object id="887" gid="1250" x="2336" y="576" width="32" height="32"/>
  <object id="888" gid="1249" x="2304" y="480" width="32" height="32"/>
  <object id="889" gid="1249" x="2304" y="672" width="32" height="32"/>
  <object id="890" gid="1249" x="2112" y="480" width="32" height="32"/>
  <object id="891" gid="1249" x="1920" y="480" width="32" height="32"/>
  <object id="892" gid="1249" x="1920" y="576" width="32" height="32"/>
  <object id="893" gid="1249" x="1920" y="672" width="32" height="32"/>
  <object id="894" gid="1249" x="1728" y="672" width="32" height="32"/>
  <object id="895" gid="1249" x="1728" y="576" width="32" height="32"/>
  <object id="896" gid="1249" x="1728" y="480" width="32" height="32"/>
  <object id="897" gid="1249" x="1536" y="480" width="32" height="32"/>
  <object id="898" gid="1249" x="1536" y="576" width="32" height="32"/>
  <object id="899" gid="1249" x="1536" y="672" width="32" height="32"/>
  <object id="900" gid="1251" x="1504" y="576" width="32" height="32"/>
  <object id="901" gid="1251" x="1504" y="480" width="32" height="32"/>
  <object id="902" gid="1249" x="1344" y="672" width="32" height="32"/>
  <object id="903" gid="1249" x="1344" y="576" width="32" height="32"/>
  <object id="904" gid="1249" x="1344" y="480" width="32" height="32"/>
  <object id="906" gid="1249" x="9120" y="608" width="32" height="32"/>
  <object id="907" gid="1249" x="9248" y="608" width="32" height="32"/>
  <object id="908" gid="639" x="7616" y="512" width="32" height="32"/>
  <object id="909" gid="1250" x="7616" y="512" width="32" height="32"/>
  <object id="910" gid="1251" x="7648" y="512" width="32" height="32"/>
  <object id="911" gid="1249" x="7584" y="512" width="32" height="32"/>
  <object id="912" gid="639" x="7616" y="384" width="32" height="32"/>
  <object id="913" gid="1250" x="7616" y="384" width="32" height="32"/>
  <object id="914" gid="1251" x="7648" y="384" width="32" height="32"/>
  <object id="915" gid="1249" x="7584" y="384" width="32" height="32"/>
  <object id="917" gid="1250" x="7968" y="512" width="32" height="32"/>
  <object id="918" gid="1251" x="8000" y="512" width="32" height="32"/>
  <object id="919" gid="1249" x="7936" y="512" width="32" height="32"/>
  <object id="921" gid="1250" x="8416" y="512" width="32" height="32"/>
  <object id="922" gid="1251" x="8448" y="512" width="32" height="32"/>
  <object id="923" gid="1249" x="8384" y="512" width="32" height="32"/>
  <object id="924" gid="639" x="8416" y="384" width="32" height="32"/>
  <object id="925" gid="1250" x="8416" y="384" width="32" height="32"/>
  <object id="926" gid="1251" x="8448" y="384" width="32" height="32"/>
  <object id="927" gid="1249" x="8384" y="384" width="32" height="32"/>
  <object id="929" gid="1250" x="8064" y="512" width="32" height="32"/>
  <object id="930" gid="1251" x="8096" y="512" width="32" height="32"/>
  <object id="931" gid="1249" x="8032" y="512" width="32" height="32"/>
 </objectgroup>
 <layer id="1" name="CapaSuelo" width="296" height="26">
  <data encoding="csv">
0,0,0,0,0,0,0,0,0,0,0,0,0,0,0,0,0,0,0,0,0,0,0,0,0,0,0,0,0,0,0,0,0,0,0,0,0,0,0,0,0,0,0,0,0,0,0,0,0,0,0,0,0,0,0,0,0,0,0,0,0,0,0,0,0,0,0,0,0,0,0,0,0,0,0,0,0,0,0,0,0,0,0,0,0,0,0,0,0,0,0,0,0,0,0,0,0,0,0,0,0,0,0,0,0,0,0,0,0,0,0,0,0,0,0,0,0,0,0,0,0,0,0,0,0,0,0,0,0,0,0,0,0,0,0,0,0,0,0,0,0,0,0,0,0,0,0,0,0,0,0,0,0,0,0,0,0,0,0,0,0,0,0,0,0,0,0,0,0,0,0,0,0,0,0,0,0,0,0,0,0,0,0,0,0,0,0,0,0,0,0,0,0,0,0,0,0,0,0,0,0,0,0,0,0,0,0,0,0,0,0,0,0,0,0,0,0,0,0,0,0,0,0,0,0,0,0,0,0,0,0,0,0,0,0,0,0,0,0,0,0,0,0,0,0,0,0,0,0,0,0,0,0,0,0,0,0,0,0,0,0,0,0,0,0,0,0,0,0,0,0,0,0,0,0,0,0,0,0,0,0,0,0,0,0,0,0,0,0,0,0,0,0,0,0,0,
624,0,0,0,0,0,0,624,0,0,0,0,0,0,0,0,0,0,0,0,0,0,0,0,0,0,0,0,0,0,0,0,0,0,0,0,0,0,0,0,0,0,0,0,0,0,0,0,0,0,0,0,0,0,0,0,0,0,0,0,0,0,0,0,0,0,0,0,0,0,0,0,0,0,0,0,0,0,0,0,0,0,0,0,0,0,0,0,0,0,0,0,0,0,0,0,0,0,0,0,0,0,0,0,0,0,0,0,0,0,0,0,0,0,0,0,0,0,0,0,0,0,0,0,0,0,0,0,0,0,0,0,0,0,0,0,0,0,0,0,0,0,0,0,0,0,0,0,0,0,0,0,0,0,0,0,0,0,0,0,0,0,0,0,0,0,0,0,0,0,0,0,0,0,0,0,0,0,0,0,0,0,0,0,0,0,0,0,0,0,0,0,0,0,0,0,0,0,0,0,0,0,0,0,0,0,0,0,0,0,0,0,0,0,0,0,0,0,0,0,0,0,0,0,0,0,0,0,0,0,0,0,0,0,0,0,0,0,0,0,0,0,0,0,0,0,0,0,0,0,0,0,0,0,0,0,0,0,0,0,0,0,0,0,0,0,0,0,0,0,0,0,0,0,0,0,0,0,0,0,0,0,0,0,0,0,0,0,0,0,0,0,0,0,0,0,
624,624,624,624,624,624,624,624,0,0,0,0,0,0,0,0,0,0,0,0,0,0,0,0,0,0,0,0,0,0,0,0,0,0,0,0,0,0,0,0,0,0,0,0,0,0,0,0,0,0,0,0,0,0,0,0,0,0,0,0,0,0,0,0,0,0,0,0,0,0,0,0,0,0,0,0,0,0,0,0,0,0,0,0,0,0,0,0,0,0,0,0,0,0,0,0,0,0,0,0,0,0,0,0,0,0,0,0,0,0,0,0,0,0,0,0,0,0,0,0,0,0,0,0,0,0,0,0,0,0,0,0,0,0,0,0,0,0,0,0,0,0,0,0,0,0,0,0,0,0,0,0,0,0,0,0,0,0,0,0,0,0,0,0,0,0,0,0,0,0,0,0,0,0,0,0,0,0,0,0,0,0,0,0,0,0,0,0,0,0,0,0,0,0,0,0,0,0,0,0,0,0,0,0,0,0,0,0,0,0,0,0,0,0,0,0,0,0,0,0,0,0,0,0,0,0,0,0,0,0,0,0,0,0,0,0,0,0,0,0,0,0,0,0,0,0,0,0,0,0,0,0,0,0,0,0,0,0,0,0,0,0,0,0,0,0,0,0,0,0,0,0,0,0,0,0,0,0,0,0,0,0,0,0,0,0,0,0,0,0,0,0,0,0,0,0,
624,624,629,630,631,632,624,624,0,0,0,0,0,0,0,0,0,0,0,0,0,0,0,0,0,0,0,0,0,0,0,0,0,0,0,0,0,0,0,0,0,0,0,0,0,0,0,0,0,0,0,0,0,0,0,0,0,0,0,0,0,0,0,0,0,0,0,0,0,0,0,0,0,0,0,0,0,0,0,0,0,0,0,0,0,0,0,0,0,0,0,0,0,0,0,0,0,0,0,0,0,0,0,0,0,0,0,0,0,0,0,0,0,0,0,0,0,0,0,0,0,0,0,0,0,0,0,0,0,0,0,0,0,0,0,0,0,0,0,0,0,0,0,0,0,0,0,0,0,0,0,0,0,0,0,0,0,0,0,0,0,0,0,0,0,0,0,0,0,0,0,0,0,0,0,0,0,0,0,0,0,0,0,0,0,0,0,0,0,0,0,0,0,0,0,0,0,0,0,0,0,0,0,0,0,0,0,0,0,0,0,0,0,0,0,0,0,0,0,0,0,0,0,0,0,0,0,0,0,0,0,0,0,0,0,0,0,0,0,0,0,0,0,0,0,0,0,0,0,0,0,0,0,0,0,0,0,0,0,0,0,0,0,0,0,0,0,0,0,0,0,0,0,0,0,0,0,0,0,0,0,0,0,0,0,0,0,0,0,0,0,0,0,0,0,0,
624,622,0,0,0,0,623,624,0,0,0,0,0,0,0,0,0,0,0,0,0,0,0,0,0,0,0,0,0,0,0,0,0,0,0,0,0,0,0,0,0,0,0,0,0,0,0,0,0,0,0,0,0,0,0,0,0,0,0,0,0,0,0,0,0,0,0,0,0,0,0,0,0,0,0,0,0,0,0,0,0,0,0,0,0,0,0,0,0,0,0,0,0,0,0,0,0,0,0,0,0,0,0,0,0,0,0,0,0,0,0,0,0,0,0,0,0,0,0,0,0,0,0,0,0,0,0,0,0,0,0,0,0,0,0,0,0,0,0,0,0,0,0,0,0,0,0,0,0,0,0,0,0,0,0,0,0,0,0,0,0,0,0,0,0,0,0,0,0,0,0,0,0,0,0,0,0,0,0,0,0,0,0,0,0,0,0,0,0,0,0,0,0,0,0,0,0,0,0,0,0,0,0,0,0,0,0,0,0,0,0,0,0,0,0,0,0,0,0,0,0,0,0,0,0,0,0,0,0,0,0,0,0,0,0,0,0,0,0,0,0,0,0,0,0,0,0,0,0,0,0,0,0,0,0,0,0,0,0,0,0,0,0,0,0,0,0,0,0,0,0,0,0,0,0,0,0,0,0,0,0,0,0,0,0,0,0,0,0,0,0,0,0,0,0,0,
624,0,0,0,0,0,0,0,0,0,0,0,0,0,0,0,0,0,0,0,0,0,0,0,0,0,0,0,0,0,0,0,0,0,0,0,0,0,0,0,0,0,0,0,0,0,0,0,0,0,0,0,0,0,0,0,0,0,0,0,0,0,0,0,0,0,0,0,0,0,0,0,0,0,0,0,0,0,0,0,0,0,0,0,0,0,0,0,0,0,0,0,0,0,0,0,0,0,0,0,0,0,0,0,0,0,0,0,0,0,0,0,0,0,0,0,0,0,0,0,0,0,0,0,0,0,0,0,0,0,0,0,0,0,0,0,0,0,0,0,0,0,0,0,0,0,0,0,0,0,0,0,0,0,0,0,0,0,0,0,0,0,0,0,0,0,0,0,0,0,0,0,0,0,0,0,0,0,0,0,0,0,0,0,0,0,0,0,0,0,0,0,0,0,0,0,0,0,0,0,0,0,0,0,0,0,0,0,0,0,0,0,0,0,0,0,0,0,0,0,0,0,0,0,0,0,0,0,0,0,0,0,0,0,0,0,0,0,0,0,0,0,0,0,0,0,0,0,0,0,0,0,0,0,0,0,0,0,0,0,0,0,0,0,0,0,0,0,0,0,0,0,0,0,0,0,0,0,0,0,0,0,0,0,0,0,0,0,0,0,0,0,0,0,0,0,
0,0,0,0,0,0,0,0,0,0,0,0,0,0,0,0,0,0,0,0,0,0,0,0,0,0,0,0,0,0,0,0,0,0,0,0,0,0,0,0,0,0,0,0,0,0,0,0,0,0,0,0,0,0,0,0,0,0,0,0,0,0,0,0,0,0,0,0,0,0,0,0,0,0,0,0,0,0,0,0,0,0,0,0,0,0,0,0,0,0,0,0,0,0,0,0,0,0,0,0,0,0,0,0,0,0,0,0,0,0,0,0,0,0,0,0,0,0,0,0,0,0,0,0,0,0,0,0,0,0,0,0,0,0,0,0,0,0,0,0,0,0,0,0,0,0,0,0,0,0,0,0,0,0,0,0,0,0,0,0,0,0,0,0,0,0,0,0,0,0,0,0,0,0,0,0,0,0,0,0,0,0,0,0,0,0,0,0,0,0,0,0,0,0,0,0,0,0,0,0,0,0,0,0,0,0,0,0,0,0,0,0,0,0,0,0,0,0,0,0,0,0,0,0,0,0,0,0,0,0,0,0,0,0,0,0,0,0,0,0,0,0,0,0,0,0,0,0,0,0,0,0,0,0,0,0,0,0,0,0,0,0,0,0,0,0,0,0,0,0,0,0,0,0,0,0,0,0,0,0,0,0,0,0,0,0,0,0,0,0,0,0,0,0,0,0,
0,0,0,0,0,0,0,0,0,0,0,0,0,0,0,0,0,0,0,0,0,0,0,0,0,0,0,0,0,0,0,0,0,0,0,0,0,0,0,0,0,0,0,0,0,0,0,0,0,0,0,0,0,0,0,0,0,0,0,0,0,0,0,0,0,0,0,0,0,0,0,0,0,0,0,0,0,0,0,0,0,0,0,0,0,0,0,0,0,0,0,0,0,0,0,0,0,0,0,0,0,0,0,0,0,0,0,0,0,0,0,0,0,0,0,0,0,0,0,0,0,0,0,0,0,0,0,0,0,0,0,0,0,0,0,0,0,0,0,0,0,0,0,0,0,0,0,0,0,0,0,0,0,0,0,0,0,0,0,0,0,0,0,0,0,0,0,0,0,0,0,0,0,0,0,0,0,0,0,0,0,0,0,0,0,0,0,0,0,0,0,0,0,0,0,0,0,0,0,0,0,0,0,0,0,0,0,0,0,0,0,0,0,0,0,0,0,0,0,0,0,0,0,0,0,0,0,0,0,0,0,0,0,0,0,0,0,0,0,0,0,0,0,0,0,0,0,0,0,0,0,0,0,0,0,0,0,0,0,0,0,0,0,0,0,0,0,0,0,0,0,0,0,0,0,0,0,0,0,0,0,0,0,0,0,0,0,0,0,0,0,0,0,0,0,0,
0,0,0,0,0,0,0,0,0,0,0,0,0,0,0,0,0,0,0,0,0,0,0,0,0,0,0,0,0,0,0,0,0,0,0,0,0,0,0,0,0,0,0,0,0,0,0,0,0,0,0,0,0,0,0,0,0,0,0,0,0,0,0,0,0,0,0,0,0,0,0,0,0,0,0,0,0,0,0,0,0,0,0,0,0,0,0,0,0,0,0,0,0,0,0,0,0,0,0,0,0,0,0,0,0,0,0,0,0,0,0,0,0,0,0,0,0,0,0,0,0,0,0,0,0,0,0,0,0,0,0,0,0,0,0,0,0,0,0,0,0,0,0,0,0,0,0,0,0,0,0,0,0,0,0,0,0,0,0,0,0,0,0,0,0,0,0,0,0,0,0,0,0,0,0,0,0,0,0,0,0,0,0,0,0,0,0,0,0,0,0,0,0,0,0,0,0,0,0,0,0,0,0,0,0,0,0,0,0,0,0,0,0,0,0,0,0,0,0,0,0,0,0,0,0,0,0,0,0,0,0,0,0,0,0,0,0,0,0,0,0,0,0,0,0,0,0,0,0,0,0,0,0,0,0,0,0,0,0,0,0,0,0,0,0,0,0,0,0,0,0,0,0,0,0,0,0,0,0,0,0,0,0,0,0,0,0,0,0,0,0,0,0,0,0,0,
0,0,0,0,0,0,0,0,0,0,0,0,0,0,0,0,0,0,0,0,0,0,0,0,0,0,0,0,0,0,0,0,0,0,0,0,0,0,0,0,0,0,0,0,0,0,0,0,0,0,0,0,0,0,0,0,0,0,0,0,0,0,0,0,0,0,0,0,0,0,0,0,0,0,0,0,0,0,0,0,0,0,0,0,0,0,0,0,0,0,0,0,0,0,0,0,0,0,0,0,0,0,0,0,0,0,0,0,0,0,0,0,0,0,0,0,0,0,0,0,0,0,0,0,0,0,0,0,0,0,0,0,0,0,0,0,0,0,0,0,0,0,0,0,0,0,0,0,0,0,0,0,0,0,0,0,0,0,0,0,0,0,0,0,0,0,0,0,0,0,0,0,0,0,0,0,0,0,0,0,0,0,0,0,0,0,0,0,0,0,0,0,0,0,0,0,0,0,0,0,0,0,0,0,0,0,0,0,0,0,0,0,0,0,0,0,0,0,0,0,0,0,0,0,0,0,0,0,0,0,0,0,0,0,0,0,0,0,0,0,0,0,0,0,0,0,0,0,0,0,0,0,0,0,0,0,0,0,0,0,0,0,0,0,0,0,0,0,0,0,0,0,0,0,0,0,0,0,0,0,0,0,0,0,0,0,0,0,0,0,0,0,0,0,0,0,
0,0,0,0,0,0,0,0,0,0,0,0,0,0,0,0,0,0,0,0,0,0,0,0,0,0,0,0,0,0,0,0,0,0,0,0,0,0,0,0,0,0,0,0,0,0,0,0,0,0,0,0,0,0,0,0,0,0,0,0,0,0,0,0,0,0,0,0,0,0,0,0,0,0,0,0,0,0,0,0,0,0,0,0,0,0,0,0,0,0,0,0,0,0,0,0,0,0,0,0,0,0,0,0,0,0,0,0,0,0,0,0,0,0,0,0,0,0,0,0,0,0,0,0,0,0,0,0,0,0,0,0,0,0,0,0,0,0,0,0,0,0,0,0,0,0,0,0,0,0,0,0,0,0,0,0,0,0,0,0,0,0,0,0,0,0,0,0,0,0,0,0,0,0,0,0,0,0,0,0,0,0,0,0,0,0,0,0,0,0,0,0,0,0,0,0,0,0,0,0,0,0,0,0,0,0,0,0,0,0,0,0,0,0,0,0,0,0,0,0,0,0,0,0,0,0,0,0,0,0,0,0,0,0,0,0,0,0,0,0,0,0,0,0,0,0,0,0,0,0,0,0,0,0,0,0,0,0,0,0,0,0,0,0,0,0,0,0,0,0,0,0,0,0,0,0,0,0,0,0,0,0,0,0,0,0,0,0,0,0,0,0,0,0,0,0,
0,0,0,0,0,0,0,0,0,0,0,0,0,0,0,0,0,0,0,0,0,0,0,0,0,0,0,0,0,0,0,0,0,0,0,0,0,0,0,0,0,0,0,0,0,0,0,0,0,0,0,0,0,0,0,0,0,0,0,0,0,0,0,0,0,0,0,0,0,0,0,0,0,0,0,0,0,0,0,0,0,0,0,0,0,0,0,0,0,0,0,0,0,0,0,0,0,0,0,0,0,0,0,0,0,0,0,0,0,0,0,0,0,0,0,0,0,0,0,0,0,0,0,0,0,0,0,0,0,0,0,0,0,0,0,0,0,0,0,0,0,0,0,0,0,0,0,0,0,0,0,0,0,0,0,0,0,0,0,0,0,0,0,0,0,0,0,0,0,0,0,0,0,0,0,0,0,0,0,0,0,0,0,0,0,0,0,0,0,0,0,0,0,0,0,0,0,0,0,0,0,0,0,0,0,0,0,0,0,0,0,0,0,0,0,0,0,0,0,0,0,0,0,0,0,0,0,0,0,0,0,0,0,0,0,0,0,0,0,0,0,0,0,0,0,0,0,0,0,0,0,0,0,0,0,0,0,0,0,0,0,0,0,0,0,0,0,0,0,0,0,0,0,0,0,0,0,0,0,0,0,0,0,0,0,0,0,0,0,0,0,0,0,0,0,0,
0,0,0,0,0,0,0,0,0,0,0,0,0,0,0,0,0,0,0,0,0,0,0,0,0,0,0,0,0,0,0,0,0,0,0,0,0,0,0,0,0,0,0,0,0,0,0,0,0,0,0,0,0,0,0,0,0,0,0,0,0,0,0,0,0,0,0,0,0,0,0,0,0,0,0,0,0,0,0,0,0,0,0,0,0,0,0,0,0,0,0,0,0,0,0,0,0,0,0,0,0,0,0,0,0,0,0,0,0,0,0,0,0,0,0,0,0,0,0,0,0,0,0,0,0,0,0,0,0,0,0,0,0,0,0,0,0,0,0,0,0,0,0,0,0,0,0,0,0,0,0,0,0,0,0,0,0,0,0,0,0,0,0,0,0,0,0,0,0,0,0,0,0,0,0,0,0,0,0,0,0,0,0,0,0,0,0,0,0,0,0,0,0,0,0,0,0,0,0,0,0,0,0,0,0,0,0,0,0,0,0,0,0,0,0,0,0,0,0,0,0,0,0,0,0,0,0,0,0,0,0,0,0,0,0,0,0,0,0,0,0,0,0,0,0,0,0,0,0,0,0,0,0,0,0,0,0,0,0,0,0,0,0,0,0,0,0,0,0,0,0,0,0,0,0,0,0,0,0,0,0,0,0,0,0,0,0,0,0,0,0,0,0,0,0,0,
0,0,0,0,0,0,0,0,0,0,0,0,0,0,0,0,0,0,0,0,0,0,0,0,0,0,0,0,0,0,0,0,0,0,0,0,0,0,0,0,0,0,0,0,0,0,0,0,0,0,0,0,0,0,0,0,0,0,0,0,0,0,0,0,0,0,0,0,0,0,0,0,0,0,0,0,0,0,0,0,0,0,0,0,0,0,0,0,0,0,0,0,0,0,0,0,0,0,0,0,0,0,0,0,0,0,0,0,0,0,0,0,0,0,0,0,0,0,0,0,0,0,0,0,0,0,0,0,0,0,0,0,0,0,0,0,0,0,0,0,0,0,0,0,0,0,0,0,0,0,0,0,0,0,0,0,0,0,0,0,0,0,0,0,0,0,0,0,0,0,0,0,0,0,0,0,0,0,0,0,0,0,0,0,0,0,0,0,0,0,0,0,0,0,0,0,0,0,0,0,0,0,0,0,0,0,0,0,0,0,0,0,0,0,0,0,0,0,0,0,0,0,0,0,0,0,0,0,0,0,0,0,0,0,0,0,0,0,0,0,0,0,0,0,0,0,0,0,0,0,0,0,0,0,0,0,0,0,0,0,0,0,0,0,0,0,0,0,0,0,0,0,0,1155,1156,0,0,0,0,0,0,0,0,0,0,0,0,0,0,0,0,0,0,0,0,0,
0,0,0,0,0,0,0,0,0,0,0,0,0,0,0,0,0,0,0,0,0,0,0,0,0,0,0,0,0,0,0,0,0,0,0,0,0,0,0,0,0,0,0,0,0,0,0,0,0,0,0,0,0,0,0,0,0,0,0,0,0,0,0,0,0,0,0,0,0,0,0,0,0,0,0,0,0,0,0,0,0,0,0,0,0,0,0,0,0,0,0,0,0,0,0,0,0,0,0,0,0,0,0,0,0,0,0,0,0,0,0,0,0,0,0,0,0,0,0,0,0,0,0,0,0,0,0,0,0,0,0,0,0,0,0,0,0,0,0,0,0,0,0,0,0,0,0,0,0,0,0,0,0,0,0,0,0,0,0,0,0,0,0,0,0,0,0,0,0,0,0,0,0,0,0,0,0,0,0,0,0,0,0,0,0,0,1137,1138,0,0,0,0,0,0,0,0,0,0,0,0,0,0,0,0,0,0,0,0,0,0,0,0,0,0,0,0,0,0,0,0,0,0,0,0,0,0,0,0,0,0,0,0,0,0,0,0,0,0,0,0,0,0,0,0,0,0,0,0,0,0,0,0,0,0,0,0,0,0,0,0,0,0,0,0,0,0,0,0,0,0,0,0,1155,1115,1164,0,0,0,0,0,0,0,0,0,0,0,0,0,0,0,0,0,0,0,0,0,
0,0,0,0,0,0,0,0,0,0,0,0,0,0,0,0,0,0,0,0,0,0,0,0,0,0,0,0,0,0,0,0,0,0,0,0,0,0,0,0,0,0,0,0,0,0,0,0,0,0,0,0,0,0,0,0,0,0,0,0,0,0,0,0,0,0,0,0,0,0,0,0,0,0,0,0,0,0,0,0,0,0,0,0,0,0,0,0,0,0,0,0,0,0,0,0,0,0,0,0,0,0,0,0,0,0,0,0,0,0,0,0,0,0,0,0,0,624,624,624,624,624,624,624,624,624,624,624,624,624,624,624,624,624,624,624,624,624,624,624,624,624,624,624,624,624,624,624,0,0,0,0,0,0,0,0,0,0,0,0,0,0,0,0,0,0,0,0,0,0,0,0,0,0,0,0,0,0,0,0,0,0,0,0,0,1137,1145,1146,1138,0,0,0,1137,1138,0,0,0,0,0,1131,1132,1132,1184,1184,1184,1184,1184,1132,1132,1132,1133,0,0,0,0,1137,1138,0,0,0,0,0,0,0,0,0,0,0,0,0,0,0,0,0,0,0,0,0,0,0,0,0,0,0,0,0,0,0,0,0,0,0,0,0,0,0,0,0,0,0,0,0,0,0,0,0,0,0,0,0,0,1155,1115,1164,0,0,0,0,0,0,0,0,0,0,0,0,0,0,0,0,0,0,0,0,0,0,
0,0,0,0,0,0,0,0,0,0,0,0,0,0,0,0,0,0,0,0,0,0,0,0,0,0,0,0,0,0,0,0,0,0,0,0,0,0,0,0,0,0,0,0,0,0,0,0,0,0,0,0,0,0,0,0,0,0,0,0,0,0,0,0,0,0,0,0,0,0,0,0,0,0,0,0,0,0,0,0,0,0,0,0,0,0,0,0,0,0,0,0,0,0,0,0,0,0,0,0,0,0,0,0,0,0,0,0,0,0,0,0,0,0,0,0,0,624,624,624,624,624,624,624,624,624,624,624,624,624,624,624,624,624,624,624,624,624,624,624,624,624,624,624,624,624,624,624,0,0,0,1155,1140,0,0,0,0,0,0,0,0,0,0,0,0,0,0,0,0,1139,1156,0,0,0,0,0,0,0,0,0,0,0,0,0,1137,1145,1178,1154,1146,1138,0,0,1161,1146,1171,1172,0,0,0,0,0,0,0,0,0,0,0,0,0,0,0,0,0,1169,1170,1145,1162,0,0,0,0,0,0,0,0,0,0,0,0,0,0,0,0,0,0,0,0,0,0,0,0,0,0,0,0,0,0,0,0,0,0,0,0,0,0,0,0,0,0,0,0,0,0,0,0,0,0,0,0,0,1155,1115,1164,0,0,0,0,0,0,0,0,0,0,0,0,0,0,0,0,0,0,0,0,0,0,0,
0,0,0,0,0,0,0,0,0,0,0,0,0,0,0,0,0,0,0,0,0,0,0,0,0,0,0,0,0,0,0,0,0,0,0,0,0,0,0,0,0,0,0,0,0,0,0,0,0,0,0,0,0,0,0,0,0,0,0,0,0,0,0,0,0,0,0,0,0,0,0,0,0,0,0,0,0,0,0,0,0,0,0,0,0,0,0,0,0,0,0,0,0,0,0,0,0,0,0,0,0,1083,1203,1204,0,0,0,0,0,0,0,0,0,0,0,0,0,624,624,624,624,624,624,624,624,624,624,624,624,624,624,624,624,624,624,624,624,624,624,624,624,624,624,624,624,624,624,624,0,0,0,1163,1148,1156,0,0,0,0,0,0,0,0,0,0,0,0,0,0,1155,1147,1164,0,0,0,0,0,0,0,0,0,0,0,1169,1170,1145,1154,1154,1154,1154,1146,1138,0,0,1161,1179,1180,1138,0,0,0,0,0,0,0,0,0,0,0,0,0,0,0,1137,1177,1178,1162,0,0,0,0,0,0,0,0,0,0,0,0,0,0,0,0,0,0,0,0,0,0,0,0,0,0,0,0,0,0,0,0,0,0,0,0,0,0,0,0,0,0,0,0,0,0,0,0,0,0,0,0,0,1155,1115,1164,1140,0,0,0,0,0,0,0,0,0,0,0,0,0,0,0,0,0,0,0,0,0,0,0,
0,0,0,0,0,0,0,0,0,0,0,0,0,0,0,0,0,0,0,0,0,0,0,0,0,0,0,0,0,0,0,985,986,882,0,0,0,0,0,0,0,0,0,0,0,0,0,0,0,0,0,0,0,0,0,0,0,0,0,0,0,0,0,0,0,0,0,0,0,0,0,0,0,0,0,0,0,0,0,1083,1203,1204,0,0,0,0,0,0,0,0,1083,1203,1204,0,0,0,0,0,0,0,0,1118,1211,1212,1203,1204,0,0,1117,0,0,0,0,0,0,0,0,624,624,624,624,624,624,624,624,624,624,624,624,624,624,624,624,624,624,624,624,624,624,624,624,624,624,624,624,624,624,624,0,0,0,0,1163,1115,1115,1115,1115,1115,1115,1115,1115,1115,1115,1115,1115,1115,1115,1115,1115,1164,0,0,0,0,0,0,0,0,0,0,1169,1170,1177,1178,1154,1154,1154,1154,1154,1154,1162,0,0,0,0,1161,1146,1138,0,0,0,0,0,0,0,0,0,0,0,0,0,1137,1145,1162,0,0,0,0,0,0,0,0,0,881,923,922,923,922,923,922,922,924,922,922,924,922,922,923,923,922,948,922,923,924,923,924,922,923,924,922,922,922,922,924,923,924,923,922,924,923,924,924,923,923,923,922,882,0,1155,1115,1164,0,1148,1140,0,0,0,0,0,0,0,0,0,0,0,0,0,0,0,0,0,0,0,0,0,0,
0,0,0,0,0,0,0,0,0,0,0,0,0,0,0,0,0,0,0,0,0,0,0,0,0,0,0,0,0,985,986,993,927,896,0,0,0,0,0,0,0,0,0,0,0,0,0,0,0,0,0,0,0,0,0,0,0,0,0,0,0,0,0,0,0,0,0,0,0,0,0,0,0,0,0,0,0,0,0,1118,1211,1212,1203,1204,0,0,1117,0,0,0,1118,1211,1212,1203,1204,0,0,1117,0,0,0,1118,0,0,1211,1212,1203,1204,1118,0,0,0,0,0,0,0,0,624,624,624,624,624,624,624,624,624,624,624,624,624,624,624,624,624,624,624,624,624,624,624,624,624,624,624,624,624,624,624,0,0,0,0,0,1163,1115,1115,1115,1115,1115,1115,1115,1115,1115,1115,1115,1115,1115,1115,1164,0,0,0,0,0,0,0,0,0,1169,1170,1177,1178,1154,1154,1154,1154,1154,1154,1154,1162,0,0,0,0,0,0,1161,1146,1138,0,0,0,0,0,0,0,0,0,0,0,1137,1145,1162,0,0,0,0,0,0,0,0,881,922,1048,925,926,926,925,926,925,926,927,925,926,927,926,925,925,925,927,926,925,926,927,927,925,925,926,927,926,925,926,927,926,925,927,926,925,927,926,925,926,927,926,925,927,895,0,1163,1164,0,0,0,1148,1140,0,0,0,0,0,0,1083,1115,1082,0,0,0,0,0,0,0,0,0,0,0,0,
924,1045,1045,1045,923,1045,1045,923,923,924,924,924,923,922,1045,922,924,1045,1045,923,882,0,0,0,0,0,881,922,948,993,927,927,927,896,0,0,0,0,0,0,0,0,0,0,0,0,0,0,0,0,0,0,0,0,0,0,0,0,0,0,0,0,0,0,0,0,0,0,0,0,0,0,0,0,0,0,0,0,0,1118,0,0,1211,1212,1203,1204,1118,0,0,0,1118,0,0,1211,1212,1203,1204,1118,0,0,0,1118,0,0,0,0,1211,1212,1219,0,0,0,0,0,0,0,0,624,624,624,624,624,624,624,624,624,624,624,624,624,624,624,624,624,624,624,624,624,624,624,624,624,624,624,624,624,624,624,0,0,0,0,0,0,1163,1115,1115,1115,1115,1115,1115,1115,1115,1115,1115,1115,1115,1164,0,0,0,0,0,0,0,0,1169,1170,1177,1178,1154,1154,1154,1154,1154,1154,1154,1154,1162,0,0,0,0,0,0,0,0,1161,1146,1093,1093,1093,1093,1093,1093,1093,1093,1093,1093,1093,1145,1162,0,0,0,0,0,0,0,0,881,1048,925,927,927,927,925,926,926,925,926,925,925,925,925,927,926,927,926,927,926,925,926,925,927,925,927,927,927,925,927,927,927,927,925,926,926,926,927,925,926,926,927,927,926,925,894,0,0,0,0,0,0,0,1148,1140,0,0,0,1083,1082,1118,1118,1118,0,0,0,0,0,0,0,0,0,0,0,0,
927,927,927,926,926,925,926,925,927,926,927,927,927,925,925,926,925,925,925,926,962,1000,1000,1000,1000,1000,961,925,926,927,927,927,927,896,0,0,0,0,0,0,0,0,0,0,0,0,0,0,0,0,0,0,0,0,0,0,0,0,0,0,0,0,0,0,0,0,0,0,0,0,0,0,0,0,0,0,0,0,0,1087,0,0,0,0,1211,1212,1219,0,0,0,1118,0,0,0,0,1211,1212,1219,0,0,0,1118,0,0,0,0,0,0,1118,0,0,0,0,0,0,0,0,624,624,624,624,624,624,624,624,624,624,624,624,624,624,624,624,624,624,624,624,624,624,624,624,624,624,624,624,624,624,624,0,0,0,0,0,0,0,1163,1071,1071,1071,1071,1071,1071,1071,1071,1071,1071,1164,0,0,0,0,0,0,0,0,1137,1177,1178,1154,1154,1154,1154,1154,1154,1154,1154,1154,1162,0,0,0,0,0,0,0,0,0,0,1193,1194,1186,1186,1186,1186,1186,1186,1186,1186,1186,1195,1196,0,0,0,0,0,0,0,0,0,883,1023,889,889,928,889,914,928,890,890,890,914,889,914,889,889,889,889,928,914,890,890,890,914,889,928,889,914,890,928,928,914,889,928,928,889,890,889,914,928,890,889,889,914,890,1024,884,0,0,0,0,0,0,0,0,1148,1140,0,0,1118,1118,1118,1118,1118,0,0,0,0,0,0,0,0,0,0,0,0,
925,925,927,925,925,927,925,925,927,926,926,927,927,927,927,927,926,925,925,926,927,927,927,925,926,927,926,926,926,927,927,927,927,896,0,0,0,0,0,0,0,0,0,0,0,0,0,0,0,0,0,0,0,0,0,0,0,0,0,0,0,0,0,0,0,0,0,0,0,0,0,0,0,0,0,0,0,0,0,1087,0,0,0,0,0,0,1118,0,0,0,1118,0,0,0,0,0,0,1118,0,0,0,1118,0,0,0,0,0,0,1118,0,0,0,0,0,0,0,0,624,624,624,624,624,624,624,624,624,624,624,624,624,624,624,624,624,624,624,624,624,624,624,624,624,624,624,624,624,624,624,0,0,0,0,0,0,0,0,0,0,0,0,0,0,0,0,0,0,0,0,0,0,0,0,0,0,0,1145,0,0,0,0,0,0,0,0,0,0,1162,0,0,0,0,0,0,0,0,0,0,0,0,0,0,0,0,0,0,0,0,0,0,0,0,0,0,0,0,0,0,0,0,0,893,884,0,0,0,0,0,0,0,0,0,0,0,0,0,0,0,0,0,0,0,0,0,0,0,0,0,0,0,0,0,0,0,0,0,0,0,0,0,0,0,0,0,0,0,885,886,0,1147,0,0,0,0,0,0,0,1148,0,0,1118,1118,1118,1118,1118,0,0,0,0,0,0,0,0,0,0,0,0,
927,926,927,927,926,926,926,927,927,927,925,925,926,926,925,927,926,926,925,925,927,926,926,927,927,927,927,927,926,927,927,927,927,896,0,0,0,0,0,0,0,0,0,0,0,0,0,0,0,0,0,0,0,0,0,0,0,0,0,0,0,0,0,0,0,0,0,0,0,0,0,0,0,0,0,0,0,0,0,1118,0,0,0,0,0,0,1118,0,0,0,1118,0,0,0,0,0,0,1118,0,0,0,1118,0,0,0,0,0,0,1118,0,0,0,0,0,0,0,0,624,624,624,624,624,624,624,624,624,624,624,624,624,624,624,624,624,624,624,624,624,624,624,624,624,624,624,624,624,624,624,0,0,0,0,0,0,0,0,0,0,0,0,0,0,0,0,0,0,0,0,0,0,0,0,0,0,0,0,0,0,0,0,0,0,0,0,0,0,0,0,0,0,0,0,0,0,0,0,0,0,0,0,0,0,0,0,0,0,0,0,0,0,0,0,0,0,0,0,0,0,0,0,885,886,0,0,0,0,0,0,0,0,0,0,0,0,0,0,0,0,0,0,0,0,0,0,0,0,0,0,0,0,0,0,0,0,0,0,0,0,0,0,0,0,0,0,0,0,0,0,0,0,0,0,0,0,0,0,0,0,0,1118,1118,0,0,0,0,0,0,0,0,0,0,0,0,0,0,0,
925,925,926,925,926,926,925,925,926,927,927,926,926,926,925,925,926,927,926,927,926,927,925,926,927,925,927,925,926,927,927,927,927,896,0,0,0,0,0,0,0,0,0,0,0,0,0,0,0,0,0,0,0,0,0,0,0,0,0,0,0,0,0,0,0,0,0,0,0,0,0,0,0,0,0,0,0,0,0,1087,0,0,0,0,0,0,1087,0,0,0,1118,1115,1115,1115,1115,1115,1115,1088,0,0,0,1118,0,0,0,0,0,0,1118,0,0,0,0,0,0,0,0,624,624,624,624,624,624,624,624,624,624,624,624,624,624,624,624,624,624,624,624,624,624,624,624,624,624,624,624,624,624,624,0,0,0,0,0,0,0,0,0,0,0,0,0,0,0,0,0,0,0,0,0,0,0,0,0,0,0,0,0,0,0,0,0,0,0,0,0,0,0,0,0,0,0,0,0,0,0,0,0,0,0,0,0,0,0,0,0,0,0,0,0,0,0,0,0,0,0,0,0,0,0,0,0,0,0,0,0,0,0,0,0,0,0,0,0,0,0,0,0,0,0,0,0,0,0,0,0,0,0,0,0,0,0,0,0,0,0,0,0,0,0,0,0,0,0,0,0,0,0,0,0,0,0,0,0,0,0,0,0,0,0,1118,0,0,0,0,0,0,0,0,0,0,0,0,0,0,0,0,
925,927,925,925,925,925,927,927,926,925,925,926,926,926,927,927,926,927,927,927,925,925,927,927,925,925,925,925,926,927,927,927,927,896,0,0,0,0,0,0,0,0,0,0,0,0,0,0,0,0,0,0,0,0,0,0,0,0,0,0,0,0,0,0,0,0,0,0,0,0,0,0,0,0,0,0,0,0,0,1118,0,0,0,0,0,0,1118,0,0,0,1118,0,0,0,0,0,0,1118,0,0,0,1118,0,0,0,0,0,0,1118,0,0,0,0,0,0,0,0,624,624,624,624,624,624,624,624,624,624,624,624,624,624,624,624,624,624,624,624,624,624,624,624,624,624,624,624,624,624,624,0,0,0,0,0,0,0,0,0,0,0,0,0,0,0,0,0,0,0,0,0,0,0,0,0,0,0,0,0,0,0,0,0,0,0,0,0,0,0,0,0,0,0,0,0,0,0,0,0,0,0,0,0,0,0,0,0,0,0,0,0,0,0,0,0,0,0,0,0,0,0,0,0,0,0,0,0,0,0,0,0,0,0,0,0,0,0,0,0,0,0,0,0,0,0,0,0,0,0,0,0,0,0,0,0,0,0,0,0,0,0,0,0,0,0,0,0,0,0,0,0,0,0,0,0,0,0,0,0,0,0,0,0,0,1118,0,0,0,0,0,0,0,0,0,0,0,0,0
</data>
 </layer>
 <layer id="12" name="CapaFrente" width="296" height="26">
  <data encoding="csv">
0,0,0,0,0,0,0,0,0,0,0,0,0,0,0,0,0,0,0,0,0,0,0,0,0,0,0,0,0,0,0,0,0,0,0,0,0,0,0,0,0,0,0,0,0,0,0,0,0,0,0,0,0,0,0,0,0,0,0,0,0,0,0,0,0,0,0,0,0,0,0,0,0,0,0,0,0,0,0,0,0,0,0,0,0,0,0,0,0,0,0,0,0,0,0,0,0,0,0,0,0,0,0,0,0,0,0,0,0,0,0,0,0,0,0,0,0,0,0,0,0,0,0,0,0,0,0,0,0,0,0,0,0,0,0,0,0,0,0,0,0,0,0,0,0,0,0,0,0,0,0,0,0,0,0,0,0,0,0,0,0,0,0,0,0,0,0,0,0,0,0,0,0,0,0,0,0,0,0,0,0,0,0,0,0,0,0,0,0,0,0,0,0,0,0,0,0,0,0,0,0,0,0,0,0,0,0,0,0,0,0,0,0,0,0,0,0,0,0,0,0,0,0,0,0,0,0,0,0,0,0,0,0,0,0,0,0,0,0,0,0,0,0,0,0,0,0,0,0,0,0,0,0,0,0,0,0,0,0,0,0,0,0,0,0,0,0,0,0,0,0,0,0,0,0,0,0,0,0,0,0,0,0,0,0,0,0,0,0,0,616,0,0,0,0,0,
616,0,0,0,0,0,0,616,0,0,0,0,0,0,0,0,0,0,0,0,0,0,0,0,0,0,0,0,0,0,0,0,0,0,0,0,0,0,0,0,0,0,0,0,0,0,0,0,0,0,0,0,0,0,0,0,0,0,0,0,0,0,0,0,0,0,0,0,0,0,0,0,0,0,0,0,0,0,0,0,0,0,0,0,0,0,0,0,0,0,0,0,0,0,0,0,0,0,0,0,0,0,0,0,0,0,0,0,0,0,0,0,0,0,0,0,0,608,0,0,0,0,608,0,0,0,0,608,0,0,0,0,608,0,0,0,0,608,0,0,0,0,608,0,0,0,0,608,0,0,0,0,0,0,0,0,0,0,0,0,0,0,0,0,0,0,0,0,0,0,0,0,0,0,0,0,0,0,0,0,0,0,0,0,0,0,0,0,0,0,0,0,0,0,0,0,0,0,0,0,0,0,0,0,0,0,0,0,0,0,0,0,0,0,0,0,0,0,0,0,0,0,0,0,0,0,0,0,0,0,0,0,0,0,0,0,0,0,0,0,0,0,0,0,0,0,0,0,0,0,0,0,0,0,0,0,0,0,0,0,0,0,0,0,0,0,0,0,0,0,0,0,0,0,0,0,0,0,0,0,0,0,0,0,0,0,0,0,0,0,576,0,0,0,0,0,
576,0,0,0,0,0,0,576,0,0,0,0,0,0,0,0,0,0,0,0,0,0,0,0,0,0,0,0,0,0,0,0,0,0,0,0,0,0,0,0,0,0,0,0,0,0,0,0,0,0,0,0,0,0,0,0,0,0,0,0,0,0,0,0,0,0,0,0,0,0,0,0,0,0,0,0,0,0,0,0,0,0,0,0,0,0,0,0,0,0,0,0,0,0,0,0,0,0,0,0,0,0,0,0,0,0,0,0,0,0,0,0,0,0,0,0,0,616,0,0,0,0,616,0,0,0,0,616,0,0,0,0,616,0,0,0,0,616,0,0,0,0,616,0,0,0,0,616,0,0,0,0,0,0,0,0,0,0,0,0,0,0,0,0,0,0,0,0,0,0,0,0,0,0,0,0,0,0,0,0,0,0,0,0,0,0,0,0,0,0,0,0,0,0,0,0,0,0,0,0,0,0,0,0,0,0,0,0,0,0,0,0,0,0,0,0,0,0,0,0,0,0,0,0,0,0,0,0,0,0,0,0,0,0,0,0,0,0,0,0,0,0,0,0,0,0,0,0,0,0,0,0,0,0,0,0,0,0,0,0,0,0,0,0,0,0,0,0,0,0,0,0,0,0,0,0,0,0,0,0,0,0,0,0,0,0,0,0,0,0,584,0,0,0,0,0,
584,0,0,0,0,0,0,584,0,0,0,0,0,0,0,0,0,0,0,0,0,0,0,0,0,0,0,0,0,0,0,0,0,0,0,0,0,0,0,0,0,0,0,0,0,0,0,0,0,0,0,0,0,0,0,0,0,0,0,0,0,0,0,0,0,0,0,0,0,0,0,0,0,0,0,0,0,0,0,0,0,0,0,0,0,0,0,0,0,0,0,0,0,0,0,0,0,0,0,0,0,0,0,0,0,0,0,0,0,0,0,0,0,0,0,0,0,576,0,0,0,0,576,0,576,0,0,576,0,0,0,0,576,0,0,0,0,576,0,0,0,0,576,0,0,0,0,576,0,0,0,0,0,0,0,0,0,0,0,0,0,0,0,0,0,0,0,0,0,0,0,0,0,0,0,0,0,0,0,0,0,0,0,0,0,0,0,0,0,0,0,0,0,0,0,0,0,0,0,0,0,0,0,0,0,0,0,0,0,0,0,0,0,0,0,0,0,0,0,0,0,0,0,0,0,0,0,0,0,0,0,0,0,0,0,0,0,0,0,0,0,0,0,0,0,0,0,0,0,0,0,0,0,0,0,0,0,0,0,0,0,0,0,0,0,0,0,0,0,0,0,0,0,0,0,0,0,0,0,0,0,0,0,0,0,0,0,0,0,0,592,0,0,0,0,0,
592,0,0,0,0,0,0,592,0,0,0,0,0,0,0,0,0,0,0,0,0,0,0,0,0,0,0,0,0,0,0,0,0,0,0,0,0,0,0,0,0,0,0,0,0,0,0,0,0,0,0,0,0,0,0,0,0,0,0,0,0,0,0,0,0,0,0,0,0,0,0,0,0,0,0,0,0,0,0,0,0,0,0,0,0,0,0,0,0,0,0,0,0,0,0,0,0,0,0,0,0,0,0,0,0,0,0,0,0,0,0,0,0,0,0,0,0,584,0,0,0,584,584,0,0,0,0,584,0,0,0,0,584,0,0,0,0,584,0,0,0,0,584,0,0,0,0,584,0,0,0,0,0,0,0,0,0,0,0,0,0,0,0,0,0,0,0,0,0,0,0,0,0,0,0,0,0,0,0,0,0,0,0,0,0,0,0,0,0,0,0,0,0,0,0,0,0,0,0,0,0,0,0,0,0,0,0,0,0,0,0,0,0,0,0,0,0,0,0,0,0,0,0,0,0,0,0,0,0,0,0,0,0,0,0,0,0,0,0,0,0,0,0,0,0,0,0,0,0,0,0,0,0,0,0,0,0,0,0,0,0,0,0,0,0,0,0,0,0,0,0,0,0,0,0,0,0,0,0,0,0,0,0,0,0,0,0,0,0,0,600,0,0,0,0,0,
600,0,0,0,0,0,0,600,0,0,0,0,0,0,0,0,0,0,0,0,0,0,0,0,0,0,0,0,0,0,0,0,0,0,0,0,0,0,0,0,0,0,0,0,0,0,0,0,0,0,0,0,0,0,0,0,0,0,0,0,0,0,0,0,0,0,0,0,0,0,0,0,0,0,0,0,0,0,0,0,0,0,0,0,0,0,0,0,0,0,0,0,0,0,0,0,0,0,0,0,0,0,0,0,0,0,0,0,0,0,0,0,0,0,0,0,0,592,624,624,624,624,592,624,624,624,624,592,624,624,624,624,592,624,624,624,624,592,624,624,624,624,592,624,624,624,624,592,0,0,0,0,0,0,0,0,0,0,0,0,0,0,0,0,0,0,0,0,0,0,0,0,0,0,0,0,0,0,0,0,0,0,0,0,0,0,0,0,0,0,0,0,0,0,0,0,0,0,0,0,0,0,0,0,0,0,0,0,0,0,0,0,0,0,0,0,0,0,0,0,0,0,0,0,0,0,0,0,0,0,0,0,0,0,0,0,0,0,0,0,0,0,0,0,0,0,0,0,0,0,0,0,0,0,0,0,0,0,0,0,0,0,0,0,0,0,0,0,0,0,0,0,0,0,0,0,0,0,0,0,0,0,0,0,0,0,0,0,0,0,608,0,0,0,0,0,
608,0,0,0,0,0,0,608,0,0,0,0,0,0,0,0,0,0,0,0,0,0,0,0,0,0,0,0,0,0,0,0,0,0,0,0,0,0,0,0,0,0,0,0,0,0,0,0,0,0,0,0,0,0,0,0,0,0,0,0,0,0,0,0,0,0,0,0,0,0,0,0,0,0,0,0,0,0,0,0,0,0,0,0,0,0,0,0,0,0,0,0,0,0,0,0,0,0,0,0,0,0,0,0,0,0,0,0,0,0,0,0,0,0,0,0,0,600,624,624,624,624,600,624,624,624,624,600,624,624,624,624,600,624,624,624,624,600,624,624,624,624,600,624,624,624,624,600,0,0,0,0,0,0,0,0,0,0,0,0,0,0,0,0,0,0,0,0,0,0,0,0,0,0,0,0,0,0,0,0,0,0,0,0,0,0,0,0,0,0,0,0,0,0,0,0,0,0,0,0,0,0,0,0,0,0,0,0,0,0,0,0,0,0,0,0,0,0,0,0,0,0,0,0,0,0,0,0,0,0,0,0,0,0,0,0,0,0,0,0,0,0,0,0,0,0,0,0,0,0,0,0,0,0,0,0,0,0,0,0,0,0,0,0,0,0,0,0,0,0,0,0,0,0,0,0,0,0,0,0,0,0,0,0,0,0,0,0,0,0,616,0,0,0,0,0,
616,0,0,0,0,0,0,616,0,0,0,0,0,0,0,0,0,0,0,0,0,0,0,0,0,0,0,0,0,0,0,0,0,0,0,0,0,0,0,0,0,0,0,0,0,0,0,0,0,0,0,0,0,0,0,0,0,0,0,0,0,0,0,0,0,0,0,0,0,0,0,0,0,0,0,0,0,0,0,0,0,0,0,0,0,0,0,0,0,0,0,0,0,0,0,0,0,0,0,0,0,0,0,0,0,0,0,0,0,0,0,0,0,0,0,0,0,608,624,624,624,624,608,624,624,624,624,608,624,624,624,624,608,624,624,624,624,608,624,624,624,624,608,624,624,624,624,608,0,0,0,0,0,0,0,0,0,0,0,0,0,0,0,0,0,0,0,0,0,0,0,0,0,0,0,0,0,0,0,0,0,0,0,0,0,0,0,0,0,0,0,0,0,0,0,0,0,0,0,0,0,0,0,0,0,0,0,0,0,0,0,0,0,0,0,0,0,0,0,0,0,0,0,0,0,0,0,0,0,0,0,0,0,0,0,0,0,0,0,0,0,0,0,0,0,0,0,0,0,0,0,0,0,0,0,0,0,0,0,0,0,0,0,0,0,0,0,0,0,0,0,0,0,0,0,0,0,0,0,0,0,0,0,0,0,0,0,0,0,0,576,0,0,0,0,0,
576,0,0,0,0,0,0,576,0,0,0,0,0,0,0,0,0,0,0,0,0,0,0,0,0,0,0,0,0,0,0,0,0,0,0,0,0,0,0,0,0,0,0,0,0,0,0,0,0,0,0,0,0,0,0,0,0,0,0,0,0,0,0,0,0,0,0,0,0,0,0,0,0,0,0,0,0,0,0,0,0,0,0,0,0,0,0,0,0,0,0,0,0,0,0,0,0,0,0,0,0,0,0,0,0,0,0,0,0,0,0,0,0,0,0,0,0,616,624,624,624,624,616,624,624,624,624,616,624,624,624,624,616,624,624,624,624,616,624,624,624,624,616,624,624,624,624,616,0,0,0,0,0,0,0,0,0,0,0,0,0,0,0,0,0,0,0,0,0,0,0,0,0,0,0,0,0,0,0,0,0,0,0,0,0,0,0,0,0,0,0,0,0,0,0,0,0,0,0,0,0,0,0,0,0,0,0,0,0,0,0,0,0,0,0,0,0,0,0,0,0,0,0,0,0,0,0,0,0,0,0,0,0,0,0,0,0,0,0,0,0,0,0,0,0,0,0,0,0,0,0,0,0,0,0,0,0,0,0,0,0,0,0,0,0,0,0,0,0,0,0,0,0,0,0,0,0,0,0,0,0,0,0,0,0,0,0,0,0,0,592,0,0,0,0,0,
584,0,0,0,0,0,0,584,0,0,0,0,0,0,0,0,0,0,0,0,0,0,0,0,0,0,0,0,0,0,0,0,0,0,0,0,0,0,0,0,0,0,0,0,0,0,0,0,0,0,0,0,0,0,0,0,0,0,0,0,0,0,0,0,0,0,0,0,0,0,0,0,0,0,0,0,0,0,0,0,0,0,0,0,0,0,0,0,0,0,0,0,0,0,0,0,0,0,0,0,0,0,0,0,0,0,0,0,0,0,0,0,0,0,0,0,0,576,629,630,631,632,576,629,630,631,632,576,629,630,631,632,576,629,630,631,632,576,629,630,631,632,576,629,630,631,632,576,0,0,0,0,0,0,0,0,0,0,0,0,0,0,0,0,0,0,0,0,0,0,0,0,0,0,0,0,0,0,0,0,0,0,0,0,0,0,0,0,0,0,0,0,0,0,0,0,0,0,0,0,0,0,0,0,0,0,0,0,0,0,0,0,0,0,0,0,0,0,0,0,0,0,0,0,0,0,0,0,0,0,0,0,0,0,0,0,0,0,0,0,0,0,0,0,0,0,0,0,0,0,0,0,0,0,0,0,0,0,0,0,0,0,0,0,0,0,0,0,0,0,0,0,0,0,0,0,0,0,0,0,0,0,0,0,0,0,0,0,0,0,600,0,0,0,0,0,
592,0,0,0,0,0,0,592,0,0,0,0,0,0,0,0,0,0,0,0,0,0,0,0,0,0,0,0,0,0,0,0,0,0,0,0,0,0,0,0,0,0,0,0,0,0,0,0,0,0,0,0,0,0,0,0,0,0,0,0,0,0,0,0,0,0,0,0,0,0,0,0,0,0,0,0,0,0,0,0,0,0,0,0,0,0,0,0,0,0,0,0,0,0,0,0,0,0,0,0,0,0,0,0,0,0,0,0,0,0,0,0,0,0,0,0,0,584,0,0,0,0,584,0,0,0,0,584,0,0,0,0,584,0,0,0,0,584,0,0,0,0,584,0,0,0,0,584,0,0,0,0,0,0,0,0,0,0,0,0,0,0,0,0,0,0,0,0,0,0,0,0,0,0,0,0,0,0,0,0,0,0,0,0,0,0,0,0,0,0,0,0,0,0,0,0,0,0,0,0,0,0,0,0,0,0,0,0,0,0,0,0,0,0,0,0,0,0,0,0,0,0,0,0,0,0,0,0,0,0,0,0,0,0,0,0,0,0,0,0,0,0,0,0,0,0,0,0,0,0,0,0,0,0,0,0,0,0,0,0,0,0,0,0,0,0,0,0,0,0,0,0,0,0,0,0,0,0,0,0,0,0,0,0,0,0,0,0,0,0,608,0,0,0,0,0,
600,0,0,0,0,0,0,600,0,0,0,0,0,0,0,0,0,0,0,0,0,0,0,0,0,0,0,0,0,0,0,0,0,0,0,0,0,0,0,0,0,0,0,0,0,0,0,0,0,0,0,0,0,0,0,0,0,0,0,0,0,0,0,0,0,0,0,0,0,0,0,0,0,0,0,0,0,0,0,0,0,0,0,0,0,0,0,0,0,0,0,0,0,0,0,0,0,0,0,0,0,0,0,0,0,0,0,0,0,0,0,0,0,0,0,0,0,592,0,0,0,0,592,0,0,0,0,592,0,0,0,0,592,0,0,0,0,592,0,0,0,0,592,0,0,0,0,592,0,0,0,0,0,0,0,0,0,0,0,0,0,0,0,0,0,0,0,0,0,0,0,0,0,0,0,0,0,0,0,0,0,0,0,0,0,0,0,0,0,0,0,0,0,0,0,0,0,0,0,0,0,0,0,0,0,0,0,0,0,0,0,0,0,0,0,0,0,0,0,0,0,0,0,0,0,0,0,0,0,0,0,0,0,0,0,0,0,0,0,0,0,0,0,0,0,0,0,0,0,0,0,0,0,0,0,0,0,0,0,0,0,0,0,0,0,0,0,0,0,0,0,0,0,0,0,0,0,0,0,0,0,0,0,0,0,0,0,0,0,0,616,0,0,0,0,0,
608,0,0,0,0,0,0,608,0,0,0,0,0,0,0,0,0,0,0,0,0,0,0,0,0,0,0,0,0,0,0,0,0,0,0,0,0,0,0,0,0,0,0,0,0,0,0,0,0,0,0,0,0,0,0,0,0,0,0,0,0,0,0,0,0,0,0,0,0,0,0,0,0,0,0,0,0,0,0,0,0,0,0,0,0,0,0,0,0,0,0,0,0,0,0,0,0,0,0,0,0,0,0,0,0,0,0,0,0,0,0,0,0,0,0,0,0,600,0,0,0,0,600,0,0,0,0,600,0,0,0,0,600,0,0,0,0,600,0,0,0,0,600,0,0,0,0,600,0,0,0,0,0,0,0,0,0,0,0,0,0,0,0,0,0,0,0,0,0,0,0,0,0,0,0,0,0,0,0,0,0,0,0,0,0,0,0,0,0,0,0,0,0,0,0,0,0,0,0,0,0,0,0,0,0,0,0,0,0,0,0,0,0,0,0,0,0,0,0,0,0,0,0,0,0,0,0,0,0,0,0,0,0,0,0,0,0,0,0,0,0,0,0,0,0,0,0,0,0,0,0,0,0,0,0,0,0,0,0,0,0,0,0,0,0,0,0,0,0,0,0,0,0,0,0,0,0,0,0,0,0,0,0,0,0,0,0,0,0,0,576,0,0,0,0,0,
616,0,0,0,0,0,0,616,0,0,0,0,0,0,0,0,0,0,0,0,0,0,0,0,0,0,0,0,0,0,0,0,0,0,0,0,0,0,0,0,0,0,0,0,0,0,0,0,0,0,0,0,0,0,0,0,0,0,0,0,0,0,0,0,0,0,0,0,0,0,0,0,0,0,0,0,0,0,0,0,0,0,0,0,0,0,0,0,0,0,0,0,0,0,0,0,0,0,0,0,0,0,0,0,0,0,0,0,0,0,0,0,0,0,0,0,0,608,0,0,0,0,608,0,0,0,0,608,0,0,0,0,608,0,0,0,0,608,0,0,0,0,608,0,0,0,0,608,0,0,0,0,0,0,0,0,0,0,0,0,0,0,0,0,0,0,0,0,0,0,0,0,0,0,0,0,0,0,0,0,0,0,0,0,0,0,0,0,0,0,0,0,0,0,0,0,0,0,0,0,0,0,0,0,0,0,0,0,0,0,0,0,0,0,0,0,0,0,0,0,0,0,0,0,0,0,0,0,0,0,0,0,0,0,0,0,0,0,0,0,0,0,0,0,0,0,0,0,0,0,0,0,0,0,0,0,0,0,0,0,0,0,0,0,0,0,0,0,0,0,0,0,0,0,0,0,0,0,0,0,0,0,0,0,0,0,0,0,0,0,584,0,0,0,0,0,
576,0,0,0,0,0,0,576,0,0,0,0,0,0,0,0,0,0,0,0,0,0,0,0,0,0,0,0,0,0,0,0,0,0,0,0,0,0,0,0,0,0,0,0,0,0,0,0,0,0,0,0,0,0,0,0,0,0,0,0,0,0,0,0,0,0,0,0,0,0,0,0,0,0,0,0,0,0,0,0,0,0,0,0,0,0,0,0,0,0,0,0,0,0,0,0,0,0,0,0,0,0,0,0,0,0,0,0,0,0,0,0,0,0,0,0,0,616,0,0,0,0,616,0,0,0,0,616,0,0,0,0,616,0,0,0,0,616,0,0,0,0,616,0,0,0,0,616,0,0,0,0,0,0,0,0,0,0,0,0,0,0,0,0,0,0,0,0,0,0,0,0,0,0,0,0,0,0,0,0,0,0,0,0,0,0,0,0,0,0,0,0,0,0,0,0,0,0,0,0,0,0,0,0,0,0,0,0,0,0,0,0,0,0,0,0,0,0,0,0,0,0,0,0,0,0,0,0,0,0,0,0,0,0,0,0,0,0,0,0,0,0,0,0,0,0,0,0,0,0,0,0,0,0,0,0,0,0,0,0,0,0,0,0,0,0,0,0,0,0,0,0,0,0,0,0,0,0,0,0,0,0,0,0,0,0,0,0,0,0,592,0,0,0,0,0,
584,0,0,0,0,0,0,584,0,0,0,0,0,0,0,0,0,0,0,0,0,0,0,0,0,0,0,0,0,0,0,0,0,0,0,0,0,0,0,0,0,0,0,0,0,0,0,0,0,0,0,0,0,0,0,0,0,0,0,0,0,0,0,0,0,0,0,0,0,0,0,0,0,0,0,0,0,0,0,0,0,0,0,0,0,0,0,0,0,0,0,0,0,0,0,0,0,0,0,0,0,0,0,0,0,0,0,0,0,0,0,0,0,0,0,0,0,575,575,575,575,575,575,575,575,575,575,575,575,575,575,575,575,575,575,575,575,575,575,575,575,575,575,575,575,575,575,575,0,0,0,0,0,0,0,0,0,0,0,0,0,0,0,0,0,0,0,0,0,0,0,0,0,0,0,0,0,0,0,0,0,0,0,0,0,0,0,0,0,0,0,0,0,0,0,0,0,0,0,0,0,0,0,0,0,0,0,0,0,0,0,0,0,0,0,0,0,0,0,0,0,0,0,0,0,0,0,0,0,0,0,0,0,0,0,0,0,0,0,0,0,0,0,0,0,0,0,0,0,0,0,0,0,0,0,0,0,0,0,0,0,0,0,0,0,0,0,0,0,0,0,0,0,0,0,0,0,0,0,0,0,0,0,0,0,0,0,0,0,0,600,0,0,0,0,0,
592,0,0,0,0,0,0,592,0,0,0,0,0,0,0,0,0,0,0,0,0,0,0,0,0,0,0,0,0,0,0,0,0,0,0,0,0,0,0,0,0,0,0,0,0,0,0,0,0,0,0,0,0,0,0,0,0,0,0,0,0,0,0,0,0,0,0,0,0,0,0,0,0,0,0,0,0,0,0,0,0,0,0,0,0,0,0,0,0,0,0,0,0,0,0,0,0,0,0,0,0,0,0,0,0,0,0,0,0,0,0,0,0,0,0,0,0,0,0,0,0,0,0,0,0,0,0,0,0,0,0,0,0,0,0,0,0,0,0,0,0,0,0,0,0,0,0,0,0,0,0,0,0,0,0,0,0,0,0,0,0,0,0,0,0,0,0,0,0,0,0,0,0,0,0,0,0,0,0,0,0,0,0,0,0,0,0,0,0,0,0,0,0,0,0,0,0,0,0,0,0,0,0,0,0,0,0,0,0,0,0,0,0,0,0,0,0,0,0,0,0,0,0,0,0,0,0,0,0,0,0,0,0,0,0,0,0,0,0,0,0,0,0,0,0,0,0,0,0,0,0,0,0,0,0,0,0,0,0,0,0,0,0,0,0,0,0,0,0,0,0,0,0,0,0,0,0,0,0,0,0,0,0,0,0,0,0,0,0,0,608,0,0,0,0,0,
600,0,0,0,0,0,0,600,0,0,0,0,0,0,0,0,0,0,0,0,0,0,0,0,0,0,0,0,0,0,0,0,0,0,0,0,0,0,0,0,0,0,0,0,0,0,0,0,0,0,0,0,0,0,0,0,0,0,0,0,0,0,0,0,0,0,0,0,0,0,0,0,0,0,0,0,0,0,0,0,0,0,0,0,0,0,0,0,0,0,0,0,0,0,0,0,0,0,0,0,0,0,0,0,0,0,0,0,0,0,0,0,0,0,0,0,0,0,0,0,0,0,0,0,0,0,0,0,0,0,0,0,0,0,0,0,0,0,0,0,0,0,0,0,0,0,0,0,0,0,0,0,0,0,0,0,0,0,0,0,0,0,0,0,0,0,0,0,0,0,0,0,0,0,0,0,0,0,0,0,0,0,0,0,0,0,0,0,0,0,0,0,0,0,0,0,0,0,0,0,0,0,0,0,0,0,0,0,0,0,0,0,0,0,0,0,0,0,0,0,0,0,0,0,0,0,0,0,0,0,0,0,0,0,0,0,0,0,0,0,0,0,0,0,0,0,0,0,0,0,0,0,0,0,0,0,0,0,0,0,0,0,0,0,0,0,0,0,0,0,0,0,0,0,0,0,0,0,0,0,0,0,0,0,0,0,0,0,0,0,616,0,0,0,0,0,
608,0,0,0,0,0,0,608,0,0,0,0,0,0,0,0,0,0,0,0,0,0,0,0,0,0,0,0,0,0,0,0,0,0,0,0,0,0,0,0,0,0,0,0,0,0,0,0,0,0,0,0,0,0,0,0,0,0,0,0,0,0,0,0,0,0,0,0,0,0,0,0,0,0,0,0,0,0,0,0,0,0,0,0,0,0,0,0,0,0,0,0,0,0,0,0,0,0,0,0,0,0,0,0,0,0,0,0,0,0,0,0,0,0,0,0,0,0,0,0,0,0,0,0,0,0,0,0,0,0,0,0,0,0,0,0,0,0,0,0,0,0,0,0,0,0,0,0,0,0,0,0,0,0,1131,1132,1132,1132,1132,1132,1132,1132,1132,1132,1132,1132,1132,1173,0,0,0,0,0,0,0,0,0,0,0,0,0,0,0,0,0,0,0,0,0,0,0,0,0,0,0,0,0,0,0,0,0,0,0,0,0,0,0,0,0,0,0,0,0,0,0,0,0,0,0,0,0,0,0,0,0,0,0,0,0,0,0,0,0,0,0,0,0,0,0,0,0,0,0,0,0,0,0,0,0,0,0,0,0,0,0,0,0,0,0,0,0,0,0,0,0,0,0,0,0,0,0,0,0,0,0,0,0,0,0,0,0,0,0,0,0,0,0,0,0,0,0,0,0,0,0,0,
616,0,0,0,0,0,0,616,0,0,0,0,0,0,0,0,0,0,0,0,0,0,0,0,0,0,0,0,0,0,0,0,0,0,0,0,0,0,0,0,0,0,0,0,0,0,0,0,0,0,0,0,0,0,0,0,0,0,0,0,0,0,0,0,0,0,0,0,0,0,0,0,0,0,0,0,0,0,0,0,0,0,0,0,0,0,0,0,0,0,0,0,0,0,0,0,0,0,0,0,0,0,0,0,0,0,0,0,0,0,0,0,0,0,0,0,0,0,0,0,0,0,0,0,0,0,0,0,0,0,0,0,0,0,0,0,0,0,0,0,0,0,0,0,0,0,0,0,0,0,0,0,0,0,0,0,0,0,0,0,0,0,0,0,0,0,0,0,0,0,0,0,0,0,0,0,0,0,0,0,0,0,0,0,0,0,0,0,0,0,0,0,0,0,0,0,0,0,0,0,0,0,0,0,0,0,0,0,0,0,0,0,0,0,0,0,0,0,0,0,0,0,0,0,0,0,0,0,0,0,0,0,0,0,0,0,0,0,0,0,0,0,0,0,0,0,0,0,0,0,0,0,0,0,0,0,0,0,0,0,0,0,0,0,0,0,0,0,0,0,0,0,0,0,0,0,0,0,0,0,0,0,0,0,0,0,0,0,0,0,0,0,0,0,0,0,
0,0,0,0,0,0,0,0,0,0,0,0,0,0,0,0,0,0,0,0,0,0,0,0,0,0,0,0,0,0,0,0,0,0,0,0,0,0,0,0,0,0,0,0,0,0,0,0,0,0,0,0,0,0,0,0,0,0,0,0,0,0,0,0,0,0,0,0,0,0,0,0,0,0,0,0,0,0,0,0,0,0,0,0,0,0,0,0,0,0,0,0,0,0,0,0,0,0,0,0,0,0,0,0,0,0,0,0,0,0,0,0,0,0,0,0,0,0,0,0,0,0,0,0,0,0,0,0,0,0,0,0,0,0,0,0,0,0,0,0,0,0,0,0,0,0,0,0,0,0,0,0,0,0,0,0,0,0,0,0,0,0,0,0,0,0,0,0,0,0,0,0,0,0,0,0,0,0,0,0,0,0,0,0,0,0,0,0,0,0,0,0,0,0,0,0,0,0,0,0,0,0,0,0,0,0,0,0,0,0,0,0,0,0,0,0,0,0,0,0,0,0,0,0,0,0,0,0,0,0,0,0,0,0,0,0,0,0,0,0,0,0,0,0,0,0,0,0,0,0,0,0,0,0,0,0,0,0,0,0,0,0,0,0,0,0,0,0,0,0,0,0,0,0,0,0,0,0,0,0,0,0,0,0,0,0,0,0,0,0,0,0,0,0,0,0,
0,0,0,0,0,0,0,0,0,0,0,0,0,0,0,0,0,0,0,0,0,0,0,0,0,0,0,0,0,0,0,0,0,0,0,0,0,0,0,0,0,0,0,0,0,0,0,0,0,0,0,0,0,0,0,0,0,0,0,0,0,0,0,0,0,0,0,0,0,0,0,0,0,0,0,0,0,0,0,0,0,0,0,0,0,0,0,0,0,0,0,0,0,0,0,0,0,0,0,0,0,0,0,0,0,0,0,0,0,0,0,0,0,0,0,0,0,0,0,0,0,0,0,0,0,0,0,0,0,0,0,0,0,0,0,0,0,0,0,0,0,0,0,0,0,0,0,0,0,0,0,0,0,0,0,0,0,0,0,0,0,0,0,0,0,0,0,0,0,0,0,0,0,0,0,0,0,0,0,0,0,0,0,0,0,0,0,0,0,0,0,0,0,0,0,0,0,0,0,0,0,0,0,0,0,0,0,0,0,0,0,0,0,0,0,0,0,0,0,0,0,0,0,0,0,0,0,0,0,0,0,0,0,0,0,0,0,0,0,0,0,0,0,0,0,0,0,0,0,0,0,0,0,0,0,0,0,0,0,0,0,0,0,0,0,0,0,0,0,0,0,0,0,0,0,0,0,0,0,0,0,0,0,0,0,0,0,0,0,0,0,0,0,0,0,0,
0,0,0,0,0,0,0,0,0,0,0,0,0,0,0,0,0,0,0,0,0,0,0,0,0,0,0,0,0,0,0,0,0,0,0,0,0,0,0,0,0,0,0,0,0,0,0,0,0,0,0,0,0,0,0,0,0,0,0,0,0,0,0,0,0,0,0,0,0,0,0,0,0,0,0,0,0,0,0,0,0,0,0,0,0,0,0,0,0,0,0,0,0,0,0,0,0,0,0,0,0,0,0,0,0,0,0,0,0,0,0,0,0,0,0,0,0,0,0,0,0,0,0,0,0,0,0,0,0,0,0,0,0,0,0,0,0,0,0,0,0,0,0,0,0,0,0,0,0,0,0,0,0,0,0,0,0,0,0,0,0,0,0,0,0,0,0,0,0,0,0,0,0,0,0,0,0,0,0,0,0,0,0,0,0,0,0,0,0,0,0,0,0,0,0,0,0,0,0,0,0,0,0,0,0,0,0,0,0,0,0,0,0,0,0,0,0,0,0,0,0,0,0,0,0,0,0,0,0,0,0,0,0,0,0,0,0,0,0,0,0,0,0,0,0,0,0,0,0,0,0,0,0,0,0,0,0,0,0,0,0,0,0,0,0,0,0,0,0,0,0,0,0,0,0,0,0,0,0,0,0,0,0,0,0,0,0,0,0,0,0,0,0,0,0,0,
0,0,0,0,0,0,0,0,0,0,0,0,0,0,0,0,0,0,0,0,0,0,0,0,0,0,0,0,0,0,0,0,0,0,0,0,0,0,0,0,0,0,0,0,0,0,0,0,0,0,0,0,0,0,0,0,0,0,0,0,0,0,0,0,0,0,0,0,0,0,0,0,0,0,0,0,0,0,0,0,0,0,0,0,0,0,0,0,0,0,0,0,0,0,0,0,0,0,0,0,0,0,0,0,0,0,0,0,0,0,0,0,0,0,0,0,0,0,0,0,0,0,0,0,0,0,0,0,0,0,0,0,0,0,0,0,0,0,0,0,0,0,0,0,0,0,0,0,0,0,0,0,0,0,0,0,0,0,0,0,0,0,0,0,0,0,0,0,0,0,0,0,0,0,0,0,0,0,0,0,0,0,0,0,0,0,0,0,0,0,0,0,0,0,0,0,0,0,0,0,0,0,0,0,0,0,0,0,0,0,0,0,0,0,0,0,0,0,0,0,0,0,0,0,0,0,0,0,0,0,0,0,0,0,0,0,0,0,0,0,0,0,0,0,0,0,0,0,0,0,0,0,0,0,0,0,0,0,0,0,0,0,0,0,0,0,0,0,0,0,0,0,0,0,0,0,0,0,0,0,0,0,0,0,0,0,0,0,0,0,0,0,0,0,0,0,
0,0,0,0,0,0,0,0,0,0,0,0,0,0,0,0,0,0,0,0,0,0,0,0,0,0,0,0,0,0,0,0,0,0,0,0,0,0,0,0,0,0,0,0,0,0,0,0,0,0,0,0,0,0,0,0,0,0,0,0,0,0,0,0,0,0,0,0,0,0,0,0,0,0,0,0,0,0,0,0,0,0,0,0,0,0,0,0,0,0,0,0,0,0,0,0,0,0,0,0,0,0,0,0,0,0,0,0,0,0,0,0,0,0,0,0,0,0,0,0,0,0,0,0,0,0,0,0,0,0,0,0,0,0,0,0,0,0,0,0,0,0,0,0,0,0,0,0,0,0,0,0,0,0,0,0,0,0,0,0,0,0,0,0,0,0,0,0,0,0,0,0,0,0,0,0,0,0,0,0,0,0,0,0,0,0,0,0,0,0,0,0,0,0,0,0,0,0,0,0,0,0,0,0,0,0,0,0,0,0,0,0,0,0,0,0,0,0,0,0,0,0,0,0,0,0,0,0,0,0,0,0,0,0,0,0,0,0,0,0,0,0,0,0,0,0,0,0,0,0,0,0,0,0,0,0,0,0,0,0,0,0,0,0,0,0,0,0,0,0,0,0,0,0,0,0,0,0,0,0,0,0,0,0,0,0,0,0,0,0,0,0,0,0,0,0,
0,0,0,0,0,0,0,0,0,0,0,0,0,0,0,0,0,0,0,0,0,0,0,0,0,0,0,0,0,0,0,0,0,0,0,0,0,0,0,0,0,0,0,0,0,0,0,0,0,0,0,0,0,0,0,0,0,0,0,0,0,0,0,0,0,0,0,0,0,0,0,0,0,0,0,0,0,0,0,0,0,0,0,0,0,0,0,0,0,0,0,0,0,0,0,0,0,0,0,0,0,0,0,0,0,0,0,0,0,0,0,0,0,0,0,0,0,0,0,0,0,0,0,0,0,0,0,0,0,0,0,0,0,0,0,0,0,0,0,0,0,0,0,0,0,0,0,0,0,0,0,0,0,0,0,0,0,0,0,0,0,0,0,0,0,0,0,0,0,0,0,0,0,0,0,0,0,0,0,0,0,0,0,0,0,0,0,0,0,0,0,0,0,0,0,0,0,0,0,0,0,0,0,0,0,0,0,0,0,0,0,0,0,0,0,0,0,0,0,0,0,0,0,0,0,0,0,0,0,0,0,0,0,0,0,0,0,0,0,0,0,0,0,0,0,0,0,0,0,0,0,0,0,0,0,0,0,0,0,0,0,0,0,0,0,0,0,0,0,0,0,0,0,0,0,0,0,0,0,0,0,0,0,0,0,0,0,0,0,0,0,0,0,0,0,0
</data>
 </layer>
 <layer id="23" name="CapaFondo2" width="296" height="26">
  <data encoding="csv">
2539,2540,2541,2542,2543,2544,2545,2546,2547,2548,2549,2550,2551,2552,2553,2554,2555,2556,2557,2558,2559,2560,2561,2562,2563,2564,2565,2566,2567,2568,2569,2570,2539,2540,2541,2542,2543,2544,2545,2546,2547,2548,2549,2550,2551,2552,2553,2554,2555,2556,2557,2558,2559,2560,2561,2562,2563,2564,2565,2566,2567,2568,2569,2570,2539,2540,2541,2542,2543,2544,2545,2546,2547,2548,2549,2550,2551,2552,2553,2554,2555,2556,2557,2558,2559,2560,2561,2562,2563,2564,2565,2566,2567,2568,2569,2570,2539,2540,2541,2542,2543,2544,2545,2546,2547,2548,2549,2550,2551,2552,2553,2554,2555,2556,2557,2558,2559,2560,2561,2562,2563,2564,2565,2566,2567,2568,2569,2570,2539,2540,2541,2542,2543,2544,2545,2546,2547,2548,2549,2550,2551,2552,2553,2554,2555,2556,2557,2558,2559,2560,2561,2562,2563,2564,2565,2566,2567,2568,2569,2570,2539,2540,2541,2542,2543,2544,2545,2546,2547,2548,2549,2550,2551,2552,2553,2554,2555,2556,2557,2558,2559,2560,2561,2562,2563,2564,2565,2566,2567,2568,2569,2570,2539,2540,2541,2542,2543,2544,2545,2546,2547,2548,2549,2550,2551,2552,2553,2554,2555,2556,2557,2558,2559,2560,2561,2562,2563,2564,2565,2566,2567,2568,2569,2570,2539,2540,2541,2542,2543,2544,2545,2546,2547,2548,2549,2550,2551,2552,2553,2554,2555,2556,2557,2558,2559,2560,2561,2562,2563,2564,2565,2566,2567,2568,2569,2570,2539,2540,2541,2542,2543,2544,2545,2546,2547,2548,2549,2550,2551,2552,2553,2554,2555,2556,2557,2558,2559,2560,2561,2562,2563,2564,2565,2566,2567,2568,2569,2570,2539,2540,2541,2542,2543,2544,2545,2546,
2571,2572,2573,2574,2575,2576,2577,2578,2579,2580,2581,2582,2583,2584,2585,2586,2587,2588,2589,2590,2591,2592,2593,2594,2595,2596,2597,2598,2599,2600,2601,2602,2571,2572,2573,2574,2575,2576,2577,2578,2579,2580,2581,2582,2583,2584,2585,2586,2587,2588,2589,2590,2591,2592,2593,2594,2595,2596,2597,2598,2599,2600,2601,2602,2571,2572,2573,2574,2575,2576,2577,2578,2579,2580,2581,2582,2583,2584,2585,2586,2587,2588,2589,2590,2591,2592,2593,2594,2595,2596,2597,2598,2599,2600,2601,2602,2571,2572,2573,2574,2575,2576,2577,2578,2579,2580,2581,2582,2583,2584,2585,2586,2587,2588,2589,2590,2591,2592,2593,2594,2595,2596,2597,2598,2599,2600,2601,2602,2571,2572,2573,2574,2575,2576,2577,2578,2579,2580,2581,2582,2583,2584,2585,2586,2587,2588,2589,2590,2591,2592,2593,2594,2595,2596,2597,2598,2599,2600,2601,2602,2571,2572,2573,2574,2575,2576,2577,2578,2579,2580,2581,2582,2583,2584,2585,2586,2587,2588,2589,2590,2591,2592,2593,2594,2595,2596,2597,2598,2599,2600,2601,2602,2571,2572,2573,2574,2575,2576,2577,2578,2579,2580,2581,2582,2583,2584,2585,2586,2587,2588,2589,2590,2591,2592,2593,2594,2595,2596,2597,2598,2599,2600,2601,2602,2571,2572,2573,2574,2575,2576,2577,2578,2579,2580,2581,2582,2583,2584,2585,2586,2587,2588,2589,2590,2591,2592,2593,2594,2595,2596,2597,2598,2599,2600,2601,2602,2571,2572,2573,2574,2575,2576,2577,2578,2579,2580,2581,2582,2583,2584,2585,2586,2587,2588,2589,2590,2591,2592,2593,2594,2595,2596,2597,2598,2599,2600,2601,2602,2571,2572,2573,2574,2575,2576,2577,2578,
2603,2604,2605,2606,2607,2608,2609,2610,2611,2612,2613,2614,2615,2616,2617,2618,2619,2620,2621,2622,2623,2624,2625,2626,2627,2628,2629,2630,2631,2632,2633,2634,2603,2604,2605,2606,2607,2608,2609,2610,2611,2612,2613,2614,2615,2616,2617,2618,2619,2620,2621,2622,2623,2624,2625,2626,2627,2628,2629,2630,2631,2632,2633,2634,2603,2604,2605,2606,2607,2608,2609,2610,2611,2612,2613,2614,2615,2616,2617,2618,2619,2620,2621,2622,2623,2624,2625,2626,2627,2628,2629,2630,2631,2632,2633,2634,2603,2604,2605,2606,2607,2608,2609,2610,2611,2612,2613,2614,2615,2616,2617,2618,2619,2620,2621,2622,2623,2624,2625,2626,2627,2628,2629,2630,2631,2632,2633,2634,2603,2604,2605,2606,2607,2608,2609,2610,2611,2612,2613,2614,2615,2616,2617,2618,2619,2620,2621,2622,2623,2624,2625,2626,2627,2628,2629,2630,2631,2632,2633,2634,2603,2604,2605,2606,2607,2608,2609,2610,2611,2612,2613,2614,2615,2616,2617,2618,2619,2620,2621,2622,2623,2624,2625,2626,2627,2628,2629,2630,2631,2632,2633,2634,2603,2604,2605,2606,2607,2608,2609,2610,2611,2612,2613,2614,2615,2616,2617,2618,2619,2620,2621,2622,2623,2624,2625,2626,2627,2628,2629,2630,2631,2632,2633,2634,2603,2604,2605,2606,2607,2608,2609,2610,2611,2612,2613,2614,2615,2616,2617,2618,2619,2620,2621,2622,2623,2624,2625,2626,2627,2628,2629,2630,2631,2632,2633,2634,2603,2604,2605,2606,2607,2608,2609,2610,2611,2612,2613,2614,2615,2616,2617,2618,2619,2620,2621,2622,2623,2624,2625,2626,2627,2628,2629,2630,2631,2632,2633,2634,2603,2604,2605,2606,2607,2608,2609,2610,
2635,2636,2637,2638,2639,2640,2641,2642,2643,2644,2645,2646,2647,2648,2649,2650,2651,2652,2653,2654,2655,2656,2657,2658,2659,2660,2661,2662,2663,2664,2665,2666,2635,2636,2637,2638,2639,2640,2641,2642,2643,2644,2645,2646,2647,2648,2649,2650,2651,2652,2653,2654,2655,2656,2657,2658,2659,2660,2661,2662,2663,2664,2665,2666,2635,2636,2637,2638,2639,2640,2641,2642,2643,2644,2645,2646,2647,2648,2649,2650,2651,2652,2653,2654,2655,2656,2657,2658,2659,2660,2661,2662,2663,2664,2665,2666,2635,2636,2637,2638,2639,2640,2641,2642,2643,2644,2645,2646,2647,2648,2649,2650,2651,2652,2653,2654,2655,2656,2657,2658,2659,2660,2661,2662,2663,2664,2665,2666,2635,2636,2637,2638,2639,2640,2641,2642,2643,2644,2645,2646,2647,2648,2649,2650,2651,2652,2653,2654,2655,2656,2657,2658,2659,2660,2661,2662,2663,2664,2665,2666,2635,2636,2637,2638,2639,2640,2641,2642,2643,2644,2645,2646,2647,2648,2649,2650,2651,2652,2653,2654,2655,2656,2657,2658,2659,2660,2661,2662,2663,2664,2665,2666,2635,2636,2637,2638,2639,2640,2641,2642,2643,2644,2645,2646,2647,2648,2649,2650,2651,2652,2653,2654,2655,2656,2657,2658,2659,2660,2661,2662,2663,2664,2665,2666,2635,2636,2637,2638,2639,2640,2641,2642,2643,2644,2645,2646,2647,2648,2649,2650,2651,2652,2653,2654,2655,2656,2657,2658,2659,2660,2661,2662,2663,2664,2665,2666,2635,2636,2637,2638,2639,2640,2641,2642,2643,2644,2645,2646,2647,2648,2649,2650,2651,2652,2653,2654,2655,2656,2657,2658,2659,2660,2661,2662,2663,2664,2665,2666,2635,2636,2637,2638,2639,2640,2641,2642,
2667,2668,2669,2670,2671,2672,2673,2674,2675,2676,2677,2678,2679,2680,2681,2682,2683,2684,2685,2686,2687,2688,2689,2690,2691,2692,2693,2694,2695,2696,2697,2698,2667,2668,2669,2670,2671,2672,2673,2674,2675,2676,2677,2678,2679,2680,2681,2682,2683,2684,2685,2686,2687,2688,2689,2690,2691,2692,2693,2694,2695,2696,2697,2698,2667,2668,2669,2670,2671,2672,2673,2674,2675,2676,2677,2678,2679,2680,2681,2682,2683,2684,2685,2686,2687,2688,2689,2690,2691,2692,2693,2694,2695,2696,2697,2698,2667,2668,2669,2670,2671,2672,2673,2674,2675,2676,2677,2678,2679,2680,2681,2682,2683,2684,2685,2686,2687,2688,2689,2690,2691,2692,2693,2694,2695,2696,2697,2698,2667,2668,2669,2670,2671,2672,2673,2674,2675,2676,2677,2678,2679,2680,2681,2682,2683,2684,2685,2686,2687,2688,2689,2690,2691,2692,2693,2694,2695,2696,2697,2698,2667,2668,2669,2670,2671,2672,2673,2674,2675,2676,2677,2678,2679,2680,2681,2682,2683,2684,2685,2686,2687,2688,2689,2690,2691,2692,2693,2694,2695,2696,2697,2698,2667,2668,2669,2670,2671,2672,2673,2674,2675,2676,2677,2678,2679,2680,2681,2682,2683,2684,2685,2686,2687,2688,2689,2690,2691,2692,2693,2694,2695,2696,2697,2698,2667,2668,2669,2670,2671,2672,2673,2674,2675,2676,2677,2678,2679,2680,2681,2682,2683,2684,2685,2686,2687,2688,2689,2690,2691,2692,2693,2694,2695,2696,2697,2698,2667,2668,2669,2670,2671,2672,2673,2674,2675,2676,2677,2678,2679,2680,2681,2682,2683,2684,2685,2686,2687,2688,2689,2690,2691,2692,2693,2694,2695,2696,2697,2698,2667,2668,2669,2670,2671,2672,2673,2674,
2699,2700,2701,2702,2703,2704,2705,2706,2707,2708,2709,2710,2711,2712,2713,2714,2715,2716,2717,2718,2719,2720,2721,2722,2723,2724,2725,2726,2727,2728,2729,2730,2699,2700,2701,2702,2703,2704,2705,2706,2707,2708,2709,2710,2711,2712,2713,2714,2715,2716,2717,2718,2719,2720,2721,2722,2723,2724,2725,2726,2727,2728,2729,2730,2699,2700,2701,2702,2703,2704,2705,2706,2707,2708,2709,2710,2711,2712,2713,2714,2715,2716,2717,2718,2719,2720,2721,2722,2723,2724,2725,2726,2727,2728,2729,2730,2699,2700,2701,2702,2703,2704,2705,2706,2707,2708,2709,2710,2711,2712,2713,2714,2715,2716,2717,2718,2719,2720,2721,2722,2723,2724,2725,2726,2727,2728,2729,2730,2699,2700,2701,2702,2703,2704,2705,2706,2707,2708,2709,2710,2711,2712,2713,2714,2715,2716,2717,2718,2719,2720,2721,2722,2723,2724,2725,2726,2727,2728,2729,2730,2699,2700,2701,2702,2703,2704,2705,2706,2707,2708,2709,2710,2711,2712,2713,2714,2715,2716,2717,2718,2719,2720,2721,2722,2723,2724,2725,2726,2727,2728,2729,2730,2699,2700,2701,2702,2703,2704,2705,2706,2707,2708,2709,2710,2711,2712,2713,2714,2715,2716,2717,2718,2719,2720,2721,2722,2723,2724,2725,2726,2727,2728,2729,2730,2699,2700,2701,2702,2703,2704,2705,2706,2707,2708,2709,2710,2711,2712,2713,2714,2715,2716,2717,2718,2719,2720,2721,2722,2723,2724,2725,2726,2727,2728,2729,2730,2699,2700,2701,2702,2703,2704,2705,2706,2707,2708,2709,2710,2711,2712,2713,2714,2715,2716,2717,2718,2719,2720,2721,2722,2723,2724,2725,2726,2727,2728,2729,2730,2699,2700,2701,2702,2703,2704,2705,2706,
2731,2732,2733,2734,2735,2736,2737,2738,2739,2740,2741,2742,2743,2744,2745,2746,2747,2748,2749,2750,2751,2752,2753,2754,2755,2756,2757,2758,2759,2760,2761,2762,2731,2732,2733,2734,2735,2736,2737,2738,2739,2740,2741,2742,2743,2744,2745,2746,2747,2748,2749,2750,2751,2752,2753,2754,2755,2756,2757,2758,2759,2760,2761,2762,2731,2732,2733,2734,2735,2736,2737,2738,2739,2740,2741,2742,2743,2744,2745,2746,2747,2748,2749,2750,2751,2752,2753,2754,2755,2756,2757,2758,2759,2760,2761,2762,2731,2732,2733,2734,2735,2736,2737,2738,2739,2740,2741,2742,2743,2744,2745,2746,2747,2748,2749,2750,2751,2752,2753,2754,2755,2756,2757,2758,2759,2760,2761,2762,2731,2732,2733,2734,2735,2736,2737,2738,2739,2740,2741,2742,2743,2744,2745,2746,2747,2748,2749,2750,2751,2752,2753,2754,2755,2756,2757,2758,2759,2760,2761,2762,2731,2732,2733,2734,2735,2736,2737,2738,2739,2740,2741,2742,2743,2744,2745,2746,2747,2748,2749,2750,2751,2752,2753,2754,2755,2756,2757,2758,2759,2760,2761,2762,2731,2732,2733,2734,2735,2736,2737,2738,2739,2740,2741,2742,2743,2744,2745,2746,2747,2748,2749,2750,2751,2752,2753,2754,2755,2756,2757,2758,2759,2760,2761,2762,2731,2732,2733,2734,2735,2736,2737,2738,2739,2740,2741,2742,2743,2744,2745,2746,2747,2748,2749,2750,2751,2752,2753,2754,2755,2756,2757,2758,2759,2760,2761,2762,2731,2732,2733,2734,2735,2736,2737,2738,2739,2740,2741,2742,2743,2744,2745,2746,2747,2748,2749,2750,2751,2752,2753,2754,2755,2756,2757,2758,2759,2760,2761,2762,2731,2732,2733,2734,2735,2736,2737,2738,
2763,2764,2765,2766,2767,2768,2769,2770,2771,2772,2773,2774,2775,2776,2777,2778,2779,2780,2781,2782,2783,2784,2785,2786,2787,2788,2789,2790,2791,2792,2793,2794,2763,2764,2765,2766,2767,2768,2769,2770,2771,2772,2773,2774,2775,2776,2777,2778,2779,2780,2781,2782,2783,2784,2785,2786,2787,2788,2789,2790,2791,2792,2793,2794,2763,2764,2765,2766,2767,2768,2769,2770,2771,2772,2773,2774,2775,2776,2777,2778,2779,2780,2781,2782,2783,2784,2785,2786,2787,2788,2789,2790,2791,2792,2793,2794,2763,2764,2765,2766,2767,2768,2769,2770,2771,2772,2773,2774,2775,2776,2777,2778,2779,2780,2781,2782,2783,2784,2785,2786,2787,2788,2789,2790,2791,2792,2793,2794,2763,2764,2765,2766,2767,2768,2769,2770,2771,2772,2773,2774,2775,2776,2777,2778,2779,2780,2781,2782,2783,2784,2785,2786,2787,2788,2789,2790,2791,2792,2793,2794,2763,2764,2765,2766,2767,2768,2769,2770,2771,2772,2773,2774,2775,2776,2777,2778,2779,2780,2781,2782,2783,2784,2785,2786,2787,2788,2789,2790,2791,2792,2793,2794,2763,2764,2765,2766,2767,2768,2769,2770,2771,2772,2773,2774,2775,2776,2777,2778,2779,2780,2781,2782,2783,2784,2785,2786,2787,2788,2789,2790,2791,2792,2793,2794,2763,2764,2765,2766,2767,2768,2769,2770,2771,2772,2773,2774,2775,2776,2777,2778,2779,2780,2781,2782,2783,2784,2785,2786,2787,2788,2789,2790,2791,2792,2793,2794,2763,2764,2765,2766,2767,2768,2769,2770,2771,2772,2773,2774,2775,2776,2777,2778,2779,2780,2781,2782,2783,2784,2785,2786,2787,2788,2789,2790,2791,2792,2793,2794,2763,2764,2765,2766,2767,2768,2769,2770,
0,0,0,0,0,0,0,0,0,0,0,0,0,0,0,0,0,0,0,0,0,0,0,0,0,0,0,0,0,0,0,0,0,0,0,0,0,0,0,0,0,0,0,0,0,0,0,0,0,0,0,0,0,0,0,0,0,0,0,0,0,0,0,0,0,0,0,0,0,0,0,0,0,0,0,0,0,0,0,0,0,0,0,0,0,0,0,0,0,0,0,0,0,0,0,0,0,0,0,0,0,0,0,0,0,0,0,0,0,0,0,0,0,0,0,0,0,0,0,0,0,0,0,0,0,0,0,0,0,0,0,0,0,0,0,0,0,0,0,0,0,0,0,0,0,0,0,0,0,0,0,0,0,0,0,0,0,0,0,0,0,0,0,0,0,0,0,0,0,0,0,0,0,0,0,0,0,0,0,0,0,0,0,0,0,0,0,0,0,0,0,0,0,0,0,0,0,0,0,0,0,0,0,0,0,0,0,0,0,0,0,0,0,0,0,0,0,0,0,0,0,0,0,0,0,0,0,0,0,0,0,0,0,0,0,0,0,0,0,0,0,0,0,0,0,0,0,0,0,0,0,0,0,0,0,0,0,0,0,0,0,0,0,0,0,0,0,0,0,0,0,0,0,0,0,0,0,0,0,0,0,0,0,0,0,0,0,0,0,0,0,0,0,0,0,0,
0,0,0,0,0,0,0,0,0,0,0,0,0,0,0,0,0,0,0,0,0,0,0,0,0,0,0,0,0,0,0,0,0,0,0,0,0,0,0,0,0,0,0,0,0,0,0,0,0,0,0,0,0,0,0,0,0,0,0,0,0,0,0,0,0,0,0,0,0,0,0,0,0,0,0,0,0,0,0,0,0,0,0,0,0,0,0,0,0,0,0,0,0,0,0,0,0,0,0,0,0,0,0,0,0,0,0,0,0,0,0,0,0,0,0,0,0,0,0,0,0,0,0,0,0,0,0,0,0,0,0,0,0,0,0,0,0,0,0,0,0,0,0,0,0,0,0,0,0,0,0,0,0,0,0,0,0,0,0,0,0,0,0,0,0,0,0,0,0,0,0,0,0,0,0,0,0,0,0,0,0,0,0,0,0,0,0,0,0,0,0,0,0,0,0,0,0,0,0,0,0,0,0,0,0,0,0,0,0,0,0,0,0,0,0,0,0,0,0,0,0,0,0,0,0,0,0,0,0,0,0,0,0,0,0,0,0,0,0,0,0,0,0,0,0,0,0,0,0,0,0,0,0,0,0,0,0,0,0,0,0,0,0,0,0,0,0,0,0,0,0,0,0,0,0,0,0,0,0,0,0,0,0,0,0,0,0,0,0,0,0,0,0,0,0,0,
0,0,0,0,0,0,0,0,0,0,0,0,0,0,0,0,0,0,0,0,0,0,0,0,0,0,0,0,0,0,0,0,0,0,0,0,0,0,0,0,0,0,0,0,0,0,0,0,0,0,0,0,0,0,0,0,0,0,0,0,0,0,0,0,0,0,0,0,0,0,0,0,0,0,0,0,0,0,0,0,0,0,0,0,0,0,0,0,0,0,0,0,0,0,0,0,0,0,0,0,0,0,0,0,0,0,0,0,0,0,0,0,0,0,0,0,0,0,0,0,0,0,0,0,0,0,0,0,0,0,0,0,0,0,0,0,0,0,0,0,0,0,0,0,0,0,0,0,0,0,0,0,0,0,0,0,0,0,0,0,0,0,0,0,0,0,0,0,0,0,0,0,0,0,0,0,0,0,0,0,0,0,0,0,0,0,0,0,0,0,0,0,0,0,0,0,0,0,0,0,0,0,0,0,0,0,0,0,0,0,0,0,0,0,0,0,0,0,0,0,0,0,0,0,0,0,0,0,0,0,0,0,0,0,0,0,0,0,0,0,0,0,0,0,0,0,0,0,0,0,0,0,0,0,0,0,0,0,0,0,0,0,0,0,0,0,0,0,0,0,0,0,0,0,0,0,0,0,0,0,0,0,0,0,0,0,0,0,0,0,0,0,0,0,0,0,
0,0,0,0,0,0,0,0,0,0,0,0,0,0,0,0,0,0,0,0,0,0,0,0,0,0,0,0,0,0,0,0,0,0,0,0,0,0,0,0,0,0,0,0,0,0,0,0,0,0,0,0,0,0,0,0,0,0,0,0,0,0,0,0,0,0,0,0,0,0,0,0,0,0,0,0,0,0,0,0,0,0,0,0,0,0,0,0,0,0,0,0,0,0,0,0,0,0,0,0,0,0,0,0,0,0,0,0,0,0,0,0,0,0,0,0,0,0,0,0,0,0,0,0,0,0,0,0,0,0,0,0,0,0,0,0,0,0,0,0,0,0,0,0,0,0,0,0,0,0,0,0,0,0,0,0,0,0,0,0,0,0,0,0,0,0,0,0,0,0,0,0,0,0,0,0,0,0,0,0,0,0,0,0,0,0,0,0,0,0,0,0,0,0,0,0,0,0,0,0,0,0,0,0,0,0,0,0,0,0,0,0,0,0,0,0,0,0,0,0,0,0,0,0,0,0,0,0,0,0,0,0,0,0,0,0,0,0,0,0,0,0,0,0,0,0,0,0,0,0,0,0,0,0,0,0,0,0,0,0,0,0,0,0,0,0,0,0,0,0,0,0,0,0,0,0,0,0,0,0,0,0,0,0,0,0,0,0,0,0,0,0,0,0,0,0,
0,0,0,0,0,0,0,0,0,0,0,0,0,0,0,0,0,0,0,0,0,0,0,0,0,0,0,0,0,0,0,0,0,0,0,0,0,0,0,0,0,0,0,0,0,0,0,0,0,0,0,0,0,0,0,0,0,0,0,0,0,0,0,0,0,0,0,0,0,0,0,0,0,0,0,0,0,0,0,0,0,0,0,0,0,0,0,0,0,0,0,0,0,0,0,0,0,0,0,0,0,0,0,0,0,0,0,0,0,0,0,0,0,0,0,0,0,0,0,0,0,0,0,0,0,0,0,0,0,0,0,0,0,0,0,0,0,0,0,0,0,0,0,0,0,0,0,0,0,0,0,0,0,0,0,0,0,0,0,0,0,0,0,0,0,0,0,0,0,0,0,0,0,0,0,0,0,0,0,0,0,0,0,0,0,0,0,0,0,0,0,0,0,0,0,0,0,0,0,0,0,0,0,0,0,0,0,0,0,0,0,0,0,0,0,0,0,0,0,0,0,0,0,0,0,0,0,0,0,0,0,0,0,0,0,0,0,0,0,0,0,0,0,0,0,0,0,0,0,0,0,0,0,0,0,0,0,0,0,0,0,0,0,0,0,0,0,0,0,0,0,0,0,0,0,0,0,0,0,0,0,0,0,0,0,0,0,0,0,0,0,0,0,0,0,0,
0,0,0,0,0,0,0,0,0,0,0,0,0,0,0,0,0,0,0,0,0,0,0,0,0,0,0,0,0,0,0,0,0,0,0,0,0,0,0,0,0,0,0,0,0,0,0,0,0,0,0,0,0,0,0,0,0,0,0,0,0,0,0,0,0,0,0,0,0,0,0,0,0,0,0,0,0,0,0,0,0,0,0,0,0,0,0,0,0,0,0,0,0,0,0,0,0,0,0,0,0,0,0,0,0,0,0,0,0,0,0,0,0,0,0,0,0,0,0,0,0,0,0,0,0,0,0,0,0,0,0,0,0,0,0,0,0,0,0,0,0,0,0,0,0,0,0,0,0,0,0,0,0,0,0,0,0,0,0,0,0,0,0,0,0,0,0,0,0,0,0,0,0,0,0,0,0,0,0,0,0,0,0,0,0,0,0,0,0,0,0,0,0,0,0,0,0,0,0,0,0,0,0,0,0,0,0,0,0,0,0,0,0,0,0,0,0,0,0,0,0,0,0,0,0,0,0,0,0,0,0,0,0,0,0,0,0,0,0,0,0,0,0,0,0,0,0,0,0,0,0,0,0,0,0,0,0,0,0,0,0,0,0,0,0,0,0,0,0,0,0,0,0,0,0,0,0,0,0,0,0,0,0,0,0,0,0,0,0,0,0,0,0,0,0,0,
0,0,0,0,0,0,0,0,0,0,0,0,0,0,0,0,0,0,0,0,0,0,0,0,0,0,0,0,0,0,0,0,0,0,0,0,0,0,0,0,0,0,0,0,0,0,0,0,0,0,0,0,0,0,0,0,0,0,0,0,0,0,0,0,0,0,0,0,0,0,0,0,0,0,0,0,0,0,0,0,0,0,0,0,0,0,0,0,0,0,0,0,0,0,0,0,0,0,0,0,0,0,0,0,0,0,0,0,0,0,0,0,0,0,0,0,0,0,0,0,0,0,0,0,0,0,0,0,0,0,0,0,0,0,0,0,0,0,0,0,0,0,0,0,0,0,0,0,0,0,0,0,0,0,0,0,0,0,0,0,0,0,0,0,0,0,0,0,0,0,0,0,0,0,0,0,0,0,0,0,0,0,0,0,0,0,0,0,0,0,0,0,0,0,0,0,0,0,0,0,0,0,0,0,0,0,0,0,0,0,0,0,0,0,0,0,0,0,0,0,0,0,0,0,0,0,0,0,0,0,0,0,0,0,0,0,0,0,0,0,0,0,0,0,0,0,0,0,0,0,0,0,0,0,0,0,0,0,0,0,0,0,0,0,0,0,0,0,0,0,0,0,0,0,0,0,0,0,0,0,0,0,0,0,0,0,0,0,0,0,0,0,0,0,0,0,
0,0,0,0,0,0,0,0,0,0,0,0,0,0,0,0,0,0,0,0,0,0,0,0,0,0,0,0,0,0,0,0,0,0,0,0,0,0,0,0,0,0,0,0,0,0,0,0,0,0,0,0,0,0,0,0,0,0,0,0,0,0,0,0,0,0,0,0,0,0,0,0,0,0,0,0,0,0,0,0,0,0,0,0,0,0,0,0,0,0,0,0,0,0,0,0,0,0,0,0,0,0,0,0,0,0,0,0,0,0,0,0,0,0,0,0,0,0,0,0,0,0,0,0,0,0,0,0,0,0,0,0,0,0,0,0,0,0,0,0,0,0,0,0,0,0,0,0,0,0,0,0,0,0,0,0,0,0,0,0,0,0,0,0,0,0,0,0,0,0,0,0,0,0,0,0,0,0,0,0,0,0,0,0,0,0,0,0,0,0,0,0,0,0,0,0,0,0,0,0,0,0,0,0,0,0,0,0,0,0,0,0,0,0,0,0,0,0,0,0,0,0,0,0,0,0,0,0,0,0,0,0,0,0,0,0,0,0,0,0,0,0,0,0,0,0,0,0,0,0,0,0,0,0,0,0,0,0,0,0,0,0,0,0,0,0,0,0,0,0,0,0,0,0,0,0,0,0,0,0,0,0,0,0,0,0,0,0,0,0,0,0,0,0,0,0,
0,0,0,0,0,0,0,0,0,0,0,0,0,0,0,0,0,0,0,0,0,0,0,0,0,0,0,0,0,0,0,0,0,0,0,0,0,0,0,0,0,0,0,0,0,0,0,0,0,0,0,0,0,0,0,0,0,0,0,0,0,0,0,0,0,0,0,0,0,0,0,0,0,0,0,0,0,0,0,0,0,0,0,0,0,0,0,0,0,0,0,0,0,0,0,0,0,0,0,0,0,0,0,0,0,0,0,0,0,0,0,0,0,0,0,0,0,0,0,0,0,0,0,0,0,0,0,0,0,0,0,0,0,0,0,0,0,0,0,0,0,0,0,0,0,0,0,0,0,0,0,0,0,0,0,0,0,0,0,0,0,0,0,0,0,0,0,0,0,0,0,0,0,0,0,0,0,0,0,0,0,0,0,0,0,0,0,0,0,0,0,0,0,0,0,0,0,0,0,0,0,0,0,0,0,0,0,0,0,0,0,0,0,0,0,0,0,0,0,0,0,0,0,0,0,0,0,0,0,0,0,0,0,0,0,0,0,0,0,0,0,0,0,0,0,0,0,0,0,0,0,0,0,0,0,0,0,0,0,0,0,0,0,0,0,0,0,0,0,0,0,0,0,0,0,0,0,0,0,0,0,0,0,0,0,0,0,0,0,0,0,0,0,0,0,0,
0,0,0,0,0,0,0,0,0,0,0,0,0,0,0,0,0,0,0,0,0,0,0,0,0,0,0,0,0,0,0,0,0,0,0,0,0,0,0,0,0,0,0,0,0,0,0,0,0,0,0,0,0,0,0,0,0,0,0,0,0,0,0,0,0,0,0,0,0,0,0,0,0,0,0,0,0,0,0,0,0,0,0,0,0,0,0,0,0,0,0,0,0,0,0,0,0,0,0,0,0,0,0,0,0,0,0,0,0,0,0,0,0,0,0,0,0,0,0,0,0,0,0,0,0,0,0,0,0,0,0,0,0,0,0,0,0,0,0,0,0,0,0,0,0,0,0,0,0,0,0,0,0,0,0,0,0,0,0,0,0,0,0,0,0,0,0,0,0,0,0,0,0,0,0,0,0,0,0,0,0,0,0,0,0,0,0,0,0,0,0,0,0,0,0,0,0,0,0,0,0,0,0,0,0,0,0,0,0,0,0,0,0,0,0,0,0,0,0,0,0,0,0,0,0,0,0,0,0,0,0,0,0,0,0,0,0,0,0,0,0,0,0,0,0,0,0,0,0,0,0,0,0,0,0,0,0,0,0,0,0,0,0,0,0,0,0,0,0,0,0,0,0,0,0,0,0,0,0,0,0,0,0,0,0,0,0,0,0,0,0,0,0,0,0,0,
0,0,0,0,0,0,0,0,0,0,0,0,0,0,0,0,0,0,0,0,0,0,0,0,0,0,0,0,0,0,0,0,0,0,0,0,0,0,0,0,0,0,0,0,0,0,0,0,0,0,0,0,0,0,0,0,0,0,0,0,0,0,0,0,0,0,0,0,0,0,0,0,0,0,0,0,0,0,0,0,0,0,0,0,0,0,0,0,0,0,0,0,0,0,0,0,0,0,0,0,0,0,0,0,0,0,0,0,0,0,0,0,0,0,0,0,0,0,0,0,0,0,0,0,0,0,0,0,0,0,0,0,0,0,0,0,0,0,0,0,0,0,0,0,0,0,0,0,0,0,0,0,0,0,0,0,0,0,0,0,0,0,0,0,0,0,0,0,0,0,0,0,0,0,0,0,0,0,0,0,0,0,0,0,0,0,0,0,0,0,0,0,0,0,0,0,0,0,0,0,0,0,0,0,0,0,0,0,0,0,0,0,0,0,0,0,0,0,0,0,0,0,0,0,0,0,0,0,0,0,0,0,0,0,0,0,0,0,0,0,0,0,0,0,0,0,0,0,0,0,0,0,0,0,0,0,0,0,0,0,0,0,0,0,0,0,0,0,0,0,0,0,0,0,0,0,0,0,0,0,0,0,0,0,0,0,0,0,0,0,0,0,0,0,0,0,
0,0,0,0,0,0,0,0,0,0,0,0,0,0,0,0,0,0,0,0,0,0,0,0,0,0,0,0,0,0,0,0,0,0,0,0,0,0,0,0,0,0,0,0,0,0,0,0,0,0,0,0,0,0,0,0,0,0,0,0,0,0,0,0,0,0,0,0,0,0,0,0,0,0,0,0,0,0,0,0,0,0,0,0,0,0,0,0,0,0,0,0,0,0,0,0,0,0,0,0,0,0,0,0,0,0,0,0,0,0,0,0,0,0,0,0,0,0,0,0,0,0,0,0,0,0,0,0,0,0,0,0,0,0,0,0,0,0,0,0,0,0,0,0,0,0,0,0,0,0,0,0,0,0,0,0,0,0,0,0,0,0,0,0,0,0,0,0,0,0,0,0,0,0,0,0,0,0,0,0,0,0,0,0,0,0,0,0,0,0,0,0,0,0,0,0,0,0,0,0,0,0,0,0,0,0,0,0,0,0,0,0,0,0,0,0,0,0,0,0,0,0,0,0,0,0,0,0,0,0,0,0,0,0,0,0,0,0,0,0,0,0,0,0,0,0,0,0,0,0,0,0,0,0,0,0,0,0,0,0,0,0,0,0,0,0,0,0,0,0,0,0,0,0,0,0,0,0,0,0,0,0,0,0,0,0,0,0,0,0,0,0,0,0,0,0,
0,0,0,0,0,0,0,0,0,0,0,0,0,0,0,0,0,0,0,0,0,0,0,0,0,0,0,0,0,0,0,0,0,0,0,0,0,0,0,0,0,0,0,0,0,0,0,0,0,0,0,0,0,0,0,0,0,0,0,0,0,0,0,0,0,0,0,0,0,0,0,0,0,0,0,0,0,0,0,0,0,0,0,0,0,0,0,0,0,0,0,0,0,0,0,0,0,0,0,0,0,0,0,0,0,0,0,0,0,0,0,0,0,0,0,0,0,0,0,0,0,0,0,0,0,0,0,0,0,0,0,0,0,0,0,0,0,0,0,0,0,0,0,0,0,0,0,0,0,0,0,0,0,0,0,0,0,0,0,0,0,0,0,0,0,0,0,0,0,0,0,0,0,0,0,0,0,0,0,0,0,0,0,0,0,0,0,0,0,0,0,0,0,0,0,0,0,0,0,0,0,0,0,0,0,0,0,0,0,0,0,0,0,0,0,0,0,0,0,0,0,0,0,0,0,0,0,0,0,0,0,0,0,0,0,0,0,0,0,0,0,0,0,0,0,0,0,0,0,0,0,0,0,0,0,0,0,0,0,0,0,0,0,0,0,0,0,0,0,0,0,0,0,0,0,0,0,0,0,0,0,0,0,0,0,0,0,0,0,0,0,0,0,0,0,0,
0,0,0,0,0,0,0,0,0,0,0,0,0,0,0,0,0,0,0,0,0,0,0,0,0,0,0,0,0,0,0,0,0,0,0,0,0,0,0,0,0,0,0,0,0,0,0,0,0,0,0,0,0,0,0,0,0,0,0,0,0,0,0,0,0,0,0,0,0,0,0,0,0,0,0,0,0,0,0,0,0,0,0,0,0,0,0,0,0,0,0,0,0,0,0,0,0,0,0,0,0,0,0,0,0,0,0,0,0,0,0,0,0,0,0,0,0,0,0,0,0,0,0,0,0,0,0,0,0,0,0,0,0,0,0,0,0,0,0,0,0,0,0,0,0,0,0,0,2795,2796,2795,2795,2795,2795,2795,2795,2795,2795,2795,2795,2795,2795,2795,2795,2795,2795,2795,2795,2795,2795,2796,2795,2795,2795,2795,2795,2795,2795,2795,2795,2795,2795,2795,2795,2795,2796,2796,2795,2795,2795,2795,2795,2795,2795,2795,2795,2795,2795,2795,2795,2795,2796,2796,2795,2795,2795,2795,2795,2795,2795,2795,2795,2795,2795,2795,2795,2795,2796,2796,2795,2795,2795,2795,2795,2795,2795,2795,2795,2795,2795,2795,2795,2795,2796,2796,2795,2795,2795,2795,2795,2795,2795,2795,2795,2795,2795,2795,2795,2795,2796,2796,2795,2795,2795,2795,2795,2795,2795,2795,2795,2795,2795,2795,2795,2795,2796,2796,2795,2795,2795,2795,2795,2795,2795,2795,2795,2795,2795,2795,2795,2795,2796,2796,2795,2795,2795,2795,2795,2795,2795,2795,2795,2795,2795,2795,2795,
0,0,0,0,0,0,0,0,0,0,0,0,0,0,0,0,0,0,0,0,0,0,0,0,0,0,0,0,0,0,0,0,0,0,0,0,0,0,0,0,0,0,0,0,0,0,0,0,0,0,0,0,0,0,0,0,0,0,0,0,0,0,0,0,0,0,0,0,0,0,0,0,0,0,0,0,0,0,0,0,0,0,0,0,0,0,0,0,0,0,0,0,0,0,0,0,0,0,0,0,0,0,0,0,0,0,0,0,0,0,0,0,0,0,0,0,0,0,0,0,0,0,0,0,0,0,0,0,0,0,0,0,0,0,0,0,0,0,0,0,0,0,0,0,0,0,0,0,2803,2804,2803,2803,2803,2803,2803,2803,2803,2803,2803,2803,2803,2803,2803,2803,2803,2803,2803,2803,2803,2803,2804,2803,2803,2803,2803,2803,2803,2803,2803,2803,2803,2803,2803,2803,2803,2804,2804,2803,2803,2803,2803,2803,2803,2803,2803,2803,2803,2803,2803,2803,2803,2804,2804,2803,2803,2803,2803,2803,2803,2803,2803,2803,2803,2803,2803,2803,2803,2804,2804,2803,2803,2803,2803,2803,2803,2803,2803,2803,2803,2803,2803,2803,2803,2804,2804,2803,2803,2803,2803,2803,2803,2803,2803,2803,2803,2803,2803,2803,2803,2804,2804,2803,2803,2803,2803,2803,2803,2803,2803,2803,2803,2803,2803,2803,2803,2804,2804,2803,2803,2803,2803,2803,2803,2803,2803,2803,2803,2803,2803,2803,2803,2804,2804,2803,2803,2803,2803,2803,2803,2803,2803,2803,2803,2803,2803,2803,
0,0,0,0,0,0,0,0,0,0,0,0,0,0,0,0,0,0,0,0,0,0,0,0,0,0,0,0,0,0,0,0,0,0,0,0,0,0,0,0,0,0,0,0,0,0,0,0,0,0,0,0,0,0,0,0,0,0,0,0,0,0,0,0,0,0,0,0,0,0,0,0,0,0,0,0,0,0,0,0,0,0,0,0,0,0,0,0,0,0,0,0,0,0,0,0,0,0,0,0,0,0,0,0,0,0,0,0,0,0,0,0,0,0,0,0,0,0,0,0,0,0,0,0,0,0,0,0,0,0,0,0,0,0,0,0,0,0,0,0,0,0,0,0,0,0,0,0,2811,2812,2811,2811,2811,2811,2811,2811,2811,2811,2811,2811,2811,2811,2811,2811,2811,2811,2811,2811,2811,2811,2812,2811,2811,2811,2811,2811,2811,2811,2811,2811,2811,2811,2811,2811,2811,2812,2812,2811,2811,2811,2811,2811,2811,2811,2811,2811,2811,2811,2811,2811,2811,2812,2812,2811,2811,2811,2811,2811,2811,2811,2811,2811,2811,2811,2811,2811,2811,2812,2812,2811,2811,2811,2811,2811,2811,2811,2811,2811,2811,2811,2811,2811,2811,2812,2812,2811,2811,2811,2811,2811,2811,2811,2811,2811,2811,2811,2811,2811,2811,2812,2812,2811,2811,2811,2811,2811,2811,2811,2811,2811,2811,2811,2811,2811,2811,2812,2812,2811,2811,2811,2811,2811,2811,2811,2811,2811,2811,2811,2811,2811,2811,2812,2812,2811,2811,2811,2811,2811,2811,2811,2811,2811,2811,2811,2811,2811,
2795,2795,2795,2795,2795,2795,2795,2795,2795,2795,2795,2795,2795,2795,2795,2795,2795,2795,2795,2795,2795,2795,2795,2795,2795,2795,2795,2795,2795,2795,2795,2795,2795,2795,2795,2796,2795,2795,2795,2795,2795,2795,2795,2795,2795,2795,2795,2795,2795,2795,2795,2795,2795,2795,2795,2795,2795,2795,2795,2795,2795,2795,2795,2795,2796,2795,2795,2795,2795,2795,2795,2795,2795,2795,2795,2795,2795,2795,2795,2795,2795,2795,2795,2795,2795,2795,2795,2795,2795,2795,2795,2795,2796,2795,2795,2795,2795,2795,2795,2795,2795,2795,2795,2795,2795,2795,2795,2795,2795,2795,2795,2795,2795,2795,2795,2795,2796,0,0,0,0,0,0,0,0,0,0,0,0,0,0,0,0,0,0,0,0,0,0,0,0,0,0,0,0,0,0,0,2811,2812,2813,2814,2815,2816,2817,2818,2818,2818,2818,2818,2818,2816,2817,2818,2818,2818,2812,2813,2811,2811,2811,2811,2811,2811,2811,2811,2811,2811,2811,2812,2813,2814,2815,2816,2817,2818,2808,2803,2803,2803,2803,2803,2803,2803,2803,2803,2803,2803,2803,2803,2803,2803,2803,2803,2804,2805,2806,2807,2803,2803,2803,2803,2803,2803,2803,2803,2803,2803,2803,2803,2803,2803,2803,2803,2803,2803,2803,2803,2803,2803,2803,2803,2803,2803,2803,2803,2804,2805,2806,2807,2803,2803,2803,2803,2803,2803,2803,2803,2803,2803,2803,2803,2803,2803,2803,2803,2803,2803,2803,2803,2803,2803,2803,2803,2803,2803,2803,2803,2804,2805,2806,2807,2803,2803,2803,2803,2803,2803,2803,2803,2803,2803,2803,2803,2803,2803,2803,2803,2803,2803,2803,2803,2803,2804,2805,2804,
2803,2804,2805,2805,2803,2803,2804,2805,2803,2804,2805,2806,2807,2808,2808,2808,2808,2808,2808,2808,2808,2808,2808,2808,2808,2808,2808,2808,2808,2808,2808,2808,2808,2808,2808,2808,2808,2808,2808,2808,2808,2808,2808,2808,2808,2808,2808,2808,2808,2808,2808,2808,2808,2808,2808,2808,2808,2808,2808,2808,2808,2803,2804,2805,2804,2805,2806,2807,2808,2808,2808,2808,2808,2808,2808,2808,2808,2808,2808,2808,2808,2808,2808,2808,2808,2808,2808,2808,2808,2808,2808,2808,2808,2808,2808,2808,2808,2808,2808,2808,2808,2808,2808,2808,2808,2808,2808,2808,2808,2808,2808,2808,2808,2808,2808,2808,2808,0,0,0,0,0,0,0,0,0,0,0,0,0,0,0,0,0,0,0,0,0,0,0,0,0,0,0,0,0,0,0,2809,2809,2809,2809,2809,2809,2809,2809,2809,2809,2809,2809,2809,2809,2809,2809,2810,2811,2812,2809,2809,2809,2809,2809,2809,2809,2809,2809,2809,2809,2809,2809,2809,2810,2811,2812,2813,2814,2815,2811,2811,2811,2811,2811,2811,2811,2811,2811,2811,2811,2811,2811,2811,2811,2811,2811,2812,2813,2814,2815,2811,2811,2811,2811,2811,2811,2811,2811,2811,2811,2811,2811,2811,2811,2811,2811,2811,2811,2811,2811,2811,2811,2811,2811,2811,2811,2811,2811,2812,2813,2814,2815,2811,2811,2811,2811,2811,2811,2811,2811,2811,2811,2811,2811,2811,2811,2811,2811,2811,2811,2811,2811,2811,2811,2811,2811,2811,2811,2811,2811,2812,2813,2814,2815,2811,2811,2811,2811,2811,2811,2811,2811,2811,2811,2811,2811,2811,2811,2811,2811,2811,2811,2811,2811,2811,2812,2813,2812
</data>
 </layer>
</map>
