<?xml version="1.0" encoding="UTF-8"?>
<map version="1.10" tiledversion="1.11.2" orientation="orthogonal" renderorder="right-down" width="322" height="26" tilewidth="32" tileheight="32" infinite="0" nextlayerid="14" nextobjectid="208">
 <tileset firstgid="1" name="bg" tilewidth="32" tileheight="32" tilecount="704" columns="32">
  <image source="../assets/GameSprites/Tilesets/Dessert_BG.png" width="1024" height="704"/>
 </tileset>
 <tileset firstgid="705" name="MapaTiles" tilewidth="32" tileheight="32" tilecount="888" columns="8">
  <image source="../assets/GameSprites/Tilesets/base_tileset.png" width="256" height="3579"/>
  <tile id="0">
   <objectgroup draworder="index" id="4">
    <object id="17" x="0" y="0" width="32" height="32"/>
   </objectgroup>
  </tile>
  <tile id="1">
   <objectgroup draworder="index" id="2">
    <object id="1" x="0" y="0" width="32" height="32"/>
   </objectgroup>
  </tile>
  <tile id="2">
   <objectgroup draworder="index" id="2">
    <object id="1" x="0" y="0" width="32" height="32"/>
   </objectgroup>
  </tile>
  <tile id="3">
   <objectgroup draworder="index" id="2">
    <object id="1" x="0" y="0" width="32" height="32"/>
   </objectgroup>
  </tile>
  <tile id="4">
   <objectgroup draworder="index" id="2">
    <object id="1" x="0" y="0" width="32" height="32"/>
   </objectgroup>
  </tile>
  <tile id="5">
   <objectgroup draworder="index" id="2">
    <object id="1" x="0" y="0" width="32" height="32"/>
   </objectgroup>
  </tile>
  <tile id="6">
   <objectgroup draworder="index" id="2">
    <object id="1" x="0" y="0" width="32" height="32"/>
   </objectgroup>
  </tile>
  <tile id="7">
   <objectgroup draworder="index" id="2">
    <object id="1" x="0" y="0" width="32" height="32"/>
   </objectgroup>
  </tile>
  <tile id="8">
   <objectgroup draworder="index" id="2">
    <object id="1" x="0" y="0" width="32" height="32"/>
   </objectgroup>
  </tile>
  <tile id="9">
   <objectgroup draworder="index" id="2">
    <object id="1" x="0" y="0" width="32" height="32"/>
   </objectgroup>
  </tile>
  <tile id="10">
   <objectgroup draworder="index" id="2">
    <object id="1" x="0" y="0" width="32" height="32"/>
   </objectgroup>
  </tile>
  <tile id="11">
   <objectgroup draworder="index" id="2">
    <object id="1" x="0" y="0" width="32" height="32"/>
   </objectgroup>
  </tile>
  <tile id="12">
   <objectgroup draworder="index" id="2">
    <object id="1" x="0" y="0" width="32" height="32"/>
   </objectgroup>
  </tile>
  <tile id="13">
   <objectgroup draworder="index" id="2">
    <object id="1" x="0" y="0" width="32" height="32"/>
   </objectgroup>
  </tile>
  <tile id="14">
   <objectgroup draworder="index" id="2">
    <object id="1" x="0" y="0" width="32" height="32"/>
   </objectgroup>
  </tile>
  <tile id="15">
   <objectgroup draworder="index" id="2">
    <object id="1" x="0" y="0" width="32" height="32"/>
   </objectgroup>
  </tile>
  <tile id="16">
   <objectgroup draworder="index" id="2">
    <object id="1" x="0" y="0" width="32" height="32"/>
   </objectgroup>
  </tile>
  <tile id="17">
   <objectgroup draworder="index" id="2">
    <object id="1" x="0" y="0" width="32" height="32"/>
   </objectgroup>
  </tile>
  <tile id="18">
   <objectgroup draworder="index" id="2">
    <object id="1" x="0" y="0" width="32" height="32"/>
   </objectgroup>
  </tile>
  <tile id="19">
   <objectgroup draworder="index" id="2">
    <object id="1" x="0" y="0" width="32" height="32"/>
   </objectgroup>
  </tile>
  <tile id="20">
   <objectgroup draworder="index" id="2">
    <object id="1" x="0" y="0" width="32" height="32"/>
   </objectgroup>
  </tile>
  <tile id="21">
   <objectgroup draworder="index" id="2">
    <object id="1" x="0" y="0" width="32" height="32"/>
   </objectgroup>
  </tile>
  <tile id="22">
   <objectgroup draworder="index" id="2">
    <object id="1" x="0" y="0" width="32" height="32"/>
   </objectgroup>
  </tile>
  <tile id="23">
   <objectgroup draworder="index" id="2">
    <object id="1" x="0" y="0" width="32" height="32"/>
   </objectgroup>
  </tile>
  <tile id="24">
   <objectgroup draworder="index" id="2">
    <object id="1" x="0" y="0" width="32" height="32"/>
   </objectgroup>
  </tile>
  <tile id="25">
   <objectgroup draworder="index" id="2">
    <object id="1" x="0" y="0" width="32" height="32"/>
   </objectgroup>
  </tile>
  <tile id="26">
   <objectgroup draworder="index" id="2">
    <object id="1" x="0" y="0" width="32" height="32"/>
   </objectgroup>
  </tile>
  <tile id="27">
   <objectgroup draworder="index" id="2">
    <object id="1" x="0" y="0" width="32" height="32"/>
   </objectgroup>
  </tile>
  <tile id="28">
   <objectgroup draworder="index" id="2">
    <object id="1" x="0" y="0" width="32" height="32"/>
   </objectgroup>
  </tile>
  <tile id="29">
   <objectgroup draworder="index" id="2">
    <object id="1" x="0" y="0" width="32" height="32"/>
   </objectgroup>
  </tile>
  <tile id="30">
   <objectgroup draworder="index" id="2">
    <object id="1" x="0" y="0" width="32" height="32"/>
   </objectgroup>
  </tile>
  <tile id="31">
   <objectgroup draworder="index" id="2">
    <object id="1" x="0" y="0" width="32" height="32"/>
   </objectgroup>
  </tile>
  <tile id="32">
   <objectgroup draworder="index" id="2">
    <object id="1" x="0" y="0" width="32" height="32"/>
   </objectgroup>
  </tile>
  <tile id="33">
   <objectgroup draworder="index" id="2">
    <object id="1" x="0" y="0" width="32" height="32"/>
   </objectgroup>
  </tile>
  <tile id="34">
   <objectgroup draworder="index" id="2">
    <object id="1" x="0" y="0" width="32" height="32"/>
   </objectgroup>
  </tile>
  <tile id="35">
   <objectgroup draworder="index" id="2">
    <object id="1" x="0" y="0" width="32" height="32"/>
   </objectgroup>
  </tile>
  <tile id="36">
   <objectgroup draworder="index" id="2">
    <object id="1" x="0" y="0" width="32" height="32"/>
   </objectgroup>
  </tile>
  <tile id="37">
   <objectgroup draworder="index" id="2">
    <object id="1" x="0" y="0" width="32" height="32"/>
   </objectgroup>
  </tile>
  <tile id="38">
   <objectgroup draworder="index" id="2">
    <object id="1" x="0" y="0" width="32" height="32"/>
   </objectgroup>
  </tile>
  <tile id="39">
   <objectgroup draworder="index" id="2">
    <object id="1" x="0" y="0" width="32" height="32"/>
   </objectgroup>
  </tile>
  <tile id="40">
   <objectgroup draworder="index" id="2">
    <object id="1" x="0" y="0" width="32" height="32"/>
   </objectgroup>
  </tile>
  <tile id="41">
   <objectgroup draworder="index" id="2">
    <object id="1" x="0" y="0" width="32" height="32"/>
   </objectgroup>
  </tile>
  <tile id="42">
   <objectgroup draworder="index" id="2">
    <object id="1" x="0" y="0" width="32" height="32"/>
   </objectgroup>
  </tile>
  <tile id="43">
   <objectgroup draworder="index" id="2">
    <object id="1" x="0" y="0" width="32" height="32"/>
   </objectgroup>
  </tile>
  <tile id="44">
   <objectgroup draworder="index" id="2">
    <object id="1" x="0" y="0" width="32" height="32"/>
   </objectgroup>
  </tile>
  <tile id="45">
   <objectgroup draworder="index" id="2">
    <object id="1" x="0" y="0" width="32" height="32"/>
   </objectgroup>
  </tile>
  <tile id="46">
   <objectgroup draworder="index" id="2">
    <object id="1" x="0" y="0" width="32" height="32"/>
   </objectgroup>
  </tile>
  <tile id="47">
   <objectgroup draworder="index" id="2">
    <object id="1" x="0" y="0" width="32" height="32"/>
   </objectgroup>
  </tile>
  <tile id="48">
   <objectgroup draworder="index" id="2">
    <object id="1" x="0" y="0" width="32" height="32"/>
   </objectgroup>
  </tile>
  <tile id="49">
   <objectgroup draworder="index" id="2">
    <object id="1" x="0" y="0" width="32" height="32"/>
   </objectgroup>
  </tile>
  <tile id="50">
   <objectgroup draworder="index" id="2">
    <object id="1" x="0" y="0" width="32" height="32"/>
   </objectgroup>
  </tile>
  <tile id="51">
   <objectgroup draworder="index" id="2">
    <object id="1" x="0" y="0" width="32" height="32"/>
   </objectgroup>
  </tile>
  <tile id="52">
   <objectgroup draworder="index" id="2">
    <object id="1" x="0" y="0" width="32" height="32"/>
   </objectgroup>
  </tile>
  <tile id="53">
   <objectgroup draworder="index" id="2">
    <object id="1" x="0" y="0" width="32" height="32"/>
   </objectgroup>
  </tile>
  <tile id="54">
   <objectgroup draworder="index" id="2">
    <object id="1" x="0" y="0" width="32" height="32"/>
   </objectgroup>
  </tile>
  <tile id="55">
   <objectgroup draworder="index" id="2">
    <object id="1" x="0" y="0" width="32" height="32"/>
   </objectgroup>
  </tile>
  <tile id="56">
   <objectgroup draworder="index" id="2">
    <object id="1" x="0" y="0" width="32" height="32"/>
   </objectgroup>
  </tile>
  <tile id="57">
   <objectgroup draworder="index" id="2">
    <object id="1" x="0" y="0" width="32" height="32"/>
   </objectgroup>
  </tile>
  <tile id="58">
   <objectgroup draworder="index" id="2">
    <object id="1" x="0" y="0" width="32" height="32"/>
   </objectgroup>
  </tile>
  <tile id="59">
   <objectgroup draworder="index" id="2">
    <object id="1" x="0" y="0" width="32" height="32"/>
   </objectgroup>
  </tile>
  <tile id="60">
   <objectgroup draworder="index" id="2">
    <object id="1" x="0" y="0" width="32" height="32"/>
   </objectgroup>
  </tile>
  <tile id="61">
   <objectgroup draworder="index" id="2">
    <object id="1" x="0" y="0" width="32" height="32"/>
   </objectgroup>
  </tile>
  <tile id="62">
   <objectgroup draworder="index" id="2">
    <object id="1" x="0" y="0" width="32" height="32"/>
   </objectgroup>
  </tile>
  <tile id="63">
   <objectgroup draworder="index" id="2">
    <object id="1" x="0" y="0" width="32" height="32"/>
   </objectgroup>
  </tile>
  <tile id="64">
   <objectgroup draworder="index" id="2">
    <object id="1" x="0" y="0" width="32" height="32"/>
   </objectgroup>
  </tile>
  <tile id="65">
   <objectgroup draworder="index" id="2">
    <object id="1" x="0" y="0" width="32" height="32"/>
   </objectgroup>
  </tile>
  <tile id="66">
   <objectgroup draworder="index" id="2">
    <object id="1" x="0" y="0" width="32" height="32"/>
   </objectgroup>
  </tile>
  <tile id="67">
   <objectgroup draworder="index" id="2">
    <object id="1" x="0" y="0" width="32" height="32"/>
   </objectgroup>
  </tile>
  <tile id="68">
   <objectgroup draworder="index" id="2">
    <object id="1" x="0" y="0" width="32" height="32"/>
   </objectgroup>
  </tile>
  <tile id="69">
   <objectgroup draworder="index" id="2">
    <object id="1" x="0" y="0" width="32" height="32"/>
   </objectgroup>
  </tile>
  <tile id="70">
   <objectgroup draworder="index" id="2">
    <object id="1" x="0" y="0" width="32" height="32"/>
   </objectgroup>
  </tile>
  <tile id="72">
   <objectgroup draworder="index" id="2">
    <object id="1" x="0" y="0" width="32" height="32"/>
   </objectgroup>
  </tile>
  <tile id="73">
   <objectgroup draworder="index" id="2">
    <object id="1" x="0" y="0" width="32" height="32"/>
   </objectgroup>
  </tile>
  <tile id="74">
   <objectgroup draworder="index" id="2">
    <object id="1" x="0" y="0" width="32" height="32"/>
   </objectgroup>
  </tile>
  <tile id="75">
   <objectgroup draworder="index" id="2">
    <object id="1" x="0" y="0" width="32" height="32"/>
   </objectgroup>
  </tile>
  <tile id="76">
   <objectgroup draworder="index" id="2">
    <object id="1" x="0" y="0" width="32" height="32"/>
   </objectgroup>
  </tile>
  <tile id="77">
   <objectgroup draworder="index" id="2">
    <object id="1" x="0" y="0" width="32" height="32"/>
   </objectgroup>
  </tile>
  <tile id="78">
   <objectgroup draworder="index" id="2">
    <object id="1" x="0" y="0" width="32" height="32"/>
   </objectgroup>
  </tile>
  <tile id="79">
   <objectgroup draworder="index" id="2">
    <object id="1" x="0" y="0" width="32" height="32"/>
   </objectgroup>
  </tile>
  <tile id="80">
   <objectgroup draworder="index" id="2">
    <object id="1" x="0" y="0" width="32" height="32"/>
   </objectgroup>
  </tile>
  <tile id="81">
   <objectgroup draworder="index" id="2">
    <object id="1" x="0" y="0" width="32" height="32"/>
   </objectgroup>
  </tile>
  <tile id="82">
   <objectgroup draworder="index" id="2">
    <object id="1" x="0" y="0" width="32" height="32"/>
   </objectgroup>
  </tile>
  <tile id="83">
   <objectgroup draworder="index" id="2">
    <object id="1" x="0" y="0" width="32" height="32"/>
   </objectgroup>
  </tile>
  <tile id="84">
   <objectgroup draworder="index" id="2">
    <object id="1" x="0" y="0" width="32" height="32"/>
   </objectgroup>
  </tile>
  <tile id="85">
   <objectgroup draworder="index" id="2">
    <object id="1" x="0" y="0" width="32" height="32"/>
   </objectgroup>
  </tile>
  <tile id="86">
   <objectgroup draworder="index" id="2">
    <object id="1" x="0" y="0" width="32" height="32"/>
   </objectgroup>
  </tile>
  <tile id="87">
   <objectgroup draworder="index" id="2">
    <object id="1" x="0" y="0" width="32" height="32"/>
   </objectgroup>
  </tile>
  <tile id="88">
   <objectgroup draworder="index" id="2">
    <object id="1" x="32" y="0.181818">
     <polygon points="0,0 -3.81818,-0.181818 -32.1818,13.7273 -31.9091,31.6364 0,31.8182"/>
    </object>
   </objectgroup>
  </tile>
  <tile id="89">
   <objectgroup draworder="index" id="2">
    <object id="1" x="0.0909091" y="0.272727">
     <polygon points="0,0 0,31.9091 31.7273,31.8182 32,13.6364 3.18182,-0.454545"/>
    </object>
   </objectgroup>
  </tile>
  <tile id="90">
   <objectgroup draworder="index" id="2">
    <object id="1" x="0" y="0" width="32" height="32"/>
   </objectgroup>
  </tile>
  <tile id="91">
   <objectgroup draworder="index" id="2">
    <object id="1" x="0" y="0" width="32" height="32"/>
   </objectgroup>
  </tile>
  <tile id="92">
   <objectgroup draworder="index" id="2">
    <object id="1" x="0" y="0" width="32" height="32"/>
   </objectgroup>
  </tile>
  <tile id="93">
   <objectgroup draworder="index" id="2">
    <object id="1" x="0" y="0" width="32" height="32"/>
   </objectgroup>
  </tile>
  <tile id="94">
   <objectgroup draworder="index" id="2">
    <object id="1" x="0" y="0" width="32" height="32"/>
   </objectgroup>
  </tile>
  <tile id="95">
   <objectgroup draworder="index" id="2">
    <object id="1" x="0" y="0" width="32" height="32"/>
   </objectgroup>
  </tile>
  <tile id="96">
   <objectgroup draworder="index" id="2">
    <object id="1" x="0" y="0" width="32" height="32"/>
   </objectgroup>
  </tile>
  <tile id="97">
   <objectgroup draworder="index" id="2">
    <object id="1" x="0" y="0" width="32" height="32"/>
   </objectgroup>
  </tile>
  <tile id="98">
   <objectgroup draworder="index" id="2">
    <object id="1" x="0" y="0" width="32" height="32"/>
   </objectgroup>
  </tile>
  <tile id="99">
   <objectgroup draworder="index" id="2">
    <object id="1" x="0" y="0" width="32" height="32"/>
   </objectgroup>
  </tile>
  <tile id="100">
   <objectgroup draworder="index" id="2">
    <object id="1" x="0" y="0" width="32" height="32"/>
   </objectgroup>
  </tile>
  <tile id="101">
   <objectgroup draworder="index" id="2">
    <object id="1" x="0" y="0" width="32" height="32"/>
   </objectgroup>
  </tile>
  <tile id="102">
   <objectgroup draworder="index" id="2">
    <object id="1" x="0" y="0" width="32" height="32"/>
   </objectgroup>
  </tile>
  <tile id="103">
   <objectgroup draworder="index" id="2">
    <object id="1" x="0" y="0" width="32" height="32"/>
   </objectgroup>
  </tile>
  <tile id="104">
   <objectgroup draworder="index" id="2">
    <object id="1" x="0" y="0" width="32" height="32"/>
   </objectgroup>
  </tile>
  <tile id="105">
   <objectgroup draworder="index" id="2">
    <object id="1" x="0" y="0" width="32" height="32"/>
   </objectgroup>
  </tile>
  <tile id="106">
   <objectgroup draworder="index" id="2">
    <object id="1" x="0" y="0" width="32" height="32"/>
   </objectgroup>
  </tile>
  <tile id="107">
   <objectgroup draworder="index" id="2">
    <object id="1" x="0" y="0" width="32" height="32"/>
   </objectgroup>
  </tile>
  <tile id="108">
   <objectgroup draworder="index" id="2">
    <object id="1" x="0" y="0" width="32" height="32"/>
   </objectgroup>
  </tile>
  <tile id="109">
   <objectgroup draworder="index" id="2">
    <object id="1" x="0" y="0" width="32" height="32"/>
   </objectgroup>
  </tile>
  <tile id="110">
   <objectgroup draworder="index" id="2">
    <object id="1" x="0" y="0" width="32" height="32"/>
   </objectgroup>
  </tile>
  <tile id="111">
   <objectgroup draworder="index" id="2">
    <object id="1" x="0" y="0" width="32" height="32"/>
   </objectgroup>
  </tile>
  <tile id="112">
   <objectgroup draworder="index" id="2">
    <object id="1" x="0.272727" y="18">
     <polygon points="0,0 27.8182,13.8182 31.7273,14 31.6364,-18 -0.363636,-17.9091"/>
    </object>
   </objectgroup>
  </tile>
  <tile id="113">
   <objectgroup draworder="index" id="2">
    <object id="1" x="0.0909091" y="32">
     <polygon points="0,0 3.72727,0 31.8182,-14.0909 31.8182,-31.9091 0.0909091,-31.8182"/>
    </object>
   </objectgroup>
  </tile>
  <tile id="114">
   <objectgroup draworder="index" id="2">
    <object id="1" x="0" y="0" width="32" height="32"/>
   </objectgroup>
  </tile>
  <tile id="115">
   <objectgroup draworder="index" id="2">
    <object id="1" x="0" y="0" width="32" height="32"/>
   </objectgroup>
  </tile>
  <tile id="116">
   <objectgroup draworder="index" id="2">
    <object id="1" x="0" y="0" width="32" height="32"/>
   </objectgroup>
  </tile>
  <tile id="117">
   <objectgroup draworder="index" id="2">
    <object id="1" x="0" y="0" width="32" height="32"/>
   </objectgroup>
  </tile>
  <tile id="118">
   <objectgroup draworder="index" id="2">
    <object id="1" x="0" y="0" width="32" height="32"/>
   </objectgroup>
  </tile>
  <tile id="119">
   <objectgroup draworder="index" id="2">
    <object id="1" x="0" y="0" width="32" height="32"/>
   </objectgroup>
  </tile>
  <tile id="120">
   <objectgroup draworder="index" id="2">
    <object id="1" x="30.5037" y="0.216851">
     <polygon points="0,0 -30.3592,29.8532 -30.4314,31.588 1.37339,31.7326 1.44567,-0.433702"/>
    </object>
   </objectgroup>
  </tile>
  <tile id="121">
   <objectgroup draworder="index" id="2">
    <object id="1" x="1.66253" y="-0.0722837">
     <polygon points="0,0 29.9255,29.8532 30.2869,31.7326 -1.59024,32.0217 -1.80709,0"/>
    </object>
   </objectgroup>
  </tile>
  <tile id="122">
   <objectgroup draworder="index" id="2">
    <object id="1" x="-0.181818" y="30.2727">
     <polygon points="0,0 30.3636,-30.4545 32.0909,-30.4545 32.1818,1.27273 0.272727,1.72727"/>
    </object>
   </objectgroup>
  </tile>
  <tile id="123">
   <objectgroup draworder="index" id="2">
    <object id="1" x="0.0909091" y="0.181818">
     <polygon points="0,0 0.0909091,31.5455 31.8182,31.7273 31.8182,29.7273 1.54545,-0.181818"/>
    </object>
   </objectgroup>
  </tile>
  <tile id="124">
   <objectgroup draworder="index" id="2">
    <object id="1" x="0" y="0" width="32" height="32"/>
   </objectgroup>
  </tile>
  <tile id="125">
   <objectgroup draworder="index" id="2">
    <object id="1" x="0" y="0" width="32" height="32"/>
   </objectgroup>
  </tile>
  <tile id="126">
   <objectgroup draworder="index" id="2">
    <object id="1" x="0" y="0" width="32" height="32"/>
   </objectgroup>
  </tile>
  <tile id="127">
   <objectgroup draworder="index" id="2">
    <object id="1" x="0" y="0" width="32" height="32"/>
   </objectgroup>
  </tile>
  <tile id="128">
   <objectgroup draworder="index" id="2">
    <object id="1" x="0" y="0" width="32" height="32"/>
   </objectgroup>
  </tile>
  <tile id="129">
   <objectgroup draworder="index" id="2">
    <object id="1" x="0" y="0" width="32" height="32"/>
   </objectgroup>
  </tile>
  <tile id="130">
   <objectgroup draworder="index" id="2">
    <object id="1" x="0.272727" y="32.1818">
     <polygon points="0,0 1.54545,-0.363636 31.5455,-30.6364 31.6364,-32.0909 -0.272727,-32"/>
    </object>
   </objectgroup>
  </tile>
  <tile id="131">
   <objectgroup draworder="index" id="2">
    <object id="1" x="32.0909" y="31.9091">
     <polygon points="0,0 -1.72727,0 -32.1818,-30.5455 -32.1818,-32 -0.272727,-31.8182"/>
    </object>
   </objectgroup>
  </tile>
  <tile id="132">
   <objectgroup draworder="index" id="2">
    <object id="1" x="0" y="0" width="32" height="32"/>
   </objectgroup>
  </tile>
  <tile id="133">
   <objectgroup draworder="index" id="2">
    <object id="1" x="0" y="0" width="32" height="32"/>
   </objectgroup>
  </tile>
  <tile id="134">
   <objectgroup draworder="index" id="2">
    <object id="1" x="0" y="0" width="32" height="32"/>
   </objectgroup>
  </tile>
  <tile id="135">
   <objectgroup draworder="index" id="2">
    <object id="1" x="0" y="0" width="32" height="32"/>
   </objectgroup>
  </tile>
  <tile id="136">
   <objectgroup draworder="index" id="2">
    <object id="1" x="0" y="0" width="32" height="32"/>
   </objectgroup>
  </tile>
  <tile id="137">
   <objectgroup draworder="index" id="2">
    <object id="1" x="0" y="0" width="32" height="32"/>
   </objectgroup>
  </tile>
  <tile id="138">
   <objectgroup draworder="index" id="2">
    <object id="1" x="32.0909" y="0.272727">
     <polygon points="0,0 -1.81818,-0.181818 -32,29.7273 -32,31.5455 -0.0909091,31.6364"/>
    </object>
   </objectgroup>
  </tile>
  <tile id="139">
   <objectgroup draworder="index" id="2">
    <object id="1" x="0.181818" y="0.181818">
     <polygon points="0,0 -0.0909091,31.6364 31.7273,31.6364 31.7273,29.9091 1.36364,-0.363636"/>
    </object>
   </objectgroup>
  </tile>
  <tile id="140">
   <objectgroup draworder="index" id="2">
    <object id="1" x="0" y="0" width="32" height="32"/>
   </objectgroup>
  </tile>
  <tile id="141">
   <objectgroup draworder="index" id="2">
    <object id="1" x="0" y="0" width="32" height="32"/>
   </objectgroup>
  </tile>
  <tile id="142">
   <objectgroup draworder="index" id="2">
    <object id="1" x="0" y="0" width="32" height="32"/>
   </objectgroup>
  </tile>
  <tile id="143">
   <objectgroup draworder="index" id="2">
    <object id="1" x="0" y="0" width="32" height="32"/>
   </objectgroup>
  </tile>
  <tile id="144">
   <objectgroup draworder="index" id="2">
    <object id="1" x="0.181818" y="1.72727">
     <polygon points="0,0 30,30.0909 31.5455,30.1818 31.6364,-1.81818 -0.181818,-1.63636"/>
    </object>
   </objectgroup>
  </tile>
  <tile id="145">
   <objectgroup draworder="index" id="2">
    <object id="1" x="2.09091" y="32">
     <polygon points="0,0 29.9091,-30.1818 29.8182,-32.0909 -2,-31.9091 -2.09091,-0.454545"/>
    </object>
   </objectgroup>
  </tile>
  <tile id="146">
   <objectgroup draworder="index" id="2">
    <object id="1" x="0.363636" y="2">
     <polygon points="0,0 29.7273,29.6364 31.3636,29.7273 31.7273,-2.09091 -0.363636,-2.27273"/>
    </object>
   </objectgroup>
  </tile>
  <tile id="147">
   <objectgroup draworder="index" id="2">
    <object id="1" x="0.181818" y="32.0909">
     <polygon points="0,0 1.72727,-0.181818 31.8182,-30.2727 31.9091,-32.1818 -0.272727,-32.0909"/>
    </object>
   </objectgroup>
  </tile>
  <tile id="148">
   <objectgroup draworder="index" id="2">
    <object id="1" x="0" y="0" width="32" height="32"/>
   </objectgroup>
  </tile>
  <tile id="149">
   <objectgroup draworder="index" id="2">
    <object id="1" x="0" y="0" width="32" height="32"/>
   </objectgroup>
  </tile>
  <tile id="150">
   <objectgroup draworder="index" id="2">
    <object id="1" x="0" y="0" width="32" height="32"/>
   </objectgroup>
  </tile>
  <tile id="151">
   <objectgroup draworder="index" id="2">
    <object id="1" x="0" y="0" width="32" height="32"/>
   </objectgroup>
  </tile>
  <tile id="152">
   <objectgroup draworder="index" id="2">
    <object id="1" x="0" y="30.1818">
     <polygon points="0,0 28.5455,-14.0909 31.9091,-14.2727 31.9091,1.63636 0.0909091,1.54545"/>
    </object>
   </objectgroup>
  </tile>
  <tile id="153">
   <objectgroup draworder="index" id="2">
    <object id="1" x="0.272727" y="14.0909">
     <polygon points="0,0 28,-13.9091 31.5455,-14 31.5455,17.8182 -0.272727,17.8182"/>
    </object>
   </objectgroup>
  </tile>
  <tile id="154">
   <objectgroup draworder="index" id="2">
    <object id="1" x="0.181818" y="0.272727">
     <polygon points="0,0 3.54545,-0.0909091 31.8182,13.8182 32,31.2727 -0.0909091,31.7273"/>
    </object>
   </objectgroup>
  </tile>
  <tile id="155">
   <objectgroup draworder="index" id="2">
    <object id="1" x="0.181818" y="15.7273">
     <polygon points="0,0 3.27273,0.181818 31.5455,14 31.7273,15.8182 -0.181818,16.4545"/>
    </object>
   </objectgroup>
  </tile>
  <tile id="156">
   <objectgroup draworder="index" id="2">
    <object id="1" x="0" y="0" width="32" height="32"/>
   </objectgroup>
  </tile>
  <tile id="157">
   <objectgroup draworder="index" id="2">
    <object id="1" x="0" y="0" width="32" height="32"/>
   </objectgroup>
  </tile>
  <tile id="158">
   <objectgroup draworder="index" id="2">
    <object id="1" x="0" y="0" width="32" height="32"/>
   </objectgroup>
  </tile>
  <tile id="159">
   <objectgroup draworder="index" id="2">
    <object id="1" x="0" y="0" width="32" height="32"/>
   </objectgroup>
  </tile>
  <tile id="160">
   <objectgroup draworder="index" id="2">
    <object id="1" x="0" y="0" width="32" height="32"/>
   </objectgroup>
  </tile>
  <tile id="161">
   <objectgroup draworder="index" id="2">
    <object id="1" x="0" y="0" width="32" height="32"/>
   </objectgroup>
  </tile>
  <tile id="162">
   <objectgroup draworder="index" id="2">
    <object id="1" x="0" y="0" width="32" height="32"/>
   </objectgroup>
  </tile>
  <tile id="163">
   <objectgroup draworder="index" id="2">
    <object id="1" x="0" y="0" width="32" height="32"/>
   </objectgroup>
  </tile>
  <tile id="164">
   <objectgroup draworder="index" id="2">
    <object id="1" x="0" y="0" width="32" height="32"/>
   </objectgroup>
  </tile>
  <tile id="165">
   <objectgroup draworder="index" id="2">
    <object id="1" x="0" y="0" width="32" height="32"/>
   </objectgroup>
  </tile>
  <tile id="166">
   <objectgroup draworder="index" id="2">
    <object id="1" x="0" y="0" width="32" height="32"/>
   </objectgroup>
  </tile>
  <tile id="167">
   <objectgroup draworder="index" id="2">
    <object id="1" x="0" y="0" width="32" height="32"/>
   </objectgroup>
  </tile>
  <tile id="168">
   <objectgroup draworder="index" id="2">
    <object id="1" x="0" y="0" width="32" height="32"/>
   </objectgroup>
  </tile>
  <tile id="169">
   <objectgroup draworder="index" id="2">
    <object id="1" x="0" y="0" width="32" height="32"/>
   </objectgroup>
  </tile>
  <tile id="170">
   <objectgroup draworder="index" id="2">
    <object id="1" x="0" y="0" width="32" height="32"/>
   </objectgroup>
  </tile>
  <tile id="171">
   <objectgroup draworder="index" id="2">
    <object id="1" x="0" y="0" width="32" height="32"/>
   </objectgroup>
  </tile>
  <tile id="172">
   <objectgroup draworder="index" id="2">
    <object id="1" x="0.181818" y="30.4545">
     <polygon points="0,0 28,-14.4545 31.9091,-14.4545 31.9091,1.54545 -0.181818,1.54545"/>
    </object>
   </objectgroup>
  </tile>
  <tile id="173">
   <objectgroup draworder="index" id="2">
    <object id="1" x="0.272727" y="14.3636">
     <polygon points="0,0 27.9091,-14.1818 31.5455,-14.2727 31.9091,17.3636 -0.0909091,17.6364"/>
    </object>
   </objectgroup>
  </tile>
  <tile id="174">
   <objectgroup draworder="index" id="2">
    <object id="1" x="-0.0909091" y="0.0909091">
     <polygon points="0,0 4,0 32,14.0909 32.1818,31.8182 0.0909091,31.9091"/>
    </object>
   </objectgroup>
  </tile>
  <tile id="175">
   <objectgroup draworder="index" id="2">
    <object id="1" x="0" y="15.8182">
     <polygon points="0,0 3.63636,0 31.7273,14.1818 32,16 0,16"/>
    </object>
   </objectgroup>
  </tile>
  <tile id="176">
   <objectgroup draworder="index" id="2">
    <object id="1" x="32.0909" y="15.9091">
     <polygon points="0,0 -4,0 -32.0909,-14.1818 -32.0909,-15.8182 0,-15.8182"/>
    </object>
   </objectgroup>
  </tile>
  <tile id="177">
   <objectgroup draworder="index" id="2">
    <object id="1" x="31.9091" y="32">
     <polygon points="0,0 -3.81818,-0.0909091 -32.0909,-14.2727 -32.0909,-32.1818 0,-31.9091"/>
    </object>
   </objectgroup>
  </tile>
  <tile id="178">
   <objectgroup draworder="index" id="2">
    <object id="1" x="3.90909" y="31.7273">
     <polygon points="0,0 28,-13.9091 27.8182,-31.5455 -3.72727,-31.6364 -3.90909,-0.181818"/>
    </object>
   </objectgroup>
  </tile>
  <tile id="179">
   <objectgroup draworder="index" id="2">
    <object id="1" x="0.181818" y="16.0909">
     <polygon points="0,0 3.54545,-0.181818 31.8182,-14.2727 31.7273,-16.0909 -0.0909091,-16"/>
    </object>
   </objectgroup>
  </tile>
  <tile id="180">
   <objectgroup draworder="index" id="2">
    <object id="1" x="0.363636" y="32">
     <polygon points="0,0 3.36364,-0.0909091 31.4545,-14.0909 31.6364,-32 -0.363636,-31.9091"/>
    </object>
   </objectgroup>
  </tile>
  <tile id="181">
   <objectgroup draworder="index" id="2">
    <object id="1" x="0.0909091" y="15.9091">
     <polygon points="0,0 3.81818,0 31.8182,-14.1818 31.8182,-15.8182 0,-15.8182"/>
    </object>
   </objectgroup>
  </tile>
  <tile id="182">
   <objectgroup draworder="index" id="2">
    <object id="1" x="0.181818" y="2">
     <polygon points="0,0 27.9091,13.8182 31.8182,13.7273 31.9091,-2 -0.363636,-1.81818"/>
    </object>
   </objectgroup>
  </tile>
  <tile id="183">
   <objectgroup draworder="index" id="2">
    <object id="1" x="0.272727" y="18">
     <polygon points="0,0 27.7273,13.7273 31.8182,13.6364 31.5455,-18.0909 -0.272727,-18.0909"/>
    </object>
   </objectgroup>
  </tile>
  <tile id="184">
   <objectgroup draworder="index" id="2">
    <object id="1" x="0" y="0" width="32" height="32"/>
   </objectgroup>
  </tile>
  <tile id="185">
   <objectgroup draworder="index" id="2">
    <object id="1" x="0" y="0" width="32" height="32"/>
   </objectgroup>
  </tile>
  <tile id="186">
   <objectgroup draworder="index" id="2">
    <object id="1" x="0" y="0" width="32" height="32"/>
   </objectgroup>
  </tile>
  <tile id="187">
   <objectgroup draworder="index" id="2">
    <object id="1" x="0" y="0" width="32" height="32"/>
   </objectgroup>
  </tile>
  <tile id="188">
   <objectgroup draworder="index" id="2">
    <object id="1" x="0" y="0" width="32" height="32"/>
   </objectgroup>
  </tile>
  <tile id="189">
   <objectgroup draworder="index" id="2">
    <object id="1" x="0" y="0" width="32" height="32"/>
   </objectgroup>
  </tile>
  <tile id="190">
   <objectgroup draworder="index" id="2">
    <object id="1" x="0" y="0" width="32" height="32"/>
   </objectgroup>
  </tile>
  <tile id="191">
   <objectgroup draworder="index" id="2">
    <object id="1" x="0" y="0" width="32" height="32"/>
   </objectgroup>
  </tile>
  <tile id="192">
   <objectgroup draworder="index" id="2">
    <object id="1" x="0" y="0" width="32" height="32"/>
   </objectgroup>
  </tile>
  <tile id="193">
   <objectgroup draworder="index" id="2">
    <object id="1" x="0" y="0" width="32" height="32"/>
   </objectgroup>
  </tile>
  <tile id="194">
   <objectgroup draworder="index" id="2">
    <object id="1" x="0" y="0" width="32" height="32"/>
   </objectgroup>
  </tile>
  <tile id="195">
   <objectgroup draworder="index" id="2">
    <object id="1" x="0" y="0" width="32" height="32"/>
   </objectgroup>
  </tile>
  <tile id="196">
   <objectgroup draworder="index" id="2">
    <object id="1" x="0" y="0" width="32" height="32"/>
   </objectgroup>
  </tile>
  <tile id="197">
   <objectgroup draworder="index" id="2">
    <object id="1" x="0" y="0" width="32" height="32"/>
   </objectgroup>
  </tile>
  <tile id="198">
   <objectgroup draworder="index" id="2">
    <object id="1" x="0" y="0" width="32" height="32"/>
   </objectgroup>
  </tile>
  <tile id="199">
   <objectgroup draworder="index" id="2">
    <object id="1" x="0" y="0" width="32" height="32"/>
   </objectgroup>
  </tile>
  <tile id="200">
   <objectgroup draworder="index" id="2">
    <object id="1" x="0" y="0" width="32" height="32"/>
   </objectgroup>
  </tile>
  <tile id="201">
   <objectgroup draworder="index" id="2">
    <object id="1" x="0" y="0" width="32" height="32"/>
   </objectgroup>
  </tile>
  <tile id="202">
   <objectgroup draworder="index" id="2">
    <object id="1" x="0" y="0" width="32" height="32"/>
   </objectgroup>
  </tile>
  <tile id="203">
   <objectgroup draworder="index" id="2">
    <object id="1" x="0" y="0" width="32" height="32"/>
   </objectgroup>
  </tile>
  <tile id="204">
   <objectgroup draworder="index" id="2">
    <object id="1" x="0" y="0" width="32" height="32"/>
   </objectgroup>
  </tile>
  <tile id="205">
   <objectgroup draworder="index" id="2">
    <object id="1" x="0" y="0" width="32" height="32"/>
   </objectgroup>
  </tile>
  <tile id="206">
   <objectgroup draworder="index" id="2">
    <object id="1" x="0" y="0" width="32" height="32"/>
   </objectgroup>
  </tile>
  <tile id="207">
   <objectgroup draworder="index" id="2">
    <object id="1" x="0" y="0" width="32" height="32"/>
   </objectgroup>
  </tile>
  <tile id="208">
   <objectgroup draworder="index" id="2">
    <object id="1" x="0" y="0" width="32" height="32"/>
   </objectgroup>
  </tile>
  <tile id="209">
   <objectgroup draworder="index" id="2">
    <object id="1" x="0" y="0" width="32" height="32"/>
   </objectgroup>
  </tile>
  <tile id="210">
   <objectgroup draworder="index" id="2">
    <object id="1" x="0" y="0" width="32" height="32"/>
   </objectgroup>
  </tile>
  <tile id="211">
   <objectgroup draworder="index" id="2">
    <object id="1" x="0" y="0" width="32" height="32"/>
   </objectgroup>
  </tile>
  <tile id="212">
   <objectgroup draworder="index" id="2">
    <object id="1" x="0" y="0" width="32" height="32"/>
   </objectgroup>
  </tile>
  <tile id="213">
   <objectgroup draworder="index" id="2">
    <object id="1" x="0" y="0" width="32" height="32"/>
   </objectgroup>
  </tile>
  <tile id="214">
   <objectgroup draworder="index" id="2">
    <object id="1" x="0" y="0" width="32" height="32"/>
   </objectgroup>
  </tile>
  <tile id="215">
   <objectgroup draworder="index" id="2">
    <object id="1" x="0" y="0" width="32" height="32"/>
   </objectgroup>
  </tile>
  <tile id="216">
   <objectgroup draworder="index" id="2">
    <object id="1" x="0" y="0" width="32" height="32"/>
   </objectgroup>
  </tile>
  <tile id="217">
   <objectgroup draworder="index" id="2">
    <object id="1" x="0" y="0" width="32" height="32"/>
   </objectgroup>
  </tile>
  <tile id="218">
   <objectgroup draworder="index" id="2">
    <object id="1" x="0" y="0" width="32" height="32"/>
   </objectgroup>
  </tile>
  <tile id="219">
   <objectgroup draworder="index" id="2">
    <object id="1" x="0" y="0" width="32" height="32"/>
   </objectgroup>
  </tile>
  <tile id="220">
   <objectgroup draworder="index" id="2">
    <object id="1" x="0" y="0" width="32" height="32"/>
   </objectgroup>
  </tile>
  <tile id="221">
   <objectgroup draworder="index" id="2">
    <object id="1" x="0" y="0" width="32" height="32"/>
   </objectgroup>
  </tile>
  <tile id="222">
   <objectgroup draworder="index" id="2">
    <object id="1" x="0" y="0" width="32" height="32"/>
   </objectgroup>
  </tile>
  <tile id="223">
   <objectgroup draworder="index" id="2">
    <object id="1" x="0" y="0" width="32" height="32"/>
   </objectgroup>
  </tile>
  <tile id="224">
   <objectgroup draworder="index" id="2">
    <object id="1" x="0" y="0" width="32" height="32"/>
   </objectgroup>
  </tile>
  <tile id="225">
   <objectgroup draworder="index" id="2">
    <object id="1" x="0" y="0" width="32" height="32"/>
   </objectgroup>
  </tile>
  <tile id="226">
   <objectgroup draworder="index" id="2">
    <object id="1" x="0" y="0" width="32" height="32"/>
   </objectgroup>
  </tile>
  <tile id="227">
   <objectgroup draworder="index" id="2">
    <object id="1" x="0" y="0" width="32" height="32"/>
   </objectgroup>
  </tile>
  <tile id="228">
   <objectgroup draworder="index" id="2">
    <object id="1" x="0" y="0" width="32" height="32"/>
   </objectgroup>
  </tile>
  <tile id="229">
   <objectgroup draworder="index" id="2">
    <object id="1" x="0" y="0" width="32" height="32"/>
   </objectgroup>
  </tile>
  <tile id="230">
   <objectgroup draworder="index" id="2">
    <object id="1" x="0" y="0" width="32" height="32"/>
   </objectgroup>
  </tile>
  <tile id="231">
   <objectgroup draworder="index" id="2">
    <object id="1" x="0" y="0" width="32" height="32"/>
   </objectgroup>
  </tile>
  <tile id="232">
   <objectgroup draworder="index" id="2">
    <object id="1" x="0" y="0" width="32" height="32"/>
   </objectgroup>
  </tile>
  <tile id="233">
   <objectgroup draworder="index" id="2">
    <object id="1" x="0" y="0" width="32" height="32"/>
   </objectgroup>
  </tile>
  <tile id="234">
   <objectgroup draworder="index" id="2">
    <object id="1" x="0" y="0" width="32" height="32"/>
   </objectgroup>
  </tile>
  <tile id="235">
   <objectgroup draworder="index" id="2">
    <object id="1" x="0" y="0" width="32" height="32"/>
   </objectgroup>
  </tile>
  <tile id="236">
   <objectgroup draworder="index" id="2">
    <object id="1" x="0" y="0" width="32" height="32"/>
   </objectgroup>
  </tile>
  <tile id="237">
   <objectgroup draworder="index" id="2">
    <object id="1" x="0" y="0" width="32" height="32"/>
   </objectgroup>
  </tile>
  <tile id="238">
   <objectgroup draworder="index" id="2">
    <object id="1" x="0" y="0" width="32" height="32"/>
   </objectgroup>
  </tile>
  <tile id="239">
   <objectgroup draworder="index" id="2">
    <object id="1" x="0" y="0" width="32" height="32"/>
   </objectgroup>
  </tile>
  <tile id="240">
   <objectgroup draworder="index" id="2">
    <object id="1" x="0" y="0" width="32" height="32"/>
   </objectgroup>
  </tile>
  <tile id="241">
   <objectgroup draworder="index" id="2">
    <object id="1" x="0" y="0" width="32" height="32"/>
   </objectgroup>
  </tile>
  <tile id="242">
   <objectgroup draworder="index" id="2">
    <object id="1" x="0" y="0" width="32" height="32"/>
   </objectgroup>
  </tile>
  <tile id="243">
   <objectgroup draworder="index" id="2">
    <object id="1" x="0" y="0" width="32" height="32"/>
   </objectgroup>
  </tile>
  <tile id="244">
   <objectgroup draworder="index" id="2">
    <object id="1" x="0" y="0" width="32" height="32"/>
   </objectgroup>
  </tile>
  <tile id="245">
   <objectgroup draworder="index" id="2">
    <object id="1" x="0" y="0" width="32" height="32"/>
   </objectgroup>
  </tile>
  <tile id="246">
   <objectgroup draworder="index" id="2">
    <object id="1" x="0" y="0" width="32" height="32"/>
   </objectgroup>
  </tile>
  <tile id="247">
   <objectgroup draworder="index" id="2">
    <object id="1" x="0" y="0" width="32" height="32"/>
   </objectgroup>
  </tile>
  <tile id="248">
   <objectgroup draworder="index" id="2">
    <object id="1" x="0" y="0" width="32" height="32"/>
   </objectgroup>
  </tile>
  <tile id="249">
   <objectgroup draworder="index" id="2">
    <object id="1" x="0" y="0" width="32" height="32"/>
   </objectgroup>
  </tile>
  <tile id="250">
   <objectgroup draworder="index" id="2">
    <object id="1" x="0" y="0" width="32" height="32"/>
   </objectgroup>
  </tile>
  <tile id="251">
   <objectgroup draworder="index" id="2">
    <object id="1" x="0" y="0" width="32" height="32"/>
   </objectgroup>
  </tile>
  <tile id="252">
   <objectgroup draworder="index" id="2">
    <object id="1" x="0" y="0" width="32" height="32"/>
   </objectgroup>
  </tile>
  <tile id="253">
   <objectgroup draworder="index" id="2">
    <object id="1" x="0" y="0" width="32" height="32"/>
   </objectgroup>
  </tile>
  <tile id="254">
   <objectgroup draworder="index" id="2">
    <object id="1" x="0" y="0" width="32" height="32"/>
   </objectgroup>
  </tile>
  <tile id="256">
   <objectgroup draworder="index" id="2">
    <object id="1" x="0" y="0" width="32" height="32"/>
   </objectgroup>
  </tile>
  <tile id="257">
   <objectgroup draworder="index" id="2">
    <object id="1" x="0" y="0" width="32" height="32"/>
   </objectgroup>
  </tile>
  <tile id="258">
   <objectgroup draworder="index" id="2">
    <object id="1" x="0" y="0" width="32" height="32"/>
   </objectgroup>
  </tile>
  <tile id="259">
   <objectgroup draworder="index" id="2">
    <object id="1" x="0" y="0" width="32" height="32"/>
   </objectgroup>
  </tile>
  <tile id="260">
   <objectgroup draworder="index" id="2">
    <object id="1" x="0" y="0" width="32" height="32"/>
   </objectgroup>
  </tile>
  <tile id="261">
   <objectgroup draworder="index" id="2">
    <object id="1" x="0" y="0" width="32" height="32"/>
   </objectgroup>
  </tile>
  <tile id="262">
   <objectgroup draworder="index" id="2">
    <object id="1" x="0" y="0" width="32" height="32"/>
   </objectgroup>
  </tile>
  <tile id="263">
   <objectgroup draworder="index" id="2">
    <object id="1" x="0" y="0" width="32" height="32"/>
   </objectgroup>
  </tile>
  <tile id="264">
   <objectgroup draworder="index" id="2">
    <object id="1" x="0" y="0" width="32" height="32"/>
   </objectgroup>
  </tile>
  <tile id="265">
   <objectgroup draworder="index" id="2">
    <object id="1" x="0" y="0" width="32" height="32"/>
   </objectgroup>
  </tile>
  <tile id="266">
   <objectgroup draworder="index" id="2">
    <object id="1" x="0" y="0" width="32" height="32"/>
   </objectgroup>
  </tile>
  <tile id="267">
   <objectgroup draworder="index" id="2">
    <object id="1" x="0" y="0" width="32" height="32"/>
   </objectgroup>
  </tile>
  <tile id="268">
   <objectgroup draworder="index" id="2">
    <object id="1" x="0" y="0" width="32" height="32"/>
   </objectgroup>
  </tile>
  <tile id="269">
   <objectgroup draworder="index" id="2">
    <object id="1" x="0" y="0" width="32" height="32"/>
   </objectgroup>
  </tile>
  <tile id="270">
   <objectgroup draworder="index" id="2">
    <object id="1" x="0" y="0" width="32" height="32"/>
   </objectgroup>
  </tile>
  <tile id="271">
   <objectgroup draworder="index" id="2">
    <object id="1" x="0" y="0" width="32" height="32"/>
   </objectgroup>
  </tile>
  <tile id="272">
   <objectgroup draworder="index" id="4">
    <object id="3" x="32.0909" y="0.181818">
     <polygon points="0,0 -3.81818,-0.181818 -32.1818,13.7273 -31.9091,31.6364 0,31.8182"/>
    </object>
   </objectgroup>
  </tile>
  <tile id="274">
   <objectgroup draworder="index" id="2">
    <object id="1" x="0" y="0" width="32" height="32"/>
   </objectgroup>
  </tile>
  <tile id="275">
   <objectgroup draworder="index" id="2">
    <object id="1" x="0" y="0" width="32" height="32"/>
   </objectgroup>
  </tile>
  <tile id="276">
   <objectgroup draworder="index" id="2">
    <object id="1" x="0" y="0" width="32" height="32"/>
   </objectgroup>
  </tile>
  <tile id="277">
   <objectgroup draworder="index" id="2">
    <object id="1" x="0" y="0" width="32" height="32"/>
   </objectgroup>
  </tile>
  <tile id="278">
   <objectgroup draworder="index" id="2">
    <object id="1" x="0" y="0" width="32" height="32"/>
   </objectgroup>
  </tile>
  <tile id="279">
   <objectgroup draworder="index" id="2">
    <object id="1" x="0" y="0" width="32" height="32"/>
   </objectgroup>
  </tile>
  <tile id="280">
   <objectgroup draworder="index" id="2">
    <object id="1" x="0" y="0" width="32" height="32"/>
   </objectgroup>
  </tile>
  <tile id="281">
   <objectgroup draworder="index" id="2">
    <object id="1" x="0" y="0" width="32" height="32"/>
   </objectgroup>
  </tile>
  <tile id="282">
   <objectgroup draworder="index" id="2">
    <object id="1" x="0" y="0" width="32" height="32"/>
   </objectgroup>
  </tile>
  <tile id="283">
   <objectgroup draworder="index" id="2">
    <object id="1" x="0" y="0" width="32" height="32"/>
   </objectgroup>
  </tile>
  <tile id="284">
   <objectgroup draworder="index" id="2">
    <object id="1" x="0" y="0" width="32" height="32"/>
   </objectgroup>
  </tile>
  <tile id="285">
   <objectgroup draworder="index" id="2">
    <object id="1" x="0" y="0" width="32" height="32"/>
   </objectgroup>
  </tile>
  <tile id="286">
   <objectgroup draworder="index" id="2">
    <object id="1" x="0" y="0" width="32" height="32"/>
   </objectgroup>
  </tile>
  <tile id="287">
   <objectgroup draworder="index" id="2">
    <object id="1" x="0" y="0" width="32" height="32"/>
   </objectgroup>
  </tile>
  <tile id="288">
   <objectgroup draworder="index" id="2">
    <object id="1" x="0" y="0" width="32" height="32"/>
   </objectgroup>
  </tile>
  <tile id="289">
   <objectgroup draworder="index" id="2">
    <object id="1" x="0" y="0" width="32" height="32"/>
   </objectgroup>
  </tile>
  <tile id="290">
   <objectgroup draworder="index" id="2">
    <object id="1" x="0" y="0" width="32" height="32"/>
   </objectgroup>
  </tile>
  <tile id="291">
   <objectgroup draworder="index" id="2">
    <object id="1" x="0" y="0" width="32" height="32"/>
   </objectgroup>
  </tile>
  <tile id="292">
   <objectgroup draworder="index" id="2">
    <object id="1" x="0" y="0" width="32" height="32"/>
   </objectgroup>
  </tile>
  <tile id="293">
   <objectgroup draworder="index" id="2">
    <object id="1" x="0" y="0" width="32" height="32"/>
   </objectgroup>
  </tile>
  <tile id="294">
   <objectgroup draworder="index" id="2">
    <object id="1" x="0" y="0" width="32" height="32"/>
   </objectgroup>
  </tile>
  <tile id="295">
   <objectgroup draworder="index" id="2">
    <object id="1" x="0" y="0" width="32" height="32"/>
   </objectgroup>
  </tile>
  <tile id="296">
   <objectgroup draworder="index" id="6">
    <object id="5" x="0.272727" y="18.0909">
     <polygon points="0,0 27.8182,13.8182 31.7273,14 31.6364,-18 -0.363636,-17.9091"/>
    </object>
   </objectgroup>
  </tile>
  <tile id="297">
   <objectgroup draworder="index" id="4">
    <object id="3" x="0" y="32.1818">
     <polygon points="0,0 3.72727,0 31.8182,-14.0909 31.8182,-31.9091 0.0909091,-31.8182"/>
    </object>
   </objectgroup>
  </tile>
  <tile id="298">
   <objectgroup draworder="index" id="2">
    <object id="1" x="0" y="0" width="32" height="32"/>
   </objectgroup>
  </tile>
  <tile id="299">
   <objectgroup draworder="index" id="2">
    <object id="1" x="0" y="0" width="32" height="32"/>
   </objectgroup>
  </tile>
  <tile id="300">
   <objectgroup draworder="index" id="2">
    <object id="1" x="0" y="0" width="32" height="32"/>
   </objectgroup>
  </tile>
  <tile id="301">
   <objectgroup draworder="index" id="2">
    <object id="1" x="0" y="0" width="32" height="32"/>
   </objectgroup>
  </tile>
  <tile id="302">
   <objectgroup draworder="index" id="2">
    <object id="1" x="0" y="0" width="32" height="32"/>
   </objectgroup>
  </tile>
  <tile id="303">
   <objectgroup draworder="index" id="2">
    <object id="1" x="0" y="0" width="32" height="32"/>
   </objectgroup>
  </tile>
  <tile id="304">
   <objectgroup draworder="index" id="4">
    <object id="3" x="30.1818" y="0.181818">
     <polygon points="0,0 -30.3592,29.8532 -30.4314,31.588 1.37339,31.7326 1.44567,-0.433702"/>
    </object>
   </objectgroup>
  </tile>
  <tile id="305">
   <objectgroup draworder="index" id="4">
    <object id="3" x="1.72727" y="0">
     <polygon points="0,0 29.9255,29.8532 30.2869,31.7326 -1.59024,32.0217 -1.80709,0"/>
    </object>
   </objectgroup>
  </tile>
  <tile id="306">
   <objectgroup draworder="index" id="2">
    <object id="1" x="0.0909091" y="30.3636">
     <polygon points="0,0 30.3636,-30.4545 32.0909,-30.4545 32.1818,1.27273 0.272727,1.72727"/>
    </object>
   </objectgroup>
  </tile>
  <tile id="307">
   <objectgroup draworder="index" id="4">
    <object id="3" x="0.272727" y="0.0909091">
     <polygon points="0,0 0.0909091,31.5455 31.8182,31.7273 31.8182,29.7273 1.54545,-0.181818"/>
    </object>
   </objectgroup>
  </tile>
  <tile id="308">
   <objectgroup draworder="index" id="2">
    <object id="1" x="0" y="0" width="32" height="32"/>
   </objectgroup>
  </tile>
  <tile id="309">
   <objectgroup draworder="index" id="2">
    <object id="1" x="0" y="0" width="32" height="32"/>
   </objectgroup>
  </tile>
  <tile id="310">
   <objectgroup draworder="index" id="2">
    <object id="1" x="0" y="0" width="32" height="32"/>
   </objectgroup>
  </tile>
  <tile id="311">
   <objectgroup draworder="index" id="2">
    <object id="1" x="0" y="0" width="32" height="32"/>
   </objectgroup>
  </tile>
  <tile id="312">
   <objectgroup draworder="index" id="2">
    <object id="1" x="0" y="0" width="32" height="32"/>
   </objectgroup>
  </tile>
  <tile id="313">
   <objectgroup draworder="index" id="2">
    <object id="1" x="0" y="0" width="32" height="32"/>
   </objectgroup>
  </tile>
  <tile id="314">
   <objectgroup draworder="index" id="3">
    <object id="2" x="0.363636" y="31.9091">
     <polygon points="0,0 1.54545,-0.363636 31.5455,-30.6364 31.6364,-32.0909 -0.272727,-32"/>
    </object>
   </objectgroup>
  </tile>
  <tile id="315">
   <objectgroup draworder="index" id="3">
    <object id="2" x="31.9091" y="32.0909">
     <polygon points="0,0 -1.72727,0 -32.1818,-30.5455 -32.1818,-32 -0.272727,-31.8182"/>
    </object>
   </objectgroup>
  </tile>
  <tile id="316">
   <objectgroup draworder="index" id="2">
    <object id="1" x="0" y="0" width="32" height="32"/>
   </objectgroup>
  </tile>
  <tile id="317">
   <objectgroup draworder="index" id="2">
    <object id="1" x="0" y="0" width="32" height="32"/>
   </objectgroup>
  </tile>
  <tile id="318">
   <objectgroup draworder="index" id="2">
    <object id="1" x="0" y="0" width="32" height="32"/>
   </objectgroup>
  </tile>
  <tile id="319">
   <objectgroup draworder="index" id="2">
    <object id="1" x="0" y="0" width="32" height="32"/>
   </objectgroup>
  </tile>
  <tile id="320">
   <objectgroup draworder="index" id="2">
    <object id="1" x="0" y="0" width="32" height="32"/>
   </objectgroup>
  </tile>
  <tile id="321">
   <objectgroup draworder="index" id="2">
    <object id="1" x="0" y="0" width="32" height="32"/>
   </objectgroup>
  </tile>
  <tile id="322">
   <objectgroup draworder="index" id="3">
    <object id="2" x="31.9091" y="0.272727">
     <polygon points="0,0 -1.81818,-0.181818 -32,29.7273 -32,31.5455 -0.0909091,31.6364"/>
    </object>
   </objectgroup>
  </tile>
  <tile id="323">
   <objectgroup draworder="index" id="2">
    <object id="1" x="0.363636" y="0.545455">
     <polygon points="0,0 -0.0909091,31.6364 31.7273,31.6364 31.7273,29.9091 1.36364,-0.363636"/>
    </object>
   </objectgroup>
  </tile>
  <tile id="324">
   <objectgroup draworder="index" id="2">
    <object id="1" x="0" y="0" width="32" height="32"/>
   </objectgroup>
  </tile>
  <tile id="325">
   <objectgroup draworder="index" id="2">
    <object id="1" x="0" y="0" width="32" height="32"/>
   </objectgroup>
  </tile>
  <tile id="326">
   <objectgroup draworder="index" id="2">
    <object id="1" x="0" y="0" width="32" height="32"/>
   </objectgroup>
  </tile>
  <tile id="327">
   <objectgroup draworder="index" id="2">
    <object id="1" x="0" y="0" width="32" height="32"/>
   </objectgroup>
  </tile>
  <tile id="328">
   <objectgroup draworder="index" id="4">
    <object id="3" x="0.272727" y="1.90909">
     <polygon points="0,0 30,30.0909 31.5455,30.1818 31.6364,-1.81818 -0.181818,-1.63636"/>
    </object>
   </objectgroup>
  </tile>
  <tile id="329">
   <objectgroup draworder="index" id="3">
    <object id="2" x="2.09091" y="32.1818">
     <polygon points="0,0 29.9091,-30.1818 29.8182,-32.0909 -2,-31.9091 -2.09091,-0.454545"/>
    </object>
   </objectgroup>
  </tile>
  <tile id="330">
   <objectgroup draworder="index" id="5">
    <object id="4" x="0.272727" y="2.18182">
     <polygon points="0,0 29.7273,29.6364 31.3636,29.7273 31.7273,-2.09091 -0.363636,-2.27273"/>
    </object>
   </objectgroup>
  </tile>
  <tile id="331">
   <objectgroup draworder="index" id="3">
    <object id="2" x="0.272727" y="32.0909">
     <polygon points="0,0 1.72727,-0.181818 31.8182,-30.2727 31.9091,-32.1818 -0.272727,-32.0909"/>
    </object>
   </objectgroup>
  </tile>
  <tile id="332">
   <objectgroup draworder="index" id="2">
    <object id="1" x="0" y="0" width="32" height="32"/>
   </objectgroup>
  </tile>
  <tile id="333">
   <objectgroup draworder="index" id="2">
    <object id="1" x="0" y="0" width="32" height="32"/>
   </objectgroup>
  </tile>
  <tile id="334">
   <objectgroup draworder="index" id="2">
    <object id="1" x="0" y="0" width="32" height="32"/>
   </objectgroup>
  </tile>
  <tile id="335">
   <objectgroup draworder="index" id="2">
    <object id="1" x="0" y="0" width="32" height="32"/>
   </objectgroup>
  </tile>
  <tile id="336">
   <objectgroup draworder="index" id="3">
    <object id="2" x="0.363636" y="30.1818">
     <polygon points="0,0 28.5455,-14.0909 31.9091,-14.2727 31.9091,1.63636 0.0909091,1.54545"/>
    </object>
   </objectgroup>
  </tile>
  <tile id="337">
   <objectgroup draworder="index" id="3">
    <object id="2" x="0.181818" y="14.2727">
     <polygon points="0,0 28,-13.9091 31.5455,-14 31.5455,17.8182 -0.272727,17.8182"/>
    </object>
   </objectgroup>
  </tile>
  <tile id="338">
   <objectgroup draworder="index" id="4">
    <object id="4" x="0.0909091" y="0.363636">
     <polygon points="0,0 3.54545,-0.0909091 31.8182,13.8182 32,31.2727 -0.0909091,31.7273"/>
    </object>
   </objectgroup>
  </tile>
  <tile id="339">
   <objectgroup draworder="index" id="3">
    <object id="2" x="0" y="15.9091">
     <polygon points="0,0 3.27273,0.181818 31.5455,14 31.7273,15.8182 -0.181818,16.4545"/>
    </object>
   </objectgroup>
  </tile>
  <tile id="340">
   <objectgroup draworder="index" id="2">
    <object id="1" x="0" y="0" width="32" height="32"/>
   </objectgroup>
  </tile>
  <tile id="341">
   <objectgroup draworder="index" id="2">
    <object id="1" x="0" y="0" width="32" height="32"/>
   </objectgroup>
  </tile>
  <tile id="342">
   <objectgroup draworder="index" id="2">
    <object id="1" x="0" y="0" width="32" height="32"/>
   </objectgroup>
  </tile>
  <tile id="343">
   <objectgroup draworder="index" id="2">
    <object id="1" x="0" y="0" width="32" height="32"/>
   </objectgroup>
  </tile>
  <tile id="344">
   <objectgroup draworder="index" id="2">
    <object id="1" x="0" y="0" width="32" height="32"/>
   </objectgroup>
  </tile>
  <tile id="345">
   <objectgroup draworder="index" id="2">
    <object id="1" x="0" y="0" width="32" height="32"/>
   </objectgroup>
  </tile>
  <tile id="346">
   <objectgroup draworder="index" id="2">
    <object id="1" x="0" y="0" width="32" height="32"/>
   </objectgroup>
  </tile>
  <tile id="347">
   <objectgroup draworder="index" id="2">
    <object id="1" x="0" y="0" width="32" height="32"/>
   </objectgroup>
  </tile>
  <tile id="348">
   <objectgroup draworder="index" id="2">
    <object id="1" x="0" y="0" width="32" height="32"/>
   </objectgroup>
  </tile>
  <tile id="349">
   <objectgroup draworder="index" id="2">
    <object id="1" x="0" y="0" width="32" height="32"/>
   </objectgroup>
  </tile>
  <tile id="350">
   <objectgroup draworder="index" id="2">
    <object id="1" x="0" y="0" width="32" height="32"/>
   </objectgroup>
  </tile>
  <tile id="351">
   <objectgroup draworder="index" id="2">
    <object id="1" x="0" y="0" width="32" height="32"/>
   </objectgroup>
  </tile>
  <tile id="352">
   <objectgroup draworder="index" id="2">
    <object id="1" x="0" y="0" width="32" height="32"/>
   </objectgroup>
  </tile>
  <tile id="353">
   <objectgroup draworder="index" id="2">
    <object id="1" x="0" y="0" width="32" height="32"/>
   </objectgroup>
  </tile>
  <tile id="354">
   <objectgroup draworder="index" id="2">
    <object id="1" x="0" y="0" width="32" height="32"/>
   </objectgroup>
  </tile>
  <tile id="355">
   <objectgroup draworder="index" id="2">
    <object id="1" x="0" y="0" width="32" height="32"/>
   </objectgroup>
  </tile>
  <tile id="356">
   <objectgroup draworder="index" id="2">
    <object id="1" x="0.363636" y="30.1818">
     <polygon points="0,0 28,-14.4545 31.9091,-14.4545 31.9091,1.54545 -0.181818,1.54545"/>
    </object>
   </objectgroup>
  </tile>
  <tile id="357">
   <objectgroup draworder="index" id="2">
    <object id="1" x="0.181818" y="14">
     <polygon points="0,0 27.9091,-14.1818 31.5455,-14.2727 31.9091,17.3636 -0.0909091,17.6364"/>
    </object>
   </objectgroup>
  </tile>
  <tile id="358">
   <objectgroup draworder="index" id="2">
    <object id="1" x="0.363636" y="0.272727">
     <polygon points="0,0 4,0 32,14.0909 32.1818,31.8182 0.0909091,31.9091"/>
    </object>
   </objectgroup>
  </tile>
  <tile id="359">
   <objectgroup draworder="index" id="2">
    <object id="1" x="0.181818" y="16.2727">
     <polygon points="0,0 3.63636,0 31.7273,14.1818 32,16 0,16"/>
    </object>
   </objectgroup>
  </tile>
  <tile id="360">
   <objectgroup draworder="index" id="3">
    <object id="2" x="31.7273" y="15.9091">
     <polygon points="0,0 -4,0 -32.0909,-14.1818 -32.0909,-15.8182 0,-15.8182"/>
    </object>
   </objectgroup>
  </tile>
  <tile id="361">
   <objectgroup draworder="index" id="2">
    <object id="1" x="32.0909" y="32.0909">
     <polygon points="0,0 -3.81818,-0.0909091 -32.0909,-14.2727 -32.0909,-32.1818 0,-31.9091"/>
    </object>
   </objectgroup>
  </tile>
  <tile id="362">
   <objectgroup draworder="index" id="4">
    <object id="3" x="4" y="32">
     <polygon points="0,0 28,-13.9091 27.8182,-31.5455 -3.72727,-31.6364 -3.90909,-0.181818"/>
    </object>
   </objectgroup>
  </tile>
  <tile id="363">
   <objectgroup draworder="index" id="2">
    <object id="1" x="0.181818" y="15.9091">
     <polygon points="0,0 3.54545,-0.181818 31.8182,-14.2727 31.7273,-16.0909 -0.0909091,-16"/>
    </object>
   </objectgroup>
  </tile>
  <tile id="364">
   <objectgroup draworder="index" id="2">
    <object id="1" x="0.181818" y="32.1818">
     <polygon points="0,0 3.36364,-0.0909091 31.4545,-14.0909 31.6364,-32 -0.363636,-31.9091"/>
    </object>
   </objectgroup>
  </tile>
  <tile id="365">
   <objectgroup draworder="index" id="2">
    <object id="1" x="0.272727" y="15.9091">
     <polygon points="0,0 3.81818,0 31.8182,-14.1818 31.8182,-15.8182 0,-15.8182"/>
    </object>
   </objectgroup>
  </tile>
  <tile id="366">
   <objectgroup draworder="index" id="2">
    <object id="1" x="0.363636" y="2.09091">
     <polygon points="0,0 27.9091,13.8182 31.8182,13.7273 31.9091,-2 -0.363636,-1.81818"/>
    </object>
   </objectgroup>
  </tile>
  <tile id="367">
   <objectgroup draworder="index" id="2">
    <object id="1" x="0.272727" y="18.1818">
     <polygon points="0,0 27.7273,13.7273 31.8182,13.6364 31.5455,-18.0909 -0.272727,-18.0909"/>
    </object>
   </objectgroup>
  </tile>
  <tile id="368">
   <objectgroup draworder="index" id="2">
    <object id="1" x="0" y="0" width="32" height="32"/>
   </objectgroup>
  </tile>
  <tile id="369">
   <objectgroup draworder="index" id="2">
    <object id="1" x="0" y="0" width="32" height="32"/>
   </objectgroup>
  </tile>
  <tile id="370">
   <objectgroup draworder="index" id="2">
    <object id="1" x="0" y="0" width="32" height="32"/>
   </objectgroup>
  </tile>
  <tile id="371">
   <objectgroup draworder="index" id="2">
    <object id="1" x="0" y="0" width="31" height="32"/>
   </objectgroup>
  </tile>
  <tile id="372">
   <objectgroup draworder="index" id="2">
    <object id="1" x="0" y="0" width="32" height="31"/>
   </objectgroup>
  </tile>
  <tile id="373">
   <objectgroup draworder="index" id="2">
    <object id="1" x="2" y="2" width="28" height="28"/>
   </objectgroup>
  </tile>
  <tile id="374">
   <objectgroup draworder="index" id="2">
    <object id="1" x="2" y="2" width="28" height="28"/>
   </objectgroup>
  </tile>
  <tile id="376">
   <objectgroup draworder="index" id="2">
    <object id="1" x="0" y="0" width="32" height="32"/>
   </objectgroup>
  </tile>
  <tile id="377">
   <objectgroup draworder="index" id="2">
    <object id="1" x="0" y="0" width="32" height="32"/>
   </objectgroup>
  </tile>
  <tile id="378">
   <objectgroup draworder="index" id="2">
    <object id="1" x="0" y="0" width="32" height="32"/>
   </objectgroup>
  </tile>
  <tile id="379">
   <objectgroup draworder="index" id="2">
    <object id="1" x="0" y="0" width="32" height="32"/>
   </objectgroup>
  </tile>
  <tile id="380">
   <objectgroup draworder="index" id="2">
    <object id="1" x="0" y="0" width="32" height="32"/>
   </objectgroup>
  </tile>
  <tile id="381">
   <objectgroup draworder="index" id="2">
    <object id="1" x="0" y="0" width="32" height="32"/>
   </objectgroup>
  </tile>
  <tile id="382">
   <objectgroup draworder="index" id="2">
    <object id="1" x="0" y="0" width="32" height="32"/>
   </objectgroup>
  </tile>
  <tile id="383">
   <objectgroup draworder="index" id="2">
    <object id="1" x="0" y="0" width="32" height="32"/>
   </objectgroup>
  </tile>
  <tile id="384">
   <objectgroup draworder="index" id="2">
    <object id="1" x="0" y="0" width="32" height="32"/>
   </objectgroup>
  </tile>
  <tile id="385">
   <objectgroup draworder="index" id="2">
    <object id="1" x="0" y="0" width="32" height="32"/>
   </objectgroup>
  </tile>
  <tile id="386">
   <objectgroup draworder="index" id="2">
    <object id="1" x="0" y="0" width="32" height="32"/>
   </objectgroup>
  </tile>
  <tile id="387">
   <objectgroup draworder="index" id="2">
    <object id="1" x="0" y="0" width="32" height="32"/>
   </objectgroup>
  </tile>
  <tile id="388">
   <objectgroup draworder="index" id="2">
    <object id="1" x="0" y="0" width="32" height="32"/>
   </objectgroup>
  </tile>
  <tile id="389">
   <objectgroup draworder="index" id="2">
    <object id="1" x="0" y="0" width="32" height="32"/>
   </objectgroup>
  </tile>
  <tile id="390">
   <objectgroup draworder="index" id="2">
    <object id="1" x="0" y="0" width="32" height="32"/>
   </objectgroup>
  </tile>
  <tile id="391">
   <objectgroup draworder="index" id="2">
    <object id="1" x="0" y="0" width="32" height="32"/>
   </objectgroup>
  </tile>
  <tile id="392">
   <objectgroup draworder="index" id="2">
    <object id="1" x="0" y="0" width="32" height="32"/>
   </objectgroup>
  </tile>
  <tile id="393">
   <objectgroup draworder="index" id="2">
    <object id="1" x="0" y="0" width="32" height="32"/>
   </objectgroup>
  </tile>
  <tile id="394">
   <objectgroup draworder="index" id="2">
    <object id="1" x="0" y="0" width="32" height="32"/>
   </objectgroup>
  </tile>
  <tile id="395">
   <objectgroup draworder="index" id="2">
    <object id="1" x="0" y="0" width="32" height="32"/>
   </objectgroup>
  </tile>
  <tile id="396">
   <objectgroup draworder="index" id="2">
    <object id="1" x="0" y="0" width="32" height="32"/>
   </objectgroup>
  </tile>
  <tile id="397">
   <objectgroup draworder="index" id="2">
    <object id="1" x="0" y="0" width="32" height="32"/>
   </objectgroup>
  </tile>
  <tile id="398">
   <objectgroup draworder="index" id="2">
    <object id="1" x="0" y="0" width="32" height="32"/>
   </objectgroup>
  </tile>
  <tile id="399">
   <objectgroup draworder="index" id="2">
    <object id="1" x="0" y="0" width="32" height="32"/>
   </objectgroup>
  </tile>
  <tile id="400">
   <objectgroup draworder="index" id="2">
    <object id="1" x="0" y="0" width="32" height="32"/>
   </objectgroup>
  </tile>
  <tile id="401">
   <objectgroup draworder="index" id="2">
    <object id="1" x="0" y="0" width="32" height="32"/>
   </objectgroup>
  </tile>
  <tile id="402">
   <objectgroup draworder="index" id="2">
    <object id="1" x="0" y="0" width="32" height="32"/>
   </objectgroup>
  </tile>
  <tile id="403">
   <objectgroup draworder="index" id="2">
    <object id="1" x="0" y="0" width="32" height="32"/>
   </objectgroup>
  </tile>
  <tile id="404">
   <objectgroup draworder="index" id="2">
    <object id="1" x="0" y="0" width="32" height="32"/>
   </objectgroup>
  </tile>
  <tile id="405">
   <objectgroup draworder="index" id="2">
    <object id="1" x="0" y="0" width="32" height="32"/>
   </objectgroup>
  </tile>
  <tile id="406">
   <objectgroup draworder="index" id="2">
    <object id="1" x="0" y="0" width="32" height="32"/>
   </objectgroup>
  </tile>
  <tile id="407">
   <objectgroup draworder="index" id="2">
    <object id="1" x="0" y="0" width="32" height="32"/>
   </objectgroup>
  </tile>
  <tile id="408">
   <objectgroup draworder="index" id="2">
    <object id="1" x="0" y="0" width="32" height="32"/>
   </objectgroup>
  </tile>
  <tile id="409">
   <objectgroup draworder="index" id="2">
    <object id="1" x="0" y="0" width="32" height="32"/>
   </objectgroup>
  </tile>
  <tile id="410">
   <objectgroup draworder="index" id="2">
    <object id="1" x="0" y="0" width="32" height="32"/>
   </objectgroup>
  </tile>
  <tile id="411">
   <objectgroup draworder="index" id="2">
    <object id="1" x="0" y="0" width="32" height="32"/>
   </objectgroup>
  </tile>
  <tile id="412">
   <objectgroup draworder="index" id="2">
    <object id="1" x="0" y="0" width="32" height="32"/>
   </objectgroup>
  </tile>
  <tile id="413">
   <objectgroup draworder="index" id="2">
    <object id="1" x="0" y="0" width="32" height="32"/>
   </objectgroup>
  </tile>
  <tile id="414">
   <objectgroup draworder="index" id="2">
    <object id="1" x="0" y="0" width="32" height="32"/>
   </objectgroup>
  </tile>
  <tile id="415">
   <objectgroup draworder="index" id="2">
    <object id="1" x="0" y="0" width="32" height="32"/>
   </objectgroup>
  </tile>
  <tile id="416">
   <objectgroup draworder="index" id="2">
    <object id="1" x="0" y="0" width="32" height="32"/>
   </objectgroup>
  </tile>
  <tile id="417">
   <objectgroup draworder="index" id="2">
    <object id="1" x="0" y="0" width="32" height="32"/>
   </objectgroup>
  </tile>
  <tile id="418">
   <objectgroup draworder="index" id="2">
    <object id="1" x="0" y="0" width="32" height="32"/>
   </objectgroup>
  </tile>
  <tile id="419">
   <objectgroup draworder="index" id="2">
    <object id="1" x="0" y="0" width="32" height="32"/>
   </objectgroup>
  </tile>
  <tile id="420">
   <objectgroup draworder="index" id="2">
    <object id="1" x="0" y="0" width="32" height="32"/>
   </objectgroup>
  </tile>
  <tile id="421">
   <objectgroup draworder="index" id="2">
    <object id="1" x="0" y="0" width="32" height="32"/>
   </objectgroup>
  </tile>
  <tile id="422">
   <objectgroup draworder="index" id="2">
    <object id="1" x="0" y="0" width="32" height="32"/>
   </objectgroup>
  </tile>
  <tile id="423">
   <objectgroup draworder="index" id="2">
    <object id="1" x="0" y="0" width="32" height="32"/>
   </objectgroup>
  </tile>
  <tile id="424">
   <objectgroup draworder="index" id="2">
    <object id="1" x="0" y="0" width="32" height="32"/>
   </objectgroup>
  </tile>
  <tile id="425">
   <objectgroup draworder="index" id="2">
    <object id="1" x="0" y="0" width="32" height="32"/>
   </objectgroup>
  </tile>
  <tile id="426">
   <objectgroup draworder="index" id="2">
    <object id="1" x="0" y="0" width="32" height="32"/>
   </objectgroup>
  </tile>
  <tile id="427">
   <objectgroup draworder="index" id="2">
    <object id="1" x="0" y="0" width="32" height="32"/>
   </objectgroup>
  </tile>
  <tile id="428">
   <objectgroup draworder="index" id="2">
    <object id="1" x="0" y="0" width="32" height="32"/>
   </objectgroup>
  </tile>
  <tile id="429">
   <objectgroup draworder="index" id="2">
    <object id="1" x="0" y="0" width="32" height="32"/>
   </objectgroup>
  </tile>
  <tile id="430">
   <objectgroup draworder="index" id="2">
    <object id="1" x="0" y="0" width="32" height="32"/>
   </objectgroup>
  </tile>
  <tile id="431">
   <objectgroup draworder="index" id="2">
    <object id="1" x="0" y="0" width="32" height="32"/>
   </objectgroup>
  </tile>
  <tile id="432">
   <objectgroup draworder="index" id="2">
    <object id="1" x="0" y="0" width="32" height="32"/>
   </objectgroup>
  </tile>
  <tile id="433">
   <objectgroup draworder="index" id="2">
    <object id="1" x="0" y="0" width="32" height="32"/>
   </objectgroup>
  </tile>
  <tile id="434">
   <objectgroup draworder="index" id="2">
    <object id="1" x="0" y="0" width="32" height="32"/>
   </objectgroup>
  </tile>
  <tile id="435">
   <objectgroup draworder="index" id="2">
    <object id="1" x="0" y="0" width="32" height="32"/>
   </objectgroup>
  </tile>
  <tile id="436">
   <objectgroup draworder="index" id="2">
    <object id="1" x="0" y="0" width="32" height="32"/>
   </objectgroup>
  </tile>
  <tile id="437">
   <objectgroup draworder="index" id="2">
    <object id="1" x="0" y="0" width="32" height="32"/>
   </objectgroup>
  </tile>
  <tile id="438">
   <objectgroup draworder="index" id="2">
    <object id="1" x="0" y="0" width="32" height="32"/>
   </objectgroup>
  </tile>
  <tile id="439">
   <objectgroup draworder="index" id="2">
    <object id="1" x="0" y="0" width="32" height="32"/>
   </objectgroup>
  </tile>
  <tile id="440">
   <objectgroup draworder="index" id="2">
    <object id="1" x="0" y="0" width="32" height="32"/>
   </objectgroup>
  </tile>
  <tile id="441">
   <objectgroup draworder="index" id="2">
    <object id="1" x="0" y="0" width="32" height="32"/>
   </objectgroup>
  </tile>
  <tile id="442">
   <objectgroup draworder="index" id="2">
    <object id="1" x="0" y="0" width="32" height="32"/>
   </objectgroup>
  </tile>
  <tile id="443">
   <objectgroup draworder="index" id="2">
    <object id="1" x="0" y="0" width="32" height="32"/>
   </objectgroup>
  </tile>
  <tile id="444">
   <objectgroup draworder="index" id="2">
    <object id="1" x="0" y="0" width="32" height="32"/>
   </objectgroup>
  </tile>
  <tile id="445">
   <objectgroup draworder="index" id="2">
    <object id="1" x="0" y="0" width="32" height="32"/>
   </objectgroup>
  </tile>
  <tile id="446">
   <objectgroup draworder="index" id="2">
    <object id="1" x="0" y="0" width="32" height="32"/>
   </objectgroup>
  </tile>
  <tile id="448">
   <objectgroup draworder="index" id="2">
    <object id="1" x="0" y="0" width="32" height="32"/>
   </objectgroup>
  </tile>
  <tile id="449">
   <objectgroup draworder="index" id="2">
    <object id="1" x="0" y="0" width="32" height="32"/>
   </objectgroup>
  </tile>
  <tile id="450">
   <objectgroup draworder="index" id="2">
    <object id="1" x="0" y="0" width="32" height="32"/>
   </objectgroup>
  </tile>
  <tile id="451">
   <objectgroup draworder="index" id="2">
    <object id="1" x="0" y="0" width="32" height="32"/>
   </objectgroup>
  </tile>
  <tile id="452">
   <objectgroup draworder="index" id="2">
    <object id="1" x="0" y="0" width="32" height="32"/>
   </objectgroup>
  </tile>
  <tile id="453">
   <objectgroup draworder="index" id="2">
    <object id="1" x="0" y="0" width="32" height="32"/>
   </objectgroup>
  </tile>
  <tile id="454">
   <objectgroup draworder="index" id="2">
    <object id="1" x="0" y="0" width="32" height="32"/>
   </objectgroup>
  </tile>
  <tile id="455">
   <objectgroup draworder="index" id="2">
    <object id="1" x="0" y="0" width="32" height="32"/>
   </objectgroup>
  </tile>
  <tile id="456">
   <objectgroup draworder="index" id="2">
    <object id="1" x="0" y="0" width="32" height="32"/>
   </objectgroup>
  </tile>
  <tile id="457">
   <objectgroup draworder="index" id="2">
    <object id="1" x="0" y="0" width="32" height="32"/>
   </objectgroup>
  </tile>
  <tile id="458">
   <objectgroup draworder="index" id="2">
    <object id="1" x="0" y="0" width="32" height="32"/>
   </objectgroup>
  </tile>
  <tile id="459">
   <objectgroup draworder="index" id="2">
    <object id="1" x="0" y="0" width="32" height="32"/>
   </objectgroup>
  </tile>
  <tile id="460">
   <objectgroup draworder="index" id="2">
    <object id="1" x="0" y="0" width="32" height="32"/>
   </objectgroup>
  </tile>
  <tile id="461">
   <objectgroup draworder="index" id="2">
    <object id="1" x="0" y="0" width="32" height="32"/>
   </objectgroup>
  </tile>
  <tile id="462">
   <objectgroup draworder="index" id="2">
    <object id="1" x="0" y="0" width="32" height="32"/>
   </objectgroup>
  </tile>
  <tile id="463">
   <objectgroup draworder="index" id="2">
    <object id="1" x="0" y="0" width="32" height="32"/>
   </objectgroup>
  </tile>
  <tile id="464">
   <objectgroup draworder="index" id="2">
    <object id="1" x="0" y="0" width="32" height="32"/>
   </objectgroup>
  </tile>
  <tile id="465">
   <objectgroup draworder="index" id="2">
    <object id="1" x="0" y="0" width="32" height="32"/>
   </objectgroup>
  </tile>
  <tile id="466">
   <objectgroup draworder="index" id="2">
    <object id="1" x="0" y="0" width="32" height="32"/>
   </objectgroup>
  </tile>
  <tile id="467">
   <objectgroup draworder="index" id="2">
    <object id="1" x="0" y="0" width="32" height="32"/>
   </objectgroup>
  </tile>
  <tile id="468">
   <objectgroup draworder="index" id="2">
    <object id="1" x="0" y="0" width="32" height="32"/>
   </objectgroup>
  </tile>
  <tile id="469">
   <objectgroup draworder="index" id="2">
    <object id="1" x="0" y="0" width="32" height="32"/>
   </objectgroup>
  </tile>
  <tile id="470">
   <objectgroup draworder="index" id="2">
    <object id="1" x="0" y="0" width="32" height="32"/>
   </objectgroup>
  </tile>
  <tile id="471">
   <objectgroup draworder="index" id="2">
    <object id="1" x="0" y="0" width="32" height="32"/>
   </objectgroup>
  </tile>
  <tile id="472">
   <objectgroup draworder="index" id="3">
    <object id="2" x="0.216851" y="14.023">
     <polygon points="0,0 28,-13.9091 31.5455,-14 31.5455,17.8182 -0.272727,17.8182"/>
    </object>
   </objectgroup>
  </tile>
  <tile id="473">
   <objectgroup draworder="index" id="3">
    <object id="2" x="0.289135" y="0.361419">
     <polygon points="0,0 3.54545,-0.0909091 31.8182,13.8182 32,31.2727 -0.0909091,31.7273"/>
    </object>
   </objectgroup>
  </tile>
  <tile id="474">
   <objectgroup draworder="index" id="2">
    <object id="1" x="0" y="0" width="32" height="32"/>
   </objectgroup>
  </tile>
  <tile id="475">
   <objectgroup draworder="index" id="2">
    <object id="1" x="0" y="0" width="32" height="32"/>
   </objectgroup>
  </tile>
  <tile id="476">
   <objectgroup draworder="index" id="2">
    <object id="1" x="0" y="0" width="32" height="32"/>
   </objectgroup>
  </tile>
  <tile id="477">
   <objectgroup draworder="index" id="2">
    <object id="1" x="0" y="0" width="32" height="32"/>
   </objectgroup>
  </tile>
  <tile id="478">
   <objectgroup draworder="index" id="2">
    <object id="1" x="0" y="0" width="32" height="32"/>
   </objectgroup>
  </tile>
  <tile id="479">
   <objectgroup draworder="index" id="2">
    <object id="1" x="0" y="0" width="32" height="32"/>
   </objectgroup>
  </tile>
  <tile id="480">
   <objectgroup draworder="index" id="2">
    <object id="1" x="0" y="0" width="32" height="32"/>
   </objectgroup>
  </tile>
  <tile id="481">
   <objectgroup draworder="index" id="2">
    <object id="1" x="0" y="0" width="32" height="32"/>
   </objectgroup>
  </tile>
  <tile id="482">
   <objectgroup draworder="index" id="2">
    <object id="1" x="0" y="0" width="32" height="32"/>
   </objectgroup>
  </tile>
  <tile id="483">
   <objectgroup draworder="index" id="2">
    <object id="1" x="0" y="0" width="32" height="32"/>
   </objectgroup>
  </tile>
  <tile id="484">
   <objectgroup draworder="index" id="2">
    <object id="1" x="0" y="0" width="32" height="32"/>
   </objectgroup>
  </tile>
  <tile id="485">
   <objectgroup draworder="index" id="2">
    <object id="1" x="0" y="0" width="32" height="32"/>
   </objectgroup>
  </tile>
  <tile id="486">
   <objectgroup draworder="index" id="2">
    <object id="1" x="0" y="0" width="32" height="32"/>
   </objectgroup>
  </tile>
  <tile id="487">
   <objectgroup draworder="index" id="2">
    <object id="1" x="0" y="0" width="32" height="32"/>
   </objectgroup>
  </tile>
  <tile id="488">
   <objectgroup draworder="index" id="2">
    <object id="1" x="0" y="0" width="32" height="32"/>
   </objectgroup>
  </tile>
  <tile id="489">
   <objectgroup draworder="index" id="2">
    <object id="1" x="0" y="0" width="32" height="32"/>
   </objectgroup>
  </tile>
  <tile id="490">
   <objectgroup draworder="index" id="2">
    <object id="1" x="0" y="0" width="32" height="32"/>
   </objectgroup>
  </tile>
  <tile id="491">
   <objectgroup draworder="index" id="2">
    <object id="1" x="0" y="0" width="32" height="32"/>
   </objectgroup>
  </tile>
  <tile id="492">
   <objectgroup draworder="index" id="2">
    <object id="1" x="0" y="0" width="32" height="32"/>
   </objectgroup>
  </tile>
  <tile id="493">
   <objectgroup draworder="index" id="2">
    <object id="1" x="0" y="0" width="32" height="32"/>
   </objectgroup>
  </tile>
  <tile id="494">
   <objectgroup draworder="index" id="2">
    <object id="1" x="0" y="0" width="32" height="32"/>
   </objectgroup>
  </tile>
  <tile id="495">
   <objectgroup draworder="index" id="2">
    <object id="1" x="0" y="0" width="32" height="32"/>
   </objectgroup>
  </tile>
  <tile id="496">
   <objectgroup draworder="index" id="2">
    <object id="1" x="0" y="0" width="32" height="32"/>
   </objectgroup>
  </tile>
  <tile id="497">
   <objectgroup draworder="index" id="2">
    <object id="1" x="0" y="0" width="32" height="32"/>
   </objectgroup>
  </tile>
  <tile id="498">
   <objectgroup draworder="index" id="2">
    <object id="1" x="0" y="0" width="32" height="32"/>
   </objectgroup>
  </tile>
  <tile id="499">
   <objectgroup draworder="index" id="2">
    <object id="1" x="0" y="0" width="32" height="32"/>
   </objectgroup>
  </tile>
  <tile id="500">
   <objectgroup draworder="index" id="2">
    <object id="1" x="0" y="0" width="32" height="32"/>
   </objectgroup>
  </tile>
  <tile id="501">
   <objectgroup draworder="index" id="2">
    <object id="1" x="0" y="0" width="32" height="32"/>
   </objectgroup>
  </tile>
  <tile id="502">
   <objectgroup draworder="index" id="2">
    <object id="1" x="0" y="0" width="32" height="32"/>
   </objectgroup>
  </tile>
  <tile id="503">
   <objectgroup draworder="index" id="2">
    <object id="1" x="0" y="0" width="32" height="32"/>
   </objectgroup>
  </tile>
  <tile id="504">
   <objectgroup draworder="index" id="2">
    <object id="1" x="0" y="0" width="32" height="32"/>
   </objectgroup>
  </tile>
  <tile id="505">
   <objectgroup draworder="index" id="2">
    <object id="1" x="0" y="0" width="32" height="32"/>
   </objectgroup>
  </tile>
  <tile id="506">
   <objectgroup draworder="index" id="2">
    <object id="1" x="0" y="0" width="32" height="32"/>
   </objectgroup>
  </tile>
  <tile id="507">
   <objectgroup draworder="index" id="2">
    <object id="1" x="0" y="0" width="32" height="32"/>
   </objectgroup>
  </tile>
  <tile id="510">
   <objectgroup draworder="index" id="2">
    <object id="1" x="0" y="0" width="32" height="32"/>
   </objectgroup>
  </tile>
  <tile id="511">
   <objectgroup draworder="index" id="2">
    <object id="1" x="0" y="0" width="32" height="32"/>
   </objectgroup>
  </tile>
  <tile id="513">
   <objectgroup draworder="index" id="2">
    <object id="1" x="0" y="0" width="32" height="32"/>
   </objectgroup>
  </tile>
  <tile id="514">
   <objectgroup draworder="index" id="2">
    <object id="1" x="0" y="0" width="32" height="32"/>
   </objectgroup>
  </tile>
  <tile id="515">
   <objectgroup draworder="index" id="2">
    <object id="1" x="0" y="0" width="32" height="32"/>
   </objectgroup>
  </tile>
  <tile id="516">
   <objectgroup draworder="index" id="2">
    <object id="1" x="0" y="0" width="32" height="32"/>
   </objectgroup>
  </tile>
  <tile id="517">
   <objectgroup draworder="index" id="2">
    <object id="1" x="0" y="0" width="32" height="32"/>
   </objectgroup>
  </tile>
  <tile id="518">
   <objectgroup draworder="index" id="2">
    <object id="1" x="0" y="0" width="32" height="32"/>
   </objectgroup>
  </tile>
  <tile id="519">
   <objectgroup draworder="index" id="2">
    <object id="1" x="0" y="0" width="32" height="32"/>
   </objectgroup>
  </tile>
  <tile id="520">
   <objectgroup draworder="index" id="4">
    <object id="3" x="30.07" y="0.216851">
     <polygon points="0,0 -30.3592,29.8532 -30.4314,31.588 1.37339,31.7326 1.44567,-0.433702"/>
    </object>
   </objectgroup>
  </tile>
  <tile id="521">
   <objectgroup draworder="index" id="3">
    <object id="2" x="1.87938" y="0.0722837">
     <polygon points="0,0 29.9255,29.8532 30.2869,31.7326 -1.59024,32.0217 -1.80709,0"/>
    </object>
   </objectgroup>
  </tile>
  <tile id="522">
   <objectgroup draworder="index" id="4">
    <object id="3" x="0.216851" y="29.9255">
     <polygon points="0,0 30.3636,-30.4545 32.0909,-30.4545 32.1818,1.27273 0.272727,1.72727"/>
    </object>
   </objectgroup>
  </tile>
  <tile id="523">
   <objectgroup draworder="index" id="2">
    <object id="1" x="0.216851" y="0.361419">
     <polygon points="0,0 0.0909091,31.5455 31.8182,31.7273 31.8182,29.7273 1.54545,-0.181818"/>
    </object>
   </objectgroup>
  </tile>
  <tile id="524">
   <objectgroup draworder="index" id="3">
    <object id="2" x="0.289135" y="29.9977">
     <polygon points="0,0 28.5455,-14.0909 31.9091,-14.2727 31.9091,1.63636 0.0909091,1.54545"/>
    </object>
   </objectgroup>
  </tile>
  <tile id="525">
   <objectgroup draworder="index" id="2">
    <object id="1" x="0.433702" y="14.6013">
     <polygon points="0,0 28,-13.9091 31.5455,-14 31.5455,17.8182 -0.272727,17.8182"/>
    </object>
   </objectgroup>
  </tile>
  <tile id="526">
   <objectgroup draworder="index" id="2">
    <object id="1" x="0.0722837" y="0.289135">
     <polygon points="0,0 3.54545,-0.0909091 31.8182,13.8182 32,31.2727 -0.0909091,31.7273"/>
    </object>
   </objectgroup>
  </tile>
  <tile id="527">
   <objectgroup draworder="index" id="2">
    <object id="1" x="0.144567" y="16.1193">
     <polygon points="0,0 3.27273,0.181818 31.5455,14 31.7273,15.8182 -0.181818,16.4545"/>
    </object>
   </objectgroup>
  </tile>
  <tile id="530">
   <objectgroup draworder="index" id="4">
    <object id="3" x="0.216851" y="31.8771">
     <polygon points="0,0 1.54545,-0.363636 31.5455,-30.6364 31.6364,-32.0909 -0.272727,-32"/>
    </object>
   </objectgroup>
  </tile>
  <tile id="531">
   <objectgroup draworder="index" id="6">
    <object id="5" x="31.7326" y="32.0217">
     <polygon points="0,0 -1.72727,0 -32.1818,-30.5455 -32.1818,-32 -0.272727,-31.8182"/>
    </object>
   </objectgroup>
  </tile>
  <tile id="538">
   <objectgroup draworder="index" id="6">
    <object id="6" x="32.0217" y="0.216851">
     <polygon points="0,0 -1.81818,-0.181818 -32,29.7273 -32,31.5455 -0.0909091,31.6364"/>
    </object>
   </objectgroup>
  </tile>
  <tile id="539">
   <objectgroup draworder="index" id="3">
    <object id="2" x="0" y="0.361419">
     <polygon points="0,0 -0.0909091,31.6364 31.7273,31.6364 31.7273,29.9091 1.36364,-0.363636"/>
    </object>
   </objectgroup>
  </tile>
  <tile id="544">
   <objectgroup draworder="index" id="2">
    <object id="1" x="0.144567" y="1.95166">
     <polygon points="0,0 30,30.0909 31.5455,30.1818 31.6364,-1.81818 -0.181818,-1.63636"/>
    </object>
   </objectgroup>
  </tile>
  <tile id="545">
   <objectgroup draworder="index" id="2">
    <object id="1" x="2.09623" y="31.8771">
     <polygon points="0,0 29.9091,-30.1818 29.8182,-32.0909 -2,-31.9091 -2.09091,-0.454545"/>
    </object>
   </objectgroup>
  </tile>
  <tile id="548">
   <objectgroup draworder="index" id="3">
    <object id="2" x="31.8771" y="15.9024">
     <polygon points="0,0 -4,0 -32.0909,-14.1818 -32.0909,-15.8182 0,-15.8182"/>
    </object>
   </objectgroup>
  </tile>
  <tile id="549">
   <objectgroup draworder="index" id="3">
    <object id="2" x="31.6603" y="32.0217">
     <polygon points="0,0 -3.81818,-0.0909091 -32.0909,-14.2727 -32.0909,-32.1818 0,-31.9091"/>
    </object>
   </objectgroup>
  </tile>
  <tile id="550">
   <objectgroup draworder="index" id="3">
    <object id="2" x="3.9756" y="31.8048">
     <polygon points="0,0 28,-13.9091 27.8182,-31.5455 -3.72727,-31.6364 -3.90909,-0.181818"/>
    </object>
   </objectgroup>
  </tile>
  <tile id="551">
   <objectgroup draworder="index" id="3">
    <object id="2" x="0.433702" y="16.047">
     <polygon points="0,0 3.54545,-0.181818 31.8182,-14.2727 31.7273,-16.0909 -0.0909091,-16"/>
    </object>
   </objectgroup>
  </tile>
  <tile id="552">
   <objectgroup draworder="index" id="5">
    <object id="4" x="0.216851" y="30.07">
     <polygon points="0,0 28.5455,-14.0909 31.9091,-14.2727 31.9091,1.63636 0.0909091,1.54545"/>
    </object>
   </objectgroup>
  </tile>
  <tile id="553">
   <objectgroup draworder="index" id="3">
    <object id="2" x="0.0722837" y="14.3122">
     <polygon points="0,0 28,-13.9091 31.5455,-14 31.5455,17.8182 -0.272727,17.8182"/>
    </object>
   </objectgroup>
  </tile>
  <tile id="554">
   <objectgroup draworder="index" id="3">
    <object id="2" x="0.144567" y="0">
     <polygon points="0,0 3.54545,-0.0909091 31.8182,13.8182 32,31.2727 -0.0909091,31.7273"/>
    </object>
   </objectgroup>
  </tile>
  <tile id="555">
   <objectgroup draworder="index" id="3">
    <object id="2" x="0.144567" y="16.1916">
     <polygon points="0,0 3.54545,-0.0909091 31.8182,13.8182 32,31.2727 -0.0909091,31.7273"/>
    </object>
   </objectgroup>
  </tile>
  <tile id="556">
   <objectgroup draworder="index" id="2">
    <object id="1" x="0.0722837" y="14.0953">
     <polygon points="0,0 28,-13.9091 31.5455,-14 31.5455,17.8182 -0.272727,17.8182"/>
    </object>
   </objectgroup>
  </tile>
  <tile id="557">
   <objectgroup draworder="index" id="3">
    <object id="2" x="0.216851" y="0.433702">
     <polygon points="0,0 3.54545,-0.0909091 31.8182,13.8182 32,31.2727 -0.0909091,31.7273"/>
    </object>
   </objectgroup>
  </tile>
  <tile id="560">
   <objectgroup draworder="index" id="4">
    <object id="3" x="0.289135" y="31.9494">
     <polygon points="0,0 3.36364,-0.0909091 31.4545,-14.0909 31.6364,-32 -0.363636,-31.9091"/>
    </object>
   </objectgroup>
  </tile>
  <tile id="561">
   <objectgroup draworder="index" id="2">
    <object id="1" x="0.289135" y="15.9024">
     <polygon points="0,0 3.81818,0 31.8182,-14.1818 31.8182,-15.8182 0,-15.8182"/>
    </object>
   </objectgroup>
  </tile>
  <tile id="562">
   <objectgroup draworder="index" id="5">
    <object id="4" x="0.433702" y="1.95166">
     <polygon points="0,0 27.9091,13.8182 31.8182,13.7273 31.9091,-2 -0.363636,-1.81818"/>
    </object>
   </objectgroup>
  </tile>
  <tile id="563">
   <objectgroup draworder="index" id="3">
    <object id="2" x="0.289135" y="17.9264">
     <polygon points="0,0 27.7273,13.7273 31.8182,13.6364 31.5455,-18.0909 -0.272727,-18.0909"/>
    </object>
   </objectgroup>
  </tile>
  <tile id="573">
   <objectgroup draworder="index" id="2">
    <object id="1" x="0" y="0" width="32" height="32"/>
   </objectgroup>
  </tile>
  <tile id="574">
   <objectgroup draworder="index" id="2">
    <object id="1" x="0" y="0" width="32" height="16"/>
   </objectgroup>
  </tile>
  <tile id="575">
   <objectgroup draworder="index" id="2">
    <object id="1" x="0" y="0" width="32" height="32"/>
   </objectgroup>
  </tile>
  <tile id="623">
   <objectgroup draworder="index" id="2">
    <object id="1" x="0" y="0" width="32" height="32"/>
   </objectgroup>
  </tile>
  <wangsets>
   <wangset name="SueloTierra" type="corner" tile="9">
    <wangcolor name="" color="#ff0000" tile="9" probability="1"/>
    <wangtile tileid="0" wangid="0,0,0,1,0,0,0,0"/>
    <wangtile tileid="1" wangid="0,0,0,0,0,1,0,0"/>
    <wangtile tileid="2" wangid="0,1,0,1,0,0,0,0"/>
    <wangtile tileid="3" wangid="0,0,0,0,0,1,0,1"/>
    <wangtile tileid="4" wangid="0,1,0,0,0,0,0,0"/>
    <wangtile tileid="5" wangid="0,0,0,0,0,0,0,1"/>
    <wangtile tileid="9" wangid="0,0,0,1,0,1,0,0"/>
    <wangtile tileid="10" wangid="0,0,0,1,0,1,0,0"/>
    <wangtile tileid="11" wangid="0,0,0,1,0,1,0,0"/>
    <wangtile tileid="12" wangid="0,1,0,1,0,1,0,1"/>
    <wangtile tileid="13" wangid="0,1,0,1,0,1,0,1"/>
    <wangtile tileid="14" wangid="0,1,0,1,0,1,0,1"/>
    <wangtile tileid="15" wangid="0,1,0,0,0,0,0,1"/>
    <wangtile tileid="16" wangid="0,1,0,0,0,0,0,1"/>
    <wangtile tileid="17" wangid="0,1,0,0,0,0,0,1"/>
    <wangtile tileid="18" wangid="0,1,0,1,0,0,0,0"/>
    <wangtile tileid="19" wangid="0,1,0,1,0,0,0,0"/>
    <wangtile tileid="20" wangid="0,1,0,1,0,0,0,0"/>
    <wangtile tileid="21" wangid="0,0,0,0,0,1,0,1"/>
    <wangtile tileid="22" wangid="0,0,0,0,0,1,0,1"/>
    <wangtile tileid="23" wangid="0,0,0,0,0,1,0,1"/>
    <wangtile tileid="94" wangid="0,1,0,0,0,1,0,1"/>
    <wangtile tileid="95" wangid="0,1,0,1,0,0,0,1"/>
    <wangtile tileid="118" wangid="0,0,0,1,0,1,0,1"/>
    <wangtile tileid="119" wangid="0,1,0,1,0,1,0,0"/>
   </wangset>
   <wangset name="SueloPiedra" type="corner" tile="193">
    <wangcolor name="" color="#ff0000" tile="193" probability="1"/>
    <wangtile tileid="184" wangid="0,0,0,1,0,0,0,0"/>
    <wangtile tileid="185" wangid="0,0,0,0,0,1,0,0"/>
    <wangtile tileid="186" wangid="0,1,0,1,0,0,0,0"/>
    <wangtile tileid="187" wangid="0,0,0,0,0,1,0,1"/>
    <wangtile tileid="188" wangid="0,1,0,0,0,0,0,0"/>
    <wangtile tileid="189" wangid="0,0,0,0,0,0,0,1"/>
    <wangtile tileid="193" wangid="0,0,0,1,0,1,0,0"/>
    <wangtile tileid="194" wangid="0,0,0,1,0,1,0,0"/>
    <wangtile tileid="195" wangid="0,0,0,1,0,1,0,0"/>
    <wangtile tileid="196" wangid="0,1,0,1,0,1,0,1"/>
    <wangtile tileid="197" wangid="0,1,0,1,0,1,0,1"/>
    <wangtile tileid="198" wangid="0,1,0,1,0,1,0,1"/>
    <wangtile tileid="199" wangid="0,1,0,0,0,0,0,1"/>
    <wangtile tileid="200" wangid="0,1,0,0,0,0,0,1"/>
    <wangtile tileid="201" wangid="0,1,0,0,0,0,0,1"/>
    <wangtile tileid="202" wangid="0,1,0,1,0,0,0,0"/>
    <wangtile tileid="203" wangid="0,1,0,1,0,0,0,0"/>
    <wangtile tileid="204" wangid="0,1,0,1,0,0,0,0"/>
    <wangtile tileid="205" wangid="0,0,0,0,0,1,0,1"/>
    <wangtile tileid="206" wangid="0,0,0,0,0,1,0,1"/>
    <wangtile tileid="207" wangid="0,0,0,0,0,1,0,1"/>
    <wangtile tileid="278" wangid="0,1,0,0,0,1,0,1"/>
    <wangtile tileid="279" wangid="0,1,0,1,0,0,0,1"/>
    <wangtile tileid="302" wangid="0,0,0,1,0,1,0,1"/>
    <wangtile tileid="303" wangid="0,1,0,1,0,1,0,0"/>
   </wangset>
   <wangset name="SueloArena" type="corner" tile="386">
    <wangcolor name="" color="#ff0000" tile="386" probability="1"/>
    <wangtile tileid="376" wangid="0,0,0,1,0,0,0,0"/>
    <wangtile tileid="377" wangid="0,0,0,0,0,1,0,0"/>
    <wangtile tileid="378" wangid="0,1,0,1,0,0,0,0"/>
    <wangtile tileid="379" wangid="0,0,0,0,0,1,0,1"/>
    <wangtile tileid="380" wangid="0,1,0,0,0,0,0,0"/>
    <wangtile tileid="381" wangid="0,0,0,0,0,0,0,1"/>
    <wangtile tileid="385" wangid="0,0,0,1,0,1,0,0"/>
    <wangtile tileid="386" wangid="0,0,0,1,0,1,0,0"/>
    <wangtile tileid="387" wangid="0,0,0,1,0,1,0,0"/>
    <wangtile tileid="388" wangid="0,1,0,1,0,1,0,1"/>
    <wangtile tileid="389" wangid="0,1,0,1,0,1,0,1"/>
    <wangtile tileid="390" wangid="0,1,0,1,0,1,0,1"/>
    <wangtile tileid="391" wangid="0,1,0,0,0,0,0,1"/>
    <wangtile tileid="392" wangid="0,1,0,0,0,0,0,1"/>
    <wangtile tileid="393" wangid="0,1,0,0,0,0,0,1"/>
    <wangtile tileid="394" wangid="0,1,0,1,0,0,0,0"/>
    <wangtile tileid="395" wangid="0,1,0,1,0,0,0,0"/>
    <wangtile tileid="396" wangid="0,1,0,1,0,0,0,0"/>
    <wangtile tileid="397" wangid="0,0,0,0,0,1,0,1"/>
    <wangtile tileid="398" wangid="0,0,0,0,0,1,0,1"/>
    <wangtile tileid="399" wangid="0,0,0,0,0,1,0,1"/>
    <wangtile tileid="462" wangid="0,0,0,1,0,1,0,1"/>
    <wangtile tileid="463" wangid="0,1,0,1,0,1,0,0"/>
    <wangtile tileid="478" wangid="0,1,0,0,0,1,0,1"/>
    <wangtile tileid="479" wangid="0,1,0,1,0,0,0,1"/>
   </wangset>
  </wangsets>
 </tileset>
 <tileset firstgid="1593" name="Pyramid_BG" tilewidth="32" tileheight="32" tilecount="3196" columns="94">
  <image source="../assets/GameSprites/Tilesets/Pyramid_BG.png" width="3008" height="1088"/>
 </tileset>
 <tileset firstgid="4789" name="Pokey" tilewidth="30" tileheight="30" tilecount="2" columns="2">
  <image source="../assets/GameSprites/Characters/Enemigos/Pokey/Pokey.png" width="60" height="30"/>
  <tile id="1">
   <properties>
    <property name="segments" type="int" value="5"/>
    <property name="speed" type="float" value="0.5"/>
   </properties>
  </tile>
 </tileset>
 <tileset firstgid="4791" name="Monedas" tilewidth="32" tileheight="32" tilecount="18" columns="9">
  <image source="../assets/GameSprites/Items/Coins.png" width="288" height="64"/>
  <tile id="0">
   <animation>
    <frame tileid="0" duration="100"/>
    <frame tileid="1" duration="100"/>
    <frame tileid="2" duration="100"/>
    <frame tileid="3" duration="100"/>
    <frame tileid="4" duration="100"/>
    <frame tileid="5" duration="100"/>
    <frame tileid="6" duration="100"/>
    <frame tileid="7" duration="100"/>
    <frame tileid="8" duration="100"/>
   </animation>
  </tile>
  <tile id="9">
   <animation>
    <frame tileid="9" duration="100"/>
    <frame tileid="10" duration="100"/>
    <frame tileid="11" duration="100"/>
    <frame tileid="12" duration="100"/>
    <frame tileid="13" duration="100"/>
    <frame tileid="14" duration="100"/>
    <frame tileid="15" duration="100"/>
    <frame tileid="16" duration="100"/>
    <frame tileid="17" duration="100"/>
   </animation>
  </tile>
 </tileset>
 <tileset firstgid="4809" name="Goomba" tilewidth="30" tileheight="30" tilecount="4" columns="4">
  <image source="../assets/GameSprites/Characters/Enemigos/Goomba/GombRome_Walk.png" width="120" height="30"/>
 </tileset>
 <tileset firstgid="4813" name="Koopa" tilewidth="41" tileheight="60" tilecount="1" columns="0">
  <grid orientation="orthogonal" width="1" height="1"/>
  <tile id="0" x="0" y="0" width="41" height="60">
   <image source="../assets/GameSprites/Characters/Enemigos/Koopa/Koopa_walk_R.png" width="205" height="60"/>
  </tile>
 </tileset>
 <layer id="1" name="CapaFondo" width="322" height="26">
  <data encoding="csv">
1,2,3,4,5,6,7,8,9,10,11,12,13,14,15,16,17,18,19,20,21,22,23,24,25,26,27,28,29,30,31,32,1,2,3,4,5,6,7,8,9,10,11,12,13,14,15,16,17,18,19,20,21,22,23,24,25,26,27,28,29,30,31,32,1,2,3,4,5,6,7,8,9,10,11,12,13,14,15,16,17,18,19,20,21,22,23,24,25,26,27,28,29,30,31,32,1,2,3,4,5,6,7,8,9,10,11,12,13,14,15,16,17,18,19,20,21,22,23,24,25,26,27,28,29,30,31,32,1,2,3,4,5,6,7,8,9,10,11,12,13,14,15,16,17,18,19,20,21,22,23,24,25,26,1781,1782,1783,1784,1785,1786,1787,1788,1789,1790,1791,1792,1793,1794,1795,1796,1797,1798,1799,1800,1801,1802,1803,1804,1805,1806,1807,1808,1809,1810,1811,1812,1813,1814,1815,1816,1817,1818,1819,1820,1821,1822,1823,1824,1825,1826,1827,1828,1829,1830,1831,1832,1833,1834,1835,1836,1837,1838,1839,1840,1841,1842,1843,1844,1845,1846,1847,1848,1849,1850,1851,1852,1853,1854,1855,1856,1857,1858,1859,1860,1861,1862,1863,1864,1865,1866,1867,1868,1869,1870,1871,1872,1873,1874,1781,1782,1783,1784,1785,1786,1787,1788,1789,1790,1791,1792,1793,1794,1795,1796,1797,1798,1799,1800,1801,1802,1803,1804,1805,1806,1807,1808,1809,1810,1811,1812,1813,1814,1815,1816,1817,1818,1819,1820,1821,1822,1823,1824,1825,1826,1827,1828,1829,1830,1831,1832,1833,1834,1835,1836,1837,1838,1839,1840,1841,1842,1843,1844,1845,1846,1847,1848,1849,1850,1851,1852,1853,1854,
33,34,35,36,37,38,39,40,41,42,43,44,45,46,47,48,49,50,51,52,53,54,55,56,57,58,59,60,61,62,63,64,33,34,35,36,37,38,39,40,41,42,43,44,45,46,47,48,49,50,51,52,53,54,55,56,57,58,59,60,61,62,63,64,33,34,35,36,37,38,39,40,41,42,43,44,45,46,47,48,49,50,51,52,53,54,55,56,57,58,59,60,61,62,63,64,33,34,35,36,37,38,39,40,41,42,43,44,45,46,47,48,49,50,51,52,53,54,55,56,57,58,59,60,61,62,63,64,33,34,35,36,37,38,39,40,41,42,43,44,45,46,47,48,49,50,51,52,53,54,55,56,57,58,1875,1876,1877,1878,1879,1880,1881,1882,1883,1884,1885,1886,1887,1888,1889,1890,1891,1892,1893,1894,1895,1896,1897,1898,1899,1900,1901,1902,1903,1904,1905,1906,1907,1908,1909,1910,1911,1912,1913,1914,1915,1916,1917,1918,1919,1920,1921,1922,1923,1924,1925,1926,1927,1928,1929,1930,1931,1932,1933,1934,1935,1936,1937,1938,1939,1940,1941,1942,1943,1944,1945,1946,1947,1948,1949,1950,1951,1952,1953,1954,1955,1956,1957,1958,1959,1960,1961,1962,1963,1964,1965,1966,1967,1968,1875,1876,1877,1878,1879,1880,1881,1882,1883,1884,1885,1886,1887,1888,1889,1890,1891,1892,1893,1894,1895,1896,1897,1898,1899,1900,1901,1902,1903,1904,1905,1906,1907,1908,1909,1910,1911,1912,1913,1914,1915,1916,1917,1918,1919,1920,1921,1922,1923,1924,1925,1926,1927,1928,1929,1930,1931,1932,1933,1934,1935,1936,1937,1938,1939,1940,1941,1942,1943,1944,1945,1946,1947,1948,
65,66,67,68,69,70,71,72,73,74,75,76,77,78,79,80,81,82,83,84,85,86,87,88,89,90,91,92,93,94,95,96,65,66,67,68,69,70,71,72,73,74,75,76,77,78,79,80,81,82,83,84,85,86,87,88,89,90,91,92,93,94,95,96,65,66,67,68,69,70,71,72,73,74,75,76,77,78,79,80,81,82,83,84,85,86,87,88,89,90,91,92,93,94,95,96,65,66,67,68,69,70,71,72,73,74,75,76,77,78,79,80,81,82,83,84,85,86,87,88,89,90,91,92,93,94,95,96,65,66,67,68,69,70,71,72,73,74,75,76,77,78,79,80,81,82,83,84,85,86,87,88,89,90,1969,1970,1971,1972,1973,1974,1975,1976,1977,1978,1979,1980,1981,1982,1983,1984,1985,1986,1987,1988,1989,1990,1991,1992,1993,1994,1995,1996,1997,1998,1999,2000,2001,2002,2003,2004,2005,2006,2007,2008,2009,2010,2011,2012,2013,2014,2015,2016,2017,2018,2019,2020,2021,2022,2023,2024,2025,2026,2027,2028,2029,2030,2031,2032,2033,2034,2035,2036,2037,2038,2039,2040,2041,2042,2043,2044,2045,2046,2047,2048,2049,2050,2051,2052,2053,2054,2055,2056,2057,2058,2059,2060,2061,2062,1969,1970,1971,1972,1973,1974,1975,1976,1977,1978,1979,1980,1981,1982,1983,1984,1985,1986,1987,1988,1989,1990,1991,1992,1993,1994,1995,1996,1997,1998,1999,2000,2001,2002,2003,2004,2005,2006,2007,2008,2009,2010,2011,2012,2013,2014,2015,2016,2017,2018,2019,2020,2021,2022,2023,2024,2025,2026,2027,2028,2029,2030,2031,2032,2033,2034,2035,2036,2037,2038,2039,2040,2041,2042,
97,98,99,100,101,102,103,104,105,106,107,108,109,110,111,112,113,114,115,116,117,118,119,120,121,122,123,124,125,126,127,128,97,98,99,100,101,102,103,104,105,106,107,108,109,110,111,112,113,114,115,116,117,118,119,120,121,122,123,124,125,126,127,128,97,98,99,100,101,102,103,104,105,106,107,108,109,110,111,112,113,114,115,116,117,118,119,120,121,122,123,124,125,126,127,128,97,98,99,100,101,102,103,104,105,106,107,108,109,110,111,112,113,114,115,116,117,118,119,120,121,122,123,124,125,126,127,128,97,98,99,100,101,102,103,104,105,106,107,108,109,110,111,112,113,114,115,116,117,118,119,0,0,2156,2063,2064,2065,2066,2067,2068,2069,2070,2071,2072,2073,2074,2075,2076,2077,2078,2079,2080,2081,2082,2083,2084,2085,2086,2087,2088,2089,2090,2091,2092,2093,2094,2095,2096,2097,2098,2099,2100,2101,2102,2103,2104,2105,2106,2107,2108,2109,2110,2111,2112,2113,2114,2115,2116,2117,2118,2119,2120,2121,2122,2123,2124,2125,2126,2127,2128,2129,2130,2131,2132,2133,2134,2135,2136,2137,2138,2139,2140,2141,2142,2143,2144,2145,2146,2147,2148,2149,2150,2151,2152,2153,2154,2155,2156,2063,2064,2065,2066,2067,2068,2069,2070,2071,2072,2073,2074,2075,2076,2077,2078,2079,2080,2081,2082,2083,2084,2085,2086,2087,2088,2089,2090,2091,2092,2093,2094,2095,2096,2097,2098,2099,2100,2101,2102,2103,2104,2105,2106,2107,2108,2109,2110,2111,2112,2113,2114,2115,2116,2117,2118,2119,2120,2121,2122,2123,2124,2125,2126,2127,2128,2129,2130,2131,2132,2133,2134,2135,2136,
129,130,131,132,133,134,135,136,137,138,139,140,141,142,143,144,145,146,147,148,149,150,151,152,153,154,155,156,157,158,159,160,129,130,131,132,133,134,135,136,137,138,139,140,141,142,143,144,145,146,147,148,149,150,151,152,153,154,155,156,157,158,159,160,129,130,131,132,133,134,135,136,137,138,139,140,141,142,143,144,145,146,147,148,149,150,151,152,153,154,155,156,157,158,159,160,129,130,131,132,133,134,135,136,137,138,139,140,141,142,143,144,145,146,147,148,149,150,151,152,153,154,155,156,157,158,159,160,129,130,131,132,133,134,135,136,137,138,139,140,141,142,143,144,145,146,147,148,149,150,2247,2248,2249,2250,2157,2158,2159,2160,2161,2162,2163,2164,2165,2166,2167,2168,2169,2170,2171,2172,2173,2174,2175,2176,2177,2178,2179,2180,2181,2182,2183,2184,2185,2186,2187,2188,2189,2190,2191,2192,2193,2194,2195,2196,2197,2198,2199,2200,2201,2202,2203,2204,2205,2206,2207,2208,2209,2210,2211,2212,2213,2214,2215,2216,2217,2218,2219,2220,2221,2222,2223,2224,2225,2226,2227,2228,2229,2230,2231,2232,2233,2234,2235,2236,2237,2238,2239,2240,2241,2242,2243,2244,2245,2246,2247,2248,2249,2250,2157,2158,2159,2160,2161,2162,2163,2164,2165,2166,2167,2168,2169,2170,2171,2172,2173,2174,2175,2176,2177,2178,2179,2180,2181,2182,2183,2184,2185,2186,2187,2188,2189,2190,2191,2192,2193,2194,2195,2196,2197,2198,2199,2200,2201,2202,2203,2204,2205,2206,2207,2208,2209,2210,2211,2212,2213,2214,2215,2216,2217,2218,2219,2220,2221,2222,2223,2224,2225,2226,2227,2228,2229,2230,
161,162,163,164,165,166,167,168,169,170,171,172,173,174,175,176,177,178,179,180,181,182,183,184,185,186,187,188,189,190,191,192,161,162,163,164,165,166,167,168,169,170,171,172,173,174,175,176,177,178,179,180,181,182,183,184,185,186,187,188,189,190,191,192,161,162,163,164,165,166,167,168,169,170,171,172,173,174,175,176,177,178,179,180,181,182,183,184,185,186,187,188,189,190,191,192,161,162,163,164,165,166,167,168,169,170,171,172,173,174,175,176,177,178,179,180,181,182,183,184,185,186,187,188,189,190,191,192,161,162,163,164,165,166,167,168,169,170,171,172,173,174,175,176,177,178,179,180,181,182,2341,2342,2343,2344,2251,2252,2253,2254,2255,2256,2257,2258,2259,2260,2261,2262,2263,2264,2265,2266,2267,2268,2269,2270,2271,2272,2273,2274,2275,2276,2277,2278,2279,2280,2281,2282,2283,2284,2285,2286,2287,2288,2289,2290,2291,2292,2293,2294,2295,2296,2297,2298,2299,2300,2301,2302,2303,2304,2305,2306,2307,2308,2309,2310,2311,2312,2313,2314,2315,2316,2317,2318,2319,2320,2321,2322,2323,2324,2325,2326,2327,2328,2329,2330,2331,2332,2333,2334,2335,2336,2337,2338,2339,2340,2341,2342,2343,2344,2251,2252,2253,2254,2255,2256,2257,2258,2259,2260,2261,2262,2263,2264,2265,2266,2267,2268,2269,2270,2271,2272,2273,2274,2275,2276,2277,2278,2279,2280,2281,2282,2283,2284,2285,2286,2287,2288,2289,2290,2291,2292,2293,2294,2295,2296,2297,2298,2299,2300,2301,2302,2303,2304,2305,2306,2307,2308,2309,2310,2311,2312,2313,2314,2315,2316,2317,2318,2319,2320,2321,2322,2323,2324,
193,194,195,196,197,198,199,200,201,202,203,204,205,206,207,208,209,210,211,212,213,214,215,216,217,218,219,220,221,222,223,224,193,194,195,196,197,198,199,200,201,202,203,204,205,206,207,208,209,210,211,212,213,214,215,216,217,218,219,220,221,222,223,224,193,194,195,196,197,198,199,200,201,202,203,204,205,206,207,208,209,210,211,212,213,214,215,216,217,218,219,220,221,222,223,224,193,194,195,196,197,198,199,200,201,202,203,204,205,206,207,208,209,210,211,212,213,214,215,216,217,218,219,220,221,222,223,224,193,194,195,196,197,198,199,200,201,202,203,204,205,206,207,208,209,210,211,212,2433,2434,2435,2436,2437,2438,2345,2346,2347,2348,2349,2350,2351,2352,2353,2354,2355,2356,2357,2358,2359,2360,2361,2362,2363,2364,2365,2366,2367,2368,2369,2370,2371,2372,2373,2374,2375,2376,2377,2378,2379,2380,2381,2382,2383,2384,2385,2386,2387,2388,2389,2390,2391,2392,2393,2394,2395,2396,2397,2398,2399,2400,2401,2402,2403,2404,2405,2406,2407,2408,2409,2410,2411,2412,2413,2414,2415,2416,2417,2418,2419,2420,2421,2422,2423,2424,2425,2426,2427,2428,2429,2430,2431,2432,2433,2434,2435,2436,2437,2438,2345,2346,2347,2348,2349,2350,2351,2352,2353,2354,2355,2356,2357,2358,2359,2360,2361,2362,2363,2364,2365,2366,2367,2368,2369,2370,2371,2372,2373,2374,2375,2376,2377,2378,2379,2380,2381,2382,2383,2384,2385,2386,2387,2388,2389,2390,2391,2392,2393,2394,2395,2396,2397,2398,2399,2400,2401,2402,2403,2404,2405,2406,2407,2408,2409,2410,2411,2412,2413,2414,2415,2416,2417,2418,
225,226,227,228,229,230,231,232,233,234,235,236,237,238,239,240,241,242,243,244,245,246,247,248,249,250,251,252,253,254,255,256,225,226,227,228,229,230,231,232,233,234,235,236,237,238,239,240,241,242,243,244,245,246,247,248,249,250,251,252,253,254,255,256,225,226,227,228,229,230,231,232,233,234,235,236,237,238,239,240,241,242,243,244,245,246,247,248,249,250,251,252,253,254,255,256,225,226,227,228,229,230,231,232,233,234,235,236,237,238,239,240,241,242,243,244,245,246,247,248,249,250,251,252,253,254,255,256,225,226,227,228,229,230,231,232,233,234,235,236,237,238,239,240,241,242,243,0,2527,2528,2529,2530,2531,2532,2439,2440,2441,2442,2443,2444,2445,2446,2447,2448,2449,2450,2451,2452,2453,2454,2455,2456,2457,2458,2459,2460,2461,2462,2463,2464,2465,2466,2467,2468,2469,2470,2471,2472,2473,2474,2475,2476,2477,2478,2479,2480,2481,2482,2483,2484,2485,2486,2487,2488,2489,2490,2491,2492,2493,2494,2495,2496,2497,2498,2499,2500,2501,2502,2503,2504,2505,2506,2507,2508,2509,2510,2511,2512,2513,2514,2515,2516,2517,2518,2519,2520,2521,2522,2523,2524,2525,2526,2527,2528,2529,2530,2531,2532,2439,2440,2441,2442,2443,2444,2445,2446,2447,2448,2449,2450,2451,2452,2453,2454,2455,2456,2457,2458,2459,2460,2461,2462,2463,2464,2465,2466,2467,2468,2469,2470,2471,2472,2473,2474,2475,2476,2477,2478,2479,2480,2481,2482,2483,2484,2485,2486,2487,2488,2489,2490,2491,2492,2493,2494,2495,2496,2497,2498,2499,2500,2501,2502,2503,2504,2505,2506,2507,2508,2509,2510,2511,2512,
257,258,259,260,261,262,263,264,265,266,267,268,269,270,271,272,273,274,275,276,277,278,279,280,281,282,283,284,285,286,287,288,257,258,259,260,261,262,263,264,265,266,267,268,269,270,271,272,273,274,275,276,277,278,279,280,281,282,283,284,285,286,287,288,257,258,259,260,261,262,263,264,265,266,267,268,269,270,271,272,273,274,275,276,277,278,279,280,281,282,283,284,285,286,287,288,257,258,259,260,261,262,263,264,265,266,267,268,269,270,271,272,273,274,275,276,277,278,279,280,281,282,283,284,285,286,287,288,257,258,259,260,261,262,263,264,265,266,267,268,269,270,271,272,273,274,2619,2620,2621,2622,2623,2624,2625,2626,2533,2534,2535,2536,2537,2538,2539,2540,2541,2542,2543,2544,2545,2546,2547,2548,2549,2550,2551,2552,2553,2554,2555,2556,2557,2558,2559,2560,2561,2562,2563,2564,2565,2566,2567,2568,2569,2570,2571,2572,2573,2574,2575,2576,2577,2578,2579,2580,2581,2582,2583,2584,2585,2586,2587,2588,2589,2590,2591,2592,2593,2594,2595,2596,2597,2598,2599,2600,2601,2602,2603,2604,2605,2606,2607,2608,2609,2610,2611,2612,2613,2614,2615,2616,2617,2618,2619,2620,2621,2622,2623,2624,2625,2626,2533,2534,2535,2536,2537,2538,2539,2540,2541,2542,2543,2544,2545,2546,2547,2548,2549,2550,2551,2552,2553,2554,2555,2556,2557,2558,2559,2560,2561,2562,2563,2564,2565,2566,2567,2568,2569,2570,2571,2572,2573,2574,2575,2576,2577,2578,2579,2580,2581,2582,2583,2584,2585,2586,2587,2588,2589,2590,2591,2592,2593,2594,2595,2596,2597,2598,2599,2600,2601,2602,2603,2604,2605,2606,
289,290,291,292,293,294,295,296,297,298,299,300,301,302,303,304,305,306,307,308,309,310,311,312,313,314,315,316,317,318,319,320,289,290,291,292,293,294,295,296,297,298,299,300,301,302,303,304,305,306,307,308,309,310,311,312,313,314,315,316,317,318,319,320,289,290,291,292,293,294,295,296,297,298,299,300,301,302,303,304,305,306,307,308,309,310,311,312,313,314,315,316,317,318,319,320,289,290,291,292,293,294,295,296,297,298,299,300,301,302,303,304,305,306,307,308,309,310,311,312,313,314,315,316,317,318,319,320,289,290,291,292,293,294,295,296,297,298,299,300,301,302,303,304,305,306,2713,2714,2715,2716,2717,2718,2719,2720,2627,2628,2629,2630,2631,2632,2633,2634,2635,2636,2637,2638,2639,2640,2641,2642,2643,2644,2645,2646,2647,2648,2649,2650,2651,2652,2653,2654,2655,2656,2657,2658,2659,2660,2661,2662,2663,2664,2665,2666,2667,2668,2669,2670,2671,2672,2673,2674,2675,2676,2677,2678,2679,2680,2681,2682,2683,2684,2685,2686,2687,2688,2689,2690,2691,2692,2693,2694,2695,2696,2697,2698,2699,2700,2701,2702,2703,2704,2705,2706,2707,2708,2709,2710,2711,2712,2713,2714,2715,2716,2717,2718,2719,2720,2627,2628,2629,2630,2631,2632,2633,2634,2635,2636,2637,2638,2639,2640,2641,2642,2643,2644,2645,2646,2647,2648,2649,2650,2651,2652,2653,2654,2655,2656,2657,2658,2659,2660,2661,2662,2663,2664,2665,2666,2667,2668,2669,2670,2671,2672,2673,2674,2675,2676,2677,2678,2679,2680,2681,2682,2683,2684,2685,2686,2687,2688,2689,2690,2691,2692,2693,2694,2695,2696,2697,2698,2699,2700,
321,322,323,324,325,326,327,328,329,330,331,332,333,334,335,336,337,338,339,340,341,342,343,344,345,346,347,348,349,350,351,352,321,322,323,324,325,326,327,328,329,330,331,332,333,334,335,336,337,338,339,340,341,342,343,344,345,346,347,348,349,350,351,352,321,322,323,324,325,326,327,328,329,330,331,332,333,334,335,336,337,338,339,340,341,342,343,344,345,346,347,348,349,350,351,352,321,322,323,324,325,326,327,328,329,330,331,332,333,334,335,336,337,338,339,340,341,342,343,344,345,346,347,348,349,350,351,352,321,322,323,324,325,326,327,328,329,330,331,332,333,334,335,336,2805,2806,2807,2808,2809,2810,2811,2812,2813,2814,2721,2722,2723,2724,2725,2726,2727,2728,2729,2730,2731,2732,2733,2734,2735,2736,2737,2738,2739,2740,2741,2742,2743,2744,2745,2746,2747,2748,2749,2750,2751,2752,2753,2754,2755,2756,2757,2758,2759,2760,2761,2762,2763,2764,2765,2766,2767,2768,2769,2770,2771,2772,2773,2774,2775,2776,2777,2778,2779,2780,2781,2782,2783,2784,2785,2786,2787,2788,2789,2790,2791,2792,2793,2794,2795,2796,2797,2798,2799,2800,2801,2802,2803,2804,2805,2806,2807,2808,2809,2810,2811,2812,2813,2814,2721,2722,2723,2724,2725,2726,2727,2728,2729,2730,2731,2732,2733,2734,2735,2736,2737,2738,2739,2740,2741,2742,2743,2744,2745,2746,2747,2748,2749,2750,2751,2752,2753,2754,2755,2756,2757,2758,2759,2760,2761,2762,2763,2764,2765,2766,2767,2768,2769,2770,2771,2772,2773,2774,2775,2776,2777,2778,2779,2780,2781,2782,2783,2784,2785,2786,2787,2788,2789,2790,2791,2792,2793,2794,
353,354,355,356,357,358,359,360,361,362,363,364,365,366,367,368,369,370,371,372,373,374,375,376,377,378,379,380,381,382,383,384,353,354,355,356,357,358,359,360,361,362,363,364,365,366,367,368,369,370,371,372,373,374,375,376,377,378,379,380,381,382,383,384,353,354,355,356,357,358,359,360,361,362,363,364,365,366,367,368,369,370,371,372,373,374,375,376,377,378,379,380,381,382,383,384,353,354,355,356,357,358,359,360,361,362,363,364,365,366,367,368,369,370,371,372,373,374,375,376,377,378,379,380,381,382,383,384,353,354,355,356,357,358,359,360,361,362,363,364,365,366,367,2898,2899,2900,2901,2902,2903,2904,2905,2906,2907,2908,2815,2816,2817,2818,2819,2820,2821,2822,2823,2824,2825,2826,2827,2828,2829,2830,2831,2832,2833,2834,2835,2836,2837,2838,2839,2840,2841,2842,2843,2844,2845,2846,2847,2848,2849,2850,2851,2852,2853,2854,2855,2856,2857,2858,2859,2860,2861,2862,2863,2864,2865,2866,2867,2868,2869,2870,2871,2872,2873,2874,2875,2876,2877,2878,2879,2880,2881,2882,2883,2884,2885,2886,2887,2888,2889,2890,2891,2892,2893,2894,2895,2896,2897,2898,2899,2900,2901,2902,2903,2904,2905,2906,2907,2908,2815,2816,2817,2818,2819,2820,2821,2822,2823,2824,2825,2826,2827,2828,2829,2830,2831,2832,2833,2834,2835,2836,2837,2838,2839,2840,2841,2842,2843,2844,2845,2846,2847,2848,2849,2850,2851,2852,2853,2854,2855,2856,2857,2858,2859,2860,2861,2862,2863,2864,2865,2866,2867,2868,2869,2870,2871,2872,2873,2874,2875,2876,2877,2878,2879,2880,2881,2882,2883,2884,2885,2886,2887,2888,
385,386,387,388,389,390,391,392,393,394,395,396,397,398,399,400,401,402,403,404,405,406,407,408,409,410,411,412,413,414,415,416,385,386,387,388,389,390,391,392,393,394,395,396,397,398,399,400,401,402,403,404,405,406,407,408,409,410,411,412,413,414,415,416,385,386,387,388,389,390,391,392,393,394,395,396,397,398,399,400,401,402,403,404,405,406,407,408,409,410,411,412,413,414,415,416,385,386,387,388,389,390,391,392,393,394,395,396,397,398,399,400,401,402,403,404,405,406,407,408,409,410,411,412,413,414,415,416,385,386,387,388,389,390,391,392,393,394,395,396,397,398,399,2992,2993,2994,2995,2996,2997,2998,2999,3000,3001,3002,2909,2910,2911,2912,2913,2914,2915,2916,2917,2918,2919,2920,2921,2922,2923,2924,2925,2926,2927,2928,2929,2930,2931,2932,2933,2934,2935,2936,2937,2938,2939,2940,2941,2942,2943,2944,2945,2946,2947,2948,2949,2950,2951,2952,2953,2954,2955,2956,2957,2958,2959,2960,2961,2962,2963,2964,2965,2966,2967,2968,2969,2970,2971,2972,2973,2974,2975,2976,2977,2978,2979,2980,2981,2982,2983,2984,2985,2986,2987,2988,2989,2990,2991,2992,2993,2994,2995,2996,2997,2998,2999,3000,3001,3002,2909,2910,2911,2912,2913,2914,2915,2916,2917,2918,2919,2920,2921,2922,2923,2924,2925,2926,2927,2928,2929,2930,2931,2932,2933,2934,2935,2936,2937,2938,2939,2940,2941,2942,2943,2944,2945,2946,2947,2948,2949,2950,2951,2952,2953,2954,2955,2956,2957,2958,2959,2960,2961,2962,2963,2964,2965,2966,2967,2968,2969,2970,2971,2972,2973,2974,2975,2976,2977,2978,2979,2980,2981,2982,
417,418,419,420,421,422,423,424,425,426,427,428,429,430,431,432,433,434,435,436,437,438,439,440,441,442,443,444,445,446,447,448,417,418,419,420,421,422,423,424,425,426,427,428,429,430,431,432,433,434,435,436,437,438,439,440,441,442,443,444,445,446,447,448,417,418,419,420,421,422,423,424,425,426,427,428,429,430,431,432,433,434,435,436,437,438,439,440,441,442,443,444,445,446,447,448,417,418,419,420,421,422,423,424,425,426,427,428,429,430,431,432,433,434,435,436,437,438,439,440,441,442,443,444,445,446,447,448,417,418,419,420,421,422,423,424,425,426,427,428,429,430,431,3086,3087,3088,3089,3090,3091,3092,3093,3094,3095,3096,3003,3004,3005,3006,3007,3008,3009,3010,3011,3012,3013,3014,3015,3016,3017,3018,3019,3020,3021,3022,3023,3024,3025,3026,3027,3028,3029,3030,3031,3032,3033,3034,3035,3036,3037,3038,3039,3040,3041,3042,3043,3044,3045,3046,3047,3048,3049,3050,3051,3052,3053,3054,3055,3056,3057,3058,3059,3060,3061,3062,3063,3064,3065,3066,3067,3068,3069,3070,3071,3072,3073,3074,3075,3076,3077,3078,3079,3080,3081,3082,3083,3084,3085,3086,3087,3088,3089,3090,3091,3092,3093,3094,3095,3096,3003,3004,3005,3006,3007,3008,3009,3010,3011,3012,3013,3014,3015,3016,3017,3018,3019,3020,3021,3022,3023,3024,3025,3026,3027,3028,3029,3030,3031,3032,3033,3034,3035,3036,3037,3038,3039,3040,3041,3042,3043,3044,3045,3046,3047,3048,3049,3050,3051,3052,3053,3054,3055,3056,3057,3058,3059,3060,3061,3062,3063,3064,3065,3066,3067,3068,3069,3070,3071,3072,3073,3074,3075,3076,
449,450,451,452,453,454,455,456,457,458,459,460,461,462,463,464,465,466,467,468,469,470,471,472,473,474,475,476,477,478,479,480,449,450,451,452,453,454,455,456,457,458,459,460,461,462,463,464,465,466,467,468,469,470,471,472,473,474,475,476,477,478,479,480,449,450,451,452,453,454,455,456,457,458,459,460,461,462,463,464,465,466,467,468,469,470,471,472,473,474,475,476,477,478,479,480,449,450,451,452,453,454,455,456,457,458,459,460,461,462,463,464,465,466,467,468,469,470,471,472,473,474,475,476,477,478,479,480,449,450,451,452,453,454,455,456,457,458,459,460,461,462,463,3180,3181,3182,3183,3184,3185,3186,3187,3188,3189,3190,3097,3098,3099,3100,3101,3102,3103,3104,3105,3106,3107,3108,3109,3110,3111,3112,3113,3114,3115,3116,3117,3118,3119,3120,3121,3122,3123,3124,3125,3126,3127,3128,3129,3130,3131,3132,3133,3134,3135,3136,3137,3138,3139,3140,3141,3142,3143,3144,3145,3146,3147,3148,3149,3150,3151,3152,3153,3154,3155,3156,3157,3158,3159,3160,3161,3162,3163,3164,3165,3166,3167,3168,3169,3170,3171,3172,3173,3174,3175,3176,3177,3178,3179,3180,3181,3182,3183,3184,3185,3186,3187,3188,3189,3190,3097,3098,3099,3100,3101,3102,3103,3104,3105,3106,3107,3108,3109,3110,3111,3112,3113,3114,3115,3116,3117,3118,3119,3120,3121,3122,3123,3124,3125,3126,3127,3128,3129,3130,3131,3132,3133,3134,3135,3136,3137,3138,3139,3140,3141,3142,3143,3144,3145,3146,3147,3148,3149,3150,3151,3152,3153,3154,3155,3156,3157,3158,3159,3160,3161,3162,3163,3164,3165,3166,3167,3168,3169,3170,
481,482,483,484,485,486,487,488,489,490,491,492,493,494,495,496,497,498,499,500,501,502,503,504,505,506,507,508,509,510,511,512,481,482,483,484,485,486,487,488,489,490,491,492,493,494,495,496,497,498,499,500,501,502,503,504,505,506,507,508,509,510,511,512,481,482,483,484,485,486,487,488,489,490,491,492,493,494,495,496,497,498,499,500,501,502,503,504,505,506,507,508,509,510,511,512,481,482,483,484,485,486,487,488,489,490,491,492,493,494,495,496,497,498,499,500,501,502,503,504,505,506,507,508,509,510,511,512,481,482,483,484,485,486,487,488,489,490,491,492,493,494,495,3274,3275,3276,3277,3278,3279,3280,3281,3282,3283,3284,3191,3192,3193,3194,3195,3196,3197,3198,3199,3200,3201,3202,3203,3204,3205,3206,3207,3208,3209,3210,3211,3212,3213,3214,3215,3216,3217,3218,3219,3220,3221,3222,3223,3224,3225,3226,3227,3228,3229,3230,3231,3232,3233,3234,3235,3236,3237,3238,3239,3240,3241,3242,3243,3244,3245,3246,3247,3248,3249,3250,3251,3252,3253,3254,3255,3256,3257,3258,3259,3260,3261,3262,3263,3264,3265,3266,3267,3268,3269,3270,3271,3272,3273,3274,3275,3276,3277,3278,3279,3280,3281,3282,3283,3284,3191,3192,3193,3194,3195,3196,3197,3198,3199,3200,3201,3202,3203,3204,3205,3206,3207,3208,3209,3210,3211,3212,3213,3214,3215,3216,3217,3218,3219,3220,3221,3222,3223,3224,3225,3226,3227,3228,3229,3230,3231,3232,3233,3234,3235,3236,3237,3238,3239,3240,3241,3242,3243,3244,3245,3246,3247,3248,3249,3250,3251,3252,3253,3254,3255,3256,3257,3258,3259,3260,3261,3262,3263,3264,
513,514,515,516,517,518,519,520,521,522,523,524,525,526,527,528,529,530,531,532,533,534,535,536,537,538,539,540,541,542,543,544,513,514,515,516,517,518,519,520,521,522,523,524,525,526,527,528,529,530,531,532,533,534,535,536,537,538,539,540,541,542,543,544,513,514,515,516,517,518,519,520,521,522,523,524,525,526,527,528,529,530,531,532,533,534,535,536,537,538,539,540,541,542,543,544,513,514,515,516,517,518,519,520,521,522,523,524,525,526,527,528,529,530,531,532,533,534,535,536,537,538,539,540,541,542,543,544,513,514,515,516,517,518,519,520,521,522,523,524,525,526,527,3368,3369,3370,3371,3372,3373,3374,3375,3376,3377,3378,3285,3286,3287,3288,3289,3290,3291,3292,3293,3294,3295,3296,3297,3298,3299,3300,3301,3302,3303,3304,3305,3306,3307,3308,3309,3310,3311,3312,3313,3314,3315,3316,3317,3318,3319,3320,3321,3322,3323,3324,3325,3326,3327,3328,3329,3330,3331,3332,3333,3334,3335,3336,3337,3338,3339,3340,3341,3342,3343,3344,3345,3346,3347,3348,3349,3350,3351,3352,3353,3354,3355,3356,3357,3358,3359,3360,3361,3362,3363,3364,3365,3366,3367,3368,3369,3370,3371,3372,3373,3374,3375,3376,3377,3378,3285,3286,3287,3288,3289,3290,3291,3292,3293,3294,3295,3296,3297,3298,3299,3300,3301,3302,3303,3304,3305,3306,3307,3308,3309,3310,3311,3312,3313,3314,3315,3316,3317,3318,3319,3320,3321,3322,3323,3324,3325,3326,3327,3328,3329,3330,3331,3332,3333,3334,3335,3336,3337,3338,3339,3340,3341,3342,3343,3344,3345,3346,3347,3348,3349,3350,3351,3352,3353,3354,3355,3356,3357,3358,
545,546,547,548,549,550,551,552,553,554,555,556,557,558,559,560,561,562,563,564,565,566,567,568,569,570,571,572,573,574,575,576,545,546,547,548,549,550,551,552,553,554,555,556,557,558,559,560,561,562,563,564,565,566,567,568,569,570,571,572,573,574,575,576,545,546,547,548,549,550,551,552,553,554,555,556,557,558,559,560,561,562,563,564,565,566,567,568,569,570,571,572,573,574,575,576,545,546,547,548,549,550,551,552,553,554,555,556,557,558,559,560,561,562,563,564,565,566,567,568,569,570,571,572,573,574,575,576,545,546,547,548,549,550,551,552,553,554,555,556,557,558,559,3462,3463,3464,3465,3466,3467,3468,3469,3470,3471,3472,3379,3380,3381,3382,3383,3384,3385,3386,3387,3388,3389,3390,3391,3392,3393,3394,3395,3396,3397,3398,3399,3400,3401,3402,3403,3404,3405,3406,3407,3408,3409,3410,3411,3412,3413,3414,3415,3416,3417,3418,3419,3420,3421,3422,3423,3424,3425,3426,3427,3428,3429,3430,3431,3432,3433,3434,3435,3436,3437,3438,3439,3440,3441,3442,3443,3444,3445,3446,3447,3448,3449,3450,3451,3452,3453,3454,3455,3456,3457,3458,3459,3460,3461,3462,3463,3464,3465,3466,3467,3468,3469,3470,3471,3472,3379,3380,3381,3382,3383,3384,3385,3386,3387,3388,3389,3390,3391,3392,3393,3394,3395,3396,3397,3398,3399,3400,3401,3402,3403,3404,3405,3406,3407,3408,3409,3410,3411,3412,3413,3414,3415,3416,3417,3418,3419,3420,3421,3422,3423,3424,3425,3426,3427,3428,3429,3430,3431,3432,3433,3434,3435,3436,3437,3438,3439,3440,3441,3442,3443,3444,3445,3446,3447,3448,3449,3450,3451,3452,
577,578,579,580,581,582,583,584,585,586,587,588,589,590,591,592,593,594,595,596,597,598,599,600,601,602,603,604,605,606,607,608,577,578,579,580,581,582,583,584,585,586,587,588,589,590,591,592,593,594,595,596,597,598,599,600,601,602,603,604,605,606,607,608,577,578,579,580,581,582,583,584,585,586,587,588,589,590,591,592,593,594,595,596,597,598,599,600,601,602,603,604,605,606,607,608,577,578,579,580,581,582,583,584,585,586,587,588,589,590,591,592,593,594,595,596,597,598,599,600,601,602,603,604,605,606,607,608,577,578,579,580,581,582,583,584,585,586,587,588,589,590,591,3556,3557,3558,3559,3560,3561,3562,3563,3564,3565,3566,3473,3474,3475,3476,3477,3478,3479,3480,3481,3482,3483,3484,3485,3486,3487,3488,3489,3490,3491,3492,3493,3494,3495,3496,3497,3498,3499,3500,3501,3502,3503,3504,3505,3506,3507,3508,3509,3510,3511,3512,3513,3514,3515,3516,3517,3518,3519,3520,3521,3522,3523,3524,3525,3526,3527,3528,3529,3530,3531,3532,3533,3534,3535,3536,3537,3538,3539,3540,3541,3542,3543,3544,3545,3546,3547,3548,3549,3550,3551,3552,3553,3554,3555,3556,3557,3558,3559,3560,3561,3562,3563,3564,3565,3566,3473,3474,3475,3476,3477,3478,3479,3480,3481,3482,3483,3484,3485,3486,3487,3488,3489,3490,3491,3492,3493,3494,3495,3496,3497,3498,3499,3500,3501,3502,3503,3504,3505,3506,3507,3508,3509,3510,3511,3512,3513,3514,3515,3516,3517,3518,3519,3520,3521,3522,3523,3524,3525,3526,3527,3528,3529,3530,3531,3532,3533,3534,3535,3536,3537,3538,3539,3540,3541,3542,3543,3544,3545,3546,
609,610,611,612,613,614,615,616,617,618,619,620,621,622,623,624,625,626,627,628,629,630,631,632,633,634,635,636,637,638,639,640,609,610,611,612,613,614,615,616,617,618,619,620,621,622,623,624,625,626,627,628,629,630,631,632,633,634,635,636,637,638,639,640,609,610,611,612,613,614,615,616,617,618,619,620,621,622,623,624,625,626,627,628,629,630,631,632,633,634,635,636,637,638,639,640,609,610,611,612,613,614,615,616,617,618,619,620,621,622,623,624,625,626,627,628,629,630,631,632,633,634,635,636,637,638,639,640,609,610,611,612,613,614,615,616,617,618,619,620,621,622,623,3650,3651,3652,3653,3654,3655,3656,3657,3658,3659,3660,3567,3568,3569,3570,3571,3572,3573,3574,3575,3576,3577,3578,3579,3580,3581,3582,3583,3584,3585,3586,3587,3588,3589,3590,3591,3592,3593,3594,3595,3596,3597,3598,3599,3600,3601,3602,3603,3604,3605,3606,3607,3608,3609,3610,3611,3612,3613,3614,3615,3616,3617,3618,3619,3620,3621,3622,3623,3624,3625,3626,3627,3628,3629,3630,3631,3632,3633,3634,3635,3636,3637,3638,3639,3640,3641,3642,3643,3644,3645,3646,3647,3648,3649,3650,3651,3652,3653,3654,3655,3656,3657,3658,3659,3660,3567,3568,3569,3570,3571,3572,3573,3574,3575,3576,3577,3578,3579,3580,3581,3582,3583,3584,3585,3586,3587,3588,3589,3590,3591,3592,3593,3594,3595,3596,3597,3598,3599,3600,3601,3602,3603,3604,3605,3606,3607,3608,3609,3610,3611,3612,3613,3614,3615,3616,3617,3618,3619,3620,3621,3622,3623,3624,3625,3626,3627,3628,3629,3630,3631,3632,3633,3634,3635,3636,3637,3638,3639,3640,
641,642,643,644,645,646,647,648,649,650,651,652,653,654,655,656,657,658,659,660,661,662,663,664,665,666,667,668,669,670,671,672,641,642,643,644,645,646,647,648,649,650,651,652,653,654,655,656,657,658,659,660,661,662,663,664,665,666,667,668,669,670,671,672,641,642,643,644,645,646,647,648,649,650,651,652,653,654,655,656,657,658,659,660,661,662,663,664,665,666,667,668,669,670,671,672,641,642,643,644,645,646,647,648,649,650,651,652,653,654,655,656,657,658,659,660,661,662,663,664,665,666,667,668,669,670,671,672,641,642,643,644,645,646,647,648,649,650,651,652,653,654,655,656,3745,3746,3747,3748,3749,3750,3751,3752,3753,3754,3661,3662,3663,3664,3665,3666,3667,3668,3669,3670,3671,3672,3673,3674,3675,3676,3677,3678,3679,3680,3681,3682,3683,3684,3685,3686,3687,3688,3689,3690,3691,3692,3693,3694,3695,3696,3697,3698,3699,3700,3701,3702,3703,3704,3705,3706,3707,3708,3709,3710,3711,3712,3713,3714,3715,3716,3717,3718,3719,3720,3721,3722,3723,3724,3725,3726,3727,3728,3729,3730,3731,3732,3733,3734,3735,3736,3737,3738,3739,3740,3741,3742,3743,3744,3745,3746,3747,3748,3749,3750,3751,3752,3753,3754,3661,3662,3663,3664,3665,3666,3667,3668,3669,3670,3671,3672,3673,3674,3675,3676,3677,3678,3679,3680,3681,3682,3683,3684,3685,3686,3687,3688,3689,3690,3691,3692,3693,3694,3695,3696,3697,3698,3699,3700,3701,3702,3703,3704,3705,3706,3707,3708,3709,3710,3711,3712,3713,3714,3715,3716,3717,3718,3719,3720,3721,3722,3723,3724,3725,3726,3727,3728,3729,3730,3731,3732,3733,3734,
673,674,675,676,677,678,679,680,681,682,683,684,685,686,687,688,689,690,691,692,693,694,695,696,697,698,699,700,701,702,703,704,673,674,675,676,677,678,679,680,681,682,683,684,685,686,687,688,689,690,691,692,693,694,695,696,697,698,699,700,701,702,703,704,673,674,675,676,677,678,679,680,681,682,683,684,685,686,687,688,689,690,691,692,693,694,695,696,697,698,699,700,701,702,703,704,673,674,675,676,677,678,679,680,681,682,683,684,685,686,687,688,689,690,691,692,693,694,695,696,697,698,699,700,701,702,703,704,673,674,675,676,677,678,679,680,681,682,683,684,685,686,687,688,3839,3840,3841,3842,3843,3844,3845,3846,3847,3848,3755,3756,3757,3758,3759,3760,3761,3762,3763,3764,3765,3766,3767,3768,3769,3770,3771,3772,3773,3774,3775,3776,3777,3778,3779,3780,3781,3782,3783,3784,3785,3786,3787,3788,3789,3790,3791,3792,3793,3794,3795,3796,3797,3798,3799,3800,3801,3802,3803,3804,3805,3806,3807,3808,3809,3810,3811,3812,3813,3814,3815,3816,3817,3818,3819,3820,3821,3822,3823,3824,3825,3826,3827,3828,3829,3830,3831,3832,3833,3834,3835,3836,3837,3838,3839,3840,3841,3842,3843,3844,3845,3846,3847,3848,3755,3756,3757,3758,3759,3760,3761,3762,3763,3764,3765,3766,3767,3768,3769,3770,3771,3772,3773,3774,3775,3776,3777,3778,3779,3780,3781,3782,3783,3784,3785,3786,3787,3788,3789,3790,3791,3792,3793,3794,3795,3796,3797,3798,3799,3800,3801,3802,3803,3804,3805,3806,3807,3808,3809,3810,3811,3812,3813,3814,3815,3816,3817,3818,3819,3820,3821,3822,3823,3824,3825,3826,3827,3828,
673,676,676,676,676,676,676,676,676,676,676,676,676,676,676,676,676,676,676,676,676,676,676,676,676,676,676,676,676,676,676,676,676,676,676,676,676,676,676,676,676,676,676,676,676,676,676,676,676,676,676,676,676,676,676,676,676,676,676,676,676,676,676,676,676,676,676,676,676,676,676,676,676,676,676,676,676,676,676,676,676,676,676,676,676,676,676,676,676,676,676,676,676,676,676,676,676,676,676,676,676,676,676,676,676,676,676,676,676,676,676,676,676,676,676,676,676,676,676,676,676,676,676,676,676,676,676,676,676,676,676,676,676,676,676,676,676,676,676,676,676,676,676,676,3933,3934,3935,3936,3937,3938,3939,3940,3941,3942,3849,3850,3851,3852,3853,3854,3855,3856,3857,3858,3859,3860,3861,3862,3863,3864,3865,3866,3867,3868,3869,3870,3871,3872,3873,3874,3875,3876,3877,3878,3879,3880,3881,3882,3883,3884,3885,3886,3887,3888,3889,3890,3891,3892,3893,3894,3895,3896,3897,3898,3899,3900,3901,3902,3903,3904,3905,3906,3907,3908,3909,3910,3911,3912,3913,3914,3915,3916,3917,3918,3919,3920,3921,3922,3923,3924,3925,3926,3927,3928,3929,3930,3931,3932,3933,3934,3935,3936,3937,3938,3939,3940,3941,3942,3849,3850,3851,3852,3853,3854,3855,3856,3857,3858,3859,3860,3861,3862,3863,3864,3865,3866,3867,3868,3869,3870,3871,3872,3873,3874,3875,3876,3877,3878,3879,3880,3881,3882,3883,3884,3885,3886,3887,3888,3889,3890,3891,3892,3893,3894,3895,3896,3897,3898,3899,3900,3901,3902,3903,3904,3905,3906,3907,3908,3909,3910,3911,3912,3913,3914,3915,3916,3917,3918,3919,3920,3921,3922,
676,676,676,676,676,676,676,676,676,676,676,676,676,676,676,676,676,676,676,676,676,676,676,676,676,676,676,676,676,676,676,676,676,676,676,676,676,676,676,676,676,676,676,676,676,676,676,676,676,676,676,676,676,676,676,676,676,676,676,676,676,676,676,676,676,676,676,676,676,676,676,676,676,676,676,676,676,676,676,676,676,676,676,676,676,676,676,676,676,676,676,676,676,676,676,676,676,676,676,676,676,676,676,676,676,676,676,676,676,676,676,676,676,676,676,676,676,676,676,676,676,676,676,676,676,676,676,676,676,676,676,676,676,676,676,676,676,676,676,676,676,676,676,676,4027,4028,4029,4030,4031,4032,4033,4034,4035,4036,3943,3944,3945,3946,3947,3948,3949,3950,3951,3952,3953,3954,3955,3956,3957,3958,3959,3960,3961,3962,3963,3964,3965,3966,3967,3968,3969,3970,3971,3972,3973,3974,3975,3976,3977,3978,3979,3980,3981,3982,3983,3984,3985,3986,3987,3988,3989,3990,3991,3992,3993,3994,3995,3996,3997,3998,3999,4000,4001,4002,4003,4004,4005,4006,4007,4008,4009,4010,4011,4012,4013,4014,4015,4016,4017,4018,4019,4020,4021,4022,4023,4024,4025,4026,4027,4028,4029,4030,4031,4032,4033,4034,4035,4036,3943,3944,3945,3946,3947,3948,3949,3950,3951,3952,3953,3954,3955,3956,3957,3958,3959,3960,3961,3962,3963,3964,3965,3966,3967,3968,3969,3970,3971,3972,3973,3974,3975,3976,3977,3978,3979,3980,3981,3982,3983,3984,3985,3986,3987,3988,3989,3990,3991,3992,3993,3994,3995,3996,3997,3998,3999,4000,4001,4002,4003,4004,4005,4006,4007,4008,4009,4010,4011,4012,4013,4014,4015,4016,
676,676,676,676,676,676,676,676,676,676,676,676,676,676,676,676,676,676,676,676,676,676,676,676,676,676,676,676,676,676,676,676,676,676,676,676,676,676,676,676,676,676,676,676,676,676,676,676,676,676,676,676,676,676,676,676,676,676,676,676,676,676,676,676,676,676,676,676,676,676,676,676,676,676,676,676,676,676,676,676,676,676,676,676,676,676,676,676,676,676,676,676,676,676,676,676,676,676,676,676,676,676,676,676,676,676,676,676,676,676,676,676,676,676,676,676,676,676,676,676,676,676,676,676,676,676,676,676,676,676,676,676,676,676,676,676,676,676,676,676,676,676,676,676,4121,4122,4123,4124,4125,4126,4127,4128,4129,4130,4037,4038,4039,4040,4041,4042,4043,4044,4045,4046,4047,4048,4049,4050,4051,4052,4053,4054,4055,4056,4057,4058,4059,4060,4061,4062,4063,4064,4065,4066,4067,4068,4069,4070,4071,4072,4073,4074,4075,4076,4077,4078,4079,4080,4081,4082,4083,4084,4085,4086,4087,4088,4089,4090,4091,4092,4093,4094,4095,4096,4097,4098,4099,4100,4101,4102,4103,4104,4105,4106,4107,4108,4109,4110,4111,4112,4113,4114,4115,4116,4117,4118,4119,4120,4121,4122,4123,4124,4125,4126,4127,4128,4129,4130,4037,4038,4039,4040,4041,4042,4043,4044,4045,4046,4047,4048,4049,4050,4051,4052,4053,4054,4055,4056,4057,4058,4059,4060,4061,4062,4063,4064,4065,4066,4067,4068,4069,4070,4071,4072,4073,4074,4075,4076,4077,4078,4079,4080,4081,4082,4083,4084,4085,4086,4087,4088,4089,4090,4091,4092,4093,4094,4095,4096,4097,4098,4099,4100,4101,4102,4103,4104,4105,4106,4107,4108,4109,4110,
676,676,676,676,676,676,676,676,676,676,676,676,676,676,676,676,676,676,676,676,676,676,676,676,676,676,676,676,676,676,676,676,676,676,676,676,676,676,676,676,676,676,676,676,676,676,676,676,676,676,676,676,676,676,676,676,676,676,676,676,676,676,676,676,676,676,676,676,676,676,676,676,676,676,676,676,676,676,676,676,676,676,676,676,676,676,676,676,676,676,676,676,676,676,676,676,676,676,676,676,676,676,676,676,676,676,676,676,676,676,676,676,676,676,676,676,676,676,676,676,676,676,676,676,676,676,676,676,676,676,676,676,676,676,676,676,676,676,676,676,676,676,676,676,4215,4216,4217,4218,4219,4220,4221,4222,4223,4224,4131,4132,4133,4134,4135,4136,4137,4138,4139,4140,4141,4142,4143,4144,4145,4146,4147,4148,4149,4150,4151,4152,4153,4154,4155,4156,4157,4158,4159,4160,4161,4162,4163,4164,4165,4166,4167,4168,4169,4170,4171,4172,4173,4174,4175,4176,4177,4178,4179,4180,4181,4182,4183,4184,4185,4186,4187,4188,4189,4190,4191,4192,4193,4194,4195,4196,4197,4198,4199,4200,4201,4202,4203,4204,4205,4206,4207,4208,4209,4210,4211,4212,4213,4214,4215,4216,4217,4218,4219,4220,4221,4222,4223,4224,4131,4132,4133,4134,4135,4136,4137,4138,4139,4140,4141,4142,4143,4144,4145,4146,4147,4148,4149,4150,4151,4152,4153,4154,4155,4156,4157,4158,4159,4160,4161,4162,4163,4164,4165,4166,4167,4168,4169,4170,4171,4172,4173,4174,4175,4176,4177,4178,4179,4180,4181,4182,4183,4184,4185,4186,4187,4188,4189,4190,4191,4192,4193,4194,4195,4196,4197,4198,4199,4200,4201,4202,4203,4204
</data>
 </layer>
 <layer id="5" name="CapaDecoraciones" width="322" height="26">
  <data encoding="csv">
0,0,0,0,0,0,0,0,0,0,0,0,0,0,0,0,0,0,0,0,0,0,0,0,0,0,0,0,0,0,0,0,0,0,0,0,0,0,0,0,0,0,0,0,0,0,0,0,0,0,0,0,0,0,0,0,0,0,0,0,0,0,0,0,0,0,0,0,0,0,0,0,0,0,0,0,0,0,0,0,0,0,0,0,0,0,0,0,0,0,0,0,0,0,0,0,0,0,0,0,0,0,0,0,0,0,0,0,0,0,0,0,0,0,0,0,0,0,0,0,0,0,0,0,0,0,0,0,0,0,0,0,0,0,0,0,0,0,0,0,0,0,0,0,0,0,0,0,0,0,0,0,0,0,0,0,0,0,0,0,0,0,0,0,0,0,0,0,0,0,0,0,0,0,0,0,0,0,0,0,0,0,0,0,0,0,0,0,0,0,0,0,0,0,0,0,0,0,0,0,0,0,0,0,0,0,0,0,0,0,0,0,0,0,0,0,0,0,0,0,0,0,0,0,0,0,0,0,0,0,0,0,0,0,0,0,0,0,0,0,0,0,0,0,0,0,0,0,0,0,0,0,0,0,0,0,0,0,0,0,0,0,0,0,0,0,0,0,0,0,0,0,0,0,0,0,0,0,0,0,0,0,0,0,0,0,0,0,0,0,0,0,0,0,0,0,0,0,0,0,0,0,0,0,0,0,0,0,0,0,0,0,0,0,0,0,0,0,0,0,0,0,
0,0,0,0,0,0,0,0,0,0,0,0,0,0,0,0,0,0,0,0,0,0,0,0,0,0,0,0,0,0,0,0,0,0,0,0,0,0,0,0,0,0,0,0,0,0,0,0,0,0,0,0,0,0,0,0,0,0,0,0,0,0,0,0,0,0,0,0,0,0,0,0,0,0,0,0,0,0,0,0,0,0,0,0,0,0,0,0,0,0,0,0,0,0,0,0,0,0,0,0,0,0,0,0,0,0,0,0,0,0,0,0,0,0,0,0,0,0,0,0,0,0,0,0,0,0,0,0,0,0,0,0,0,0,0,0,0,0,0,0,0,0,0,0,0,0,0,0,0,0,0,0,0,0,0,0,0,0,0,0,0,0,0,0,0,0,0,0,0,0,0,0,0,0,0,0,0,0,0,0,0,0,0,0,0,0,0,0,0,0,0,0,0,0,0,0,0,0,0,0,0,0,0,0,0,0,0,0,0,0,0,0,0,0,0,0,0,0,0,0,0,0,0,0,0,0,0,0,0,0,0,0,0,0,0,0,0,0,0,0,0,0,0,0,0,0,0,0,0,0,0,0,0,0,0,0,0,0,0,0,0,0,0,0,0,0,0,0,0,0,0,0,0,0,0,0,0,0,0,0,0,0,0,0,0,0,0,0,0,0,0,0,0,0,0,0,0,0,0,0,0,0,0,0,0,0,0,0,0,0,0,0,0,0,0,0,0,0,0,0,0,0,
0,0,0,0,0,0,0,0,0,0,0,0,0,0,0,0,0,0,0,0,0,0,0,0,0,0,0,0,0,0,0,0,0,0,0,0,0,0,0,0,0,0,0,0,0,0,0,0,0,0,0,0,0,0,0,0,0,0,0,0,0,0,0,0,0,0,0,0,0,0,0,0,0,0,0,0,0,0,0,0,0,0,0,0,0,0,0,0,0,0,0,0,0,0,0,0,0,0,0,0,0,0,0,0,0,0,0,0,0,0,0,0,0,0,0,0,0,0,0,0,0,0,0,0,0,0,0,0,0,0,0,0,0,0,0,0,0,0,0,0,0,0,0,0,0,0,0,0,0,0,0,0,0,0,0,0,0,0,0,0,0,0,0,0,0,0,0,0,0,0,0,0,0,0,0,0,0,0,0,0,0,0,0,0,0,0,0,0,0,0,0,0,0,0,0,0,0,0,0,0,0,0,0,0,0,0,0,0,0,0,0,0,0,0,0,0,0,0,0,0,0,0,0,0,0,0,0,0,0,0,0,0,0,0,0,0,0,0,0,0,0,0,0,0,0,0,0,0,0,0,0,0,0,0,0,0,0,0,0,0,0,0,0,0,0,0,0,0,0,0,0,0,0,0,0,0,0,0,0,0,0,0,0,0,0,0,0,0,0,0,0,0,0,0,0,0,0,0,0,0,0,0,0,0,0,0,0,0,0,0,0,0,0,0,0,0,0,0,0,0,0,0,
0,0,0,0,0,0,0,0,0,0,0,0,0,0,0,0,0,0,0,0,0,0,0,0,0,0,0,0,0,0,0,0,0,0,0,0,0,0,0,0,0,0,0,0,0,0,0,0,0,0,0,0,0,0,0,0,0,0,0,0,0,0,0,0,0,0,0,0,0,0,0,0,0,0,0,0,0,0,0,0,0,0,0,0,0,0,0,0,0,0,0,0,0,0,0,0,0,0,0,0,0,0,0,0,0,0,0,0,0,0,0,0,0,0,0,0,0,0,0,0,0,0,0,0,0,0,0,0,0,0,0,0,0,0,0,0,0,0,0,0,0,0,0,0,0,0,0,0,0,0,0,0,0,0,0,0,0,0,0,0,0,0,0,0,0,0,0,0,0,0,0,0,0,0,0,0,0,0,0,0,0,0,0,0,0,0,0,0,0,0,0,0,0,0,0,0,0,0,0,0,0,0,0,0,0,0,0,0,0,0,0,0,0,0,0,0,0,0,0,0,0,0,0,0,0,0,0,0,0,0,0,0,0,0,0,0,0,0,0,0,0,0,0,0,0,0,0,0,0,0,0,0,0,0,0,0,0,0,0,0,0,0,0,0,0,0,0,0,0,0,0,0,0,0,0,0,0,0,0,0,0,0,0,0,0,0,0,0,0,0,0,0,0,0,0,0,0,0,0,0,0,0,0,0,0,0,0,0,0,0,0,0,0,0,0,0,0,0,0,0,0,0,
0,0,0,0,0,0,0,0,0,0,0,0,0,0,0,0,0,0,0,0,0,0,0,0,0,0,0,0,0,0,0,0,0,0,0,0,0,0,0,0,0,0,0,0,0,0,0,0,0,0,0,0,0,0,0,0,0,0,0,0,0,0,0,0,0,0,0,0,0,0,0,0,0,0,0,0,0,0,0,0,0,0,0,0,0,0,0,0,0,0,0,0,0,0,0,0,0,0,0,0,0,0,0,0,0,0,0,0,0,0,0,0,0,0,0,0,0,0,0,0,0,0,0,0,0,0,0,0,0,0,0,0,0,0,0,0,0,0,0,0,0,0,0,0,0,0,0,0,0,0,0,0,0,0,0,0,0,0,0,0,0,0,0,0,0,0,0,0,0,0,0,0,0,0,0,0,0,0,0,0,0,0,0,0,0,0,0,0,0,0,0,0,0,0,0,0,0,0,0,0,0,0,0,0,0,0,0,0,0,0,0,0,0,0,0,0,0,0,0,0,0,0,0,0,0,0,0,0,0,0,0,0,0,0,0,0,0,0,0,0,0,0,0,0,0,0,0,0,0,0,0,0,0,0,0,0,0,0,0,0,0,0,0,0,0,0,0,0,0,0,0,0,0,0,0,0,0,0,0,0,0,0,0,0,0,0,0,0,0,0,0,0,0,0,0,0,0,0,0,0,0,0,0,0,0,0,0,0,0,0,0,0,0,0,0,0,0,0,0,0,0,0,
0,0,0,0,0,0,0,0,0,0,0,0,0,0,0,0,0,0,0,0,0,0,0,0,0,0,0,0,0,0,0,0,0,0,0,0,0,0,0,0,0,0,0,0,0,0,0,0,0,0,0,0,0,0,0,0,0,0,0,0,0,0,0,0,0,0,0,0,0,0,0,0,0,0,0,0,0,0,0,0,0,0,0,0,0,0,0,0,0,0,0,0,0,0,0,0,0,0,0,0,0,0,0,0,0,0,0,0,0,0,0,0,0,0,0,0,0,0,0,0,0,0,0,0,0,0,0,0,0,0,0,0,0,0,0,0,0,0,0,0,0,0,0,0,0,0,0,0,0,0,0,0,0,0,0,0,0,0,0,0,0,0,0,0,0,0,0,0,0,0,0,0,0,0,0,0,0,0,0,0,0,0,0,0,0,0,0,0,0,0,0,0,0,0,0,0,0,0,0,0,0,0,0,0,0,0,0,0,0,0,0,0,0,0,0,0,0,0,0,0,0,0,0,0,0,0,0,0,0,0,0,0,0,0,0,0,0,0,0,0,0,0,0,0,0,0,0,0,0,0,0,0,0,0,0,0,0,0,0,0,0,0,0,0,0,0,0,0,0,0,0,0,0,0,0,0,0,0,0,0,0,0,0,0,0,0,0,0,0,0,0,0,0,0,0,0,0,0,0,0,0,0,0,0,0,0,0,0,0,0,0,0,0,0,0,0,0,0,0,0,0,0,
0,0,0,0,0,0,0,0,0,0,0,0,0,0,0,0,0,0,0,0,0,0,0,0,0,0,0,0,0,0,0,0,0,0,0,0,0,0,0,0,0,0,0,0,0,0,0,0,0,0,0,0,0,0,0,0,0,0,0,0,0,0,0,0,0,0,0,0,0,0,0,0,0,0,0,0,0,0,0,0,0,0,0,0,0,0,0,0,0,0,0,0,0,0,0,0,0,0,0,0,0,0,0,0,0,0,0,0,0,0,0,0,0,0,0,0,0,0,0,0,0,0,0,0,0,0,0,0,0,0,0,0,0,0,0,0,0,0,0,0,0,0,0,0,0,0,0,0,0,0,0,0,0,0,0,0,0,0,0,0,0,0,0,0,0,0,0,0,0,0,0,0,0,0,0,0,0,0,0,0,0,0,0,0,0,0,0,0,0,0,0,0,0,0,0,0,0,0,0,0,0,0,0,0,0,0,0,0,0,0,0,0,0,0,0,0,0,0,0,0,0,0,0,0,0,0,0,0,0,0,0,0,0,0,0,0,0,0,0,0,0,0,0,0,0,0,0,0,0,0,0,0,0,0,0,0,0,0,0,0,0,0,0,0,0,0,0,0,0,0,0,0,0,0,0,0,0,0,0,0,0,0,0,0,0,0,0,0,0,0,0,0,0,0,0,0,0,0,0,0,0,0,0,0,0,0,0,0,0,0,0,0,0,0,0,0,0,0,0,0,0,0,
0,0,0,0,0,0,0,0,0,0,0,0,0,0,0,0,0,0,0,0,0,0,0,0,0,0,0,0,0,0,0,0,0,0,0,0,0,0,0,0,0,0,0,0,0,0,0,0,0,0,0,0,0,0,0,0,0,0,0,0,0,0,0,0,0,0,0,0,0,0,0,0,0,0,0,0,0,0,0,0,0,0,0,0,0,0,0,0,0,0,0,0,0,0,0,0,0,0,0,0,0,0,0,0,0,0,0,0,0,0,0,0,0,0,0,0,0,0,0,0,0,0,0,0,0,0,0,0,0,0,0,0,0,0,0,0,0,0,0,0,0,0,0,0,0,0,0,0,0,0,0,0,0,0,0,0,0,0,0,0,0,0,0,0,0,0,0,0,0,0,0,0,0,0,0,0,0,0,0,0,0,0,0,0,0,0,0,0,0,0,0,0,0,0,0,0,0,0,0,0,0,0,0,0,0,0,0,0,0,0,0,0,0,0,0,0,0,0,0,0,0,0,0,0,0,0,0,0,0,0,0,0,0,0,0,0,0,0,0,0,0,0,0,0,0,0,0,0,0,0,0,0,0,0,0,0,0,0,0,0,0,0,0,0,0,0,0,0,0,0,0,0,0,0,0,0,0,0,0,0,0,0,0,0,0,0,0,0,0,0,0,0,0,0,0,0,0,0,0,0,0,0,0,0,0,0,0,0,0,0,0,0,0,0,0,0,0,0,0,0,0,0,
0,0,0,0,0,0,0,0,0,0,0,0,0,0,0,0,0,0,0,0,0,0,0,0,0,0,0,0,0,0,0,0,0,0,0,0,0,0,0,0,0,0,0,0,0,0,0,0,0,0,0,0,0,0,0,0,0,0,0,0,0,0,0,0,0,0,0,0,0,0,0,0,0,0,0,0,0,0,0,0,0,0,0,0,0,0,0,0,0,0,0,0,0,0,0,0,0,0,0,0,0,0,0,0,0,0,0,0,0,0,0,0,0,0,0,0,0,0,0,0,0,0,0,0,0,0,0,0,0,0,0,0,0,0,0,0,0,0,0,0,0,0,0,0,0,0,0,0,0,0,0,0,0,0,0,0,0,0,0,0,0,0,0,0,0,0,0,0,0,0,0,0,0,0,0,0,0,0,0,0,0,0,0,0,0,0,0,0,0,0,0,0,0,0,0,0,0,0,0,0,0,0,0,0,0,0,0,0,0,0,0,0,0,0,0,0,0,0,0,0,0,0,0,0,0,0,0,0,0,0,0,0,0,0,0,0,0,0,0,0,0,0,0,0,0,0,0,0,0,0,0,0,0,0,0,0,0,0,0,0,0,0,0,0,0,0,0,0,0,0,0,0,0,0,0,0,0,0,0,0,0,0,0,0,0,0,0,0,0,0,0,0,0,0,0,0,0,0,0,0,0,0,0,0,0,0,0,0,0,0,0,0,0,0,0,0,0,0,0,0,0,0,
0,0,0,0,0,0,0,0,0,0,0,0,0,0,0,0,0,0,0,0,0,0,0,0,0,0,0,0,0,0,0,0,0,0,0,0,0,0,0,0,0,0,0,0,0,0,0,0,0,0,0,0,0,0,0,0,0,0,0,0,0,0,0,0,0,0,0,0,0,0,0,0,0,0,0,0,0,0,0,0,0,0,0,0,0,0,0,0,0,0,0,0,0,0,0,0,0,0,0,0,0,0,0,0,0,0,0,0,0,0,0,0,0,0,0,0,0,0,0,0,0,0,0,0,0,0,0,0,0,0,0,0,0,0,0,0,0,0,0,0,0,0,0,0,0,0,0,0,0,0,0,0,0,0,0,0,0,0,0,0,0,0,0,0,0,0,0,0,0,0,0,0,0,0,0,0,0,0,0,0,0,0,0,0,0,0,0,0,0,0,0,0,0,0,0,0,0,0,0,0,0,0,0,0,0,0,0,0,0,0,0,0,0,0,0,0,0,0,0,0,0,0,0,0,0,0,0,0,0,0,0,0,0,0,0,0,0,0,0,0,0,0,0,0,0,0,0,0,0,0,0,0,0,0,0,0,0,0,0,0,0,0,0,0,0,0,0,0,0,0,0,0,0,0,0,0,0,0,0,0,0,0,0,0,0,0,0,0,0,0,0,0,0,0,0,0,0,0,0,0,0,0,0,0,0,0,0,0,0,0,1273,0,0,0,0,0,0,0,0,0,0,0,
0,0,0,0,0,0,0,0,0,0,0,0,0,0,0,0,0,0,0,0,0,0,0,0,0,0,0,0,0,0,0,0,0,0,0,0,0,0,0,0,0,0,0,0,0,0,0,0,0,0,0,0,0,0,0,0,0,0,0,0,0,0,0,0,0,0,0,0,0,0,0,0,0,0,0,0,0,0,0,0,0,0,0,0,0,0,0,0,0,0,0,0,0,0,0,0,0,0,0,0,0,0,0,0,0,0,0,0,0,0,0,0,0,0,0,0,0,0,0,0,0,0,0,0,0,0,0,0,0,0,0,0,0,0,0,0,0,0,0,0,0,0,0,0,0,0,0,0,0,0,0,0,0,0,0,0,0,0,0,0,0,0,0,0,0,0,0,0,0,0,0,0,0,0,0,0,0,0,0,0,0,0,0,0,0,0,0,0,0,0,0,0,0,0,0,0,0,0,0,0,0,0,0,0,0,0,0,0,0,0,0,0,0,0,0,0,0,0,0,0,0,0,0,0,0,0,0,0,0,0,0,0,0,0,0,0,0,0,0,0,0,0,0,0,0,0,0,0,0,0,0,0,0,0,0,0,0,0,0,0,0,0,0,0,0,0,0,0,0,0,0,0,0,0,0,0,0,0,0,0,0,0,0,0,0,0,0,0,0,0,0,0,0,0,0,0,0,0,0,0,0,0,0,0,0,0,0,0,0,0,1281,0,0,0,0,0,0,0,0,0,0,0,
0,0,0,0,0,0,0,0,0,0,0,0,0,0,0,0,0,0,0,0,0,0,0,0,0,0,0,0,0,0,0,0,0,0,0,0,0,0,0,0,0,0,0,0,0,0,0,0,0,0,0,0,0,0,0,0,0,0,0,0,0,0,0,0,0,0,0,0,0,0,0,0,0,0,0,0,0,0,0,0,0,0,0,0,0,0,0,0,0,0,0,0,0,0,0,0,0,0,0,0,0,0,0,0,0,0,0,0,0,0,0,0,0,0,0,0,0,0,0,0,0,0,0,0,0,0,0,0,0,0,0,0,0,0,0,0,0,0,0,0,0,0,0,0,0,0,0,0,0,0,0,0,0,0,0,0,0,0,0,0,0,0,0,0,0,0,0,0,0,0,0,0,0,0,0,0,0,0,0,0,0,0,0,0,0,0,0,0,0,0,0,0,0,0,0,0,0,0,0,0,0,0,0,0,0,0,0,0,0,0,0,0,0,0,0,0,0,0,0,0,0,0,0,0,0,0,0,0,0,0,0,0,0,0,0,0,0,0,0,0,0,0,0,0,0,0,0,0,0,0,0,0,0,0,0,0,0,0,0,0,0,0,0,0,0,0,0,0,0,0,0,0,0,0,0,0,0,0,0,0,0,0,0,0,0,0,0,0,0,0,0,0,0,0,0,0,0,0,0,0,0,0,0,0,0,0,0,0,0,0,1289,0,0,0,0,0,0,0,0,0,0,0,
0,0,0,0,0,0,0,0,0,0,0,0,0,0,0,0,0,0,0,0,0,0,0,0,0,0,0,0,0,0,0,0,0,0,0,0,0,0,0,0,0,0,0,0,0,0,0,0,0,0,0,0,0,0,0,0,0,0,0,0,0,0,0,0,0,0,0,0,0,0,0,0,0,0,0,0,0,0,0,0,0,0,0,0,0,0,0,0,0,0,0,0,0,0,0,0,0,0,0,0,0,0,0,0,0,0,0,0,0,0,0,0,0,0,0,0,0,0,0,0,0,0,0,0,0,0,0,0,0,0,0,0,0,0,0,0,0,0,0,0,0,0,0,0,0,0,0,0,0,0,0,0,0,0,0,0,0,0,0,0,0,0,0,0,0,0,0,0,0,0,0,0,0,0,0,0,0,0,0,0,0,0,0,0,0,0,0,0,0,0,0,0,0,0,0,0,0,0,0,0,0,0,0,0,0,0,0,0,0,0,0,0,0,0,0,0,0,0,0,0,0,0,0,0,0,0,0,0,0,0,0,0,0,0,0,0,0,0,0,0,0,0,0,0,0,0,0,0,0,0,0,0,0,0,0,0,0,0,0,0,0,0,0,0,0,0,0,0,0,0,0,0,0,0,0,0,0,0,0,0,0,0,0,0,0,0,0,0,0,0,0,0,0,0,0,0,0,0,0,0,0,0,0,0,0,0,0,0,0,0,1297,0,0,0,0,0,0,0,0,0,0,0,
0,0,0,0,0,0,0,0,0,0,0,0,0,0,0,0,0,0,0,0,0,0,0,0,0,0,0,0,0,0,0,0,0,0,0,0,0,0,0,0,0,0,0,0,0,0,0,0,0,0,0,0,0,0,0,0,0,0,0,0,0,0,0,0,0,0,0,0,0,0,0,0,0,0,0,0,0,0,0,0,0,0,0,0,0,0,0,0,0,0,0,0,0,0,0,0,0,0,0,0,0,0,0,0,0,0,0,0,0,0,0,0,0,0,0,0,0,0,0,0,0,0,0,0,0,0,0,0,0,0,0,0,0,0,0,0,0,0,0,0,0,0,0,0,0,0,0,0,0,0,0,0,0,0,0,0,0,0,0,0,0,0,0,0,0,0,0,0,0,0,0,0,0,0,0,0,0,0,0,0,0,0,0,0,0,0,0,0,0,0,0,0,0,0,0,0,0,0,0,0,0,0,0,0,0,0,0,0,0,0,0,0,0,0,0,0,0,0,0,0,0,0,0,0,0,0,0,0,0,0,0,0,0,0,0,0,0,0,0,0,0,0,0,0,0,0,0,0,0,0,0,0,0,0,0,0,0,0,0,0,0,0,0,0,0,0,0,0,0,0,0,0,0,0,0,0,0,0,0,0,0,0,0,0,0,0,0,0,0,0,0,0,0,0,0,0,0,0,0,0,0,0,0,0,0,0,0,0,0,0,1305,0,0,0,0,0,0,0,0,0,0,0,
0,0,0,0,0,0,0,0,0,0,0,0,0,0,0,0,0,0,0,0,0,0,0,0,0,0,0,0,0,0,0,0,0,0,0,0,0,0,0,0,0,0,0,0,0,0,0,0,0,0,0,0,0,0,0,0,0,0,0,0,0,0,0,0,0,0,0,0,0,0,0,0,0,0,0,0,0,0,0,0,0,0,0,0,0,0,0,0,0,0,0,0,0,0,0,0,0,0,0,0,0,0,0,0,0,0,0,0,0,0,0,0,0,0,0,0,0,0,0,0,0,0,0,0,0,0,0,0,0,0,0,0,0,0,0,0,0,0,0,0,0,0,0,0,0,0,0,0,0,0,0,0,0,0,0,0,0,0,0,0,0,0,0,0,0,0,0,0,0,0,0,0,0,0,0,0,0,0,0,0,0,0,0,0,0,0,0,0,0,0,0,0,0,0,0,0,0,0,0,0,0,0,0,0,0,0,0,0,0,0,0,0,0,0,0,0,0,0,0,0,0,0,0,0,0,0,0,0,0,0,0,0,0,0,0,0,0,0,0,0,0,0,0,0,0,0,0,0,0,0,0,0,0,0,0,0,0,0,0,0,0,0,0,0,0,0,0,0,0,0,0,0,0,0,0,0,0,0,0,0,0,0,0,0,0,0,0,0,0,0,0,0,0,0,0,0,0,0,0,0,0,0,0,0,0,0,0,0,0,0,1313,0,0,0,0,0,0,0,0,0,0,0,
0,0,0,0,0,0,0,0,0,0,0,0,0,0,0,0,0,0,0,0,0,0,0,0,0,0,0,0,0,0,0,0,0,0,0,0,0,0,0,0,0,0,0,0,0,0,0,0,0,0,0,0,0,0,0,0,0,0,0,0,0,0,0,0,0,0,0,0,0,0,0,0,0,0,0,0,0,0,0,0,0,0,0,0,0,0,0,0,0,0,0,0,0,0,0,0,0,0,0,0,0,0,0,0,0,0,0,0,0,0,0,0,0,0,0,0,0,0,0,0,0,0,0,0,0,0,0,0,0,0,0,0,0,0,0,0,0,0,0,0,0,0,0,0,0,0,0,0,0,0,0,0,0,0,0,0,0,0,0,0,0,0,0,0,0,0,0,0,0,0,0,0,0,0,0,0,0,0,0,0,0,0,0,0,0,0,0,0,0,0,0,0,0,0,0,0,0,0,0,0,0,0,0,0,0,0,0,0,0,0,0,0,0,0,0,0,0,0,0,0,0,0,0,0,0,0,0,0,0,0,0,0,0,0,0,0,0,0,0,0,0,0,0,0,0,0,0,0,0,0,0,0,0,0,0,0,0,0,0,0,0,0,0,0,0,0,0,0,0,0,0,0,0,0,0,0,0,0,0,0,0,0,0,0,0,0,0,0,0,0,0,0,0,0,0,0,0,0,0,0,0,0,0,0,0,0,0,0,0,0,1321,0,0,0,0,0,0,0,0,0,0,0,
0,0,0,0,0,0,0,0,0,0,0,0,0,0,0,0,0,0,0,0,0,0,0,0,0,0,0,0,0,0,0,0,0,0,0,0,0,0,0,0,0,0,0,0,0,0,0,0,0,0,0,0,0,0,0,0,0,0,0,0,0,0,0,0,0,0,0,0,0,0,0,0,0,0,0,0,0,0,0,0,0,0,0,0,0,0,0,0,0,0,0,0,0,0,0,0,0,0,0,0,0,0,0,0,0,0,0,0,0,0,0,0,0,0,0,0,0,0,0,0,0,0,0,0,0,0,0,0,0,0,0,0,0,0,0,0,0,0,0,0,0,0,0,0,0,0,0,0,0,0,0,0,0,0,0,0,0,0,0,0,0,0,0,0,0,0,0,0,0,0,0,0,0,0,0,0,0,0,0,0,0,0,0,0,0,0,0,0,0,0,0,0,0,0,0,0,0,0,0,0,0,0,0,0,0,0,0,0,0,0,0,0,0,0,0,0,0,0,0,0,0,0,0,0,0,0,0,0,0,0,0,0,0,0,0,0,0,0,0,0,0,0,0,0,0,0,0,0,0,0,0,0,0,0,0,0,0,0,0,0,0,0,0,0,0,0,0,0,0,0,0,0,0,0,0,0,0,0,0,0,0,0,0,0,0,0,0,0,0,0,0,0,0,0,0,0,0,0,0,0,0,0,0,0,0,0,0,0,0,0,1329,0,0,0,0,0,0,0,0,0,0,0,
0,0,0,0,0,0,0,0,0,0,0,0,0,0,0,0,0,0,0,0,0,0,0,0,0,0,0,0,0,0,0,0,0,0,0,0,0,0,0,0,0,0,0,0,0,0,0,0,0,0,0,0,0,0,0,0,0,0,0,0,0,0,0,0,0,0,0,0,0,0,0,0,0,0,0,0,0,0,0,0,0,0,0,0,0,0,0,0,0,0,0,0,0,0,0,0,0,0,0,0,0,0,0,0,0,0,0,0,0,0,0,0,0,0,0,0,0,0,0,0,0,0,0,0,0,0,0,0,0,0,0,0,0,0,0,0,0,0,0,0,0,0,0,0,0,0,0,0,0,0,0,0,0,0,0,0,0,0,0,0,0,0,0,0,0,0,0,0,0,0,0,0,0,0,0,0,0,0,0,0,0,0,0,0,0,0,0,0,0,0,0,0,0,0,0,0,0,0,0,0,0,0,0,0,0,0,0,0,0,0,0,0,0,0,0,0,0,0,0,0,0,0,0,0,0,0,0,0,0,0,0,0,0,0,0,0,0,0,0,0,0,0,0,0,0,0,0,0,0,0,0,0,0,0,0,0,0,0,0,0,0,0,0,0,0,0,0,0,0,0,0,0,0,0,0,0,0,0,0,0,0,0,0,0,0,0,0,0,0,0,0,0,0,0,0,0,0,0,0,0,0,0,0,0,0,0,0,0,0,0,0,0,0,0,0,0,0,0,0,0,0,0,
0,0,0,0,0,0,0,0,0,0,0,0,0,0,0,0,0,0,0,0,0,0,0,0,0,0,0,0,0,0,0,0,0,0,0,0,0,0,0,0,0,0,0,0,0,0,0,0,0,0,0,0,0,0,0,0,0,0,0,0,0,0,0,0,0,0,0,0,0,0,0,0,0,0,0,0,0,0,0,0,0,0,0,0,0,0,0,0,0,0,0,0,0,0,0,0,0,0,0,0,0,0,0,0,0,0,0,0,0,0,0,0,0,0,0,0,0,0,0,0,0,0,0,0,0,0,0,0,0,0,0,0,0,0,0,0,0,0,0,0,0,0,0,0,0,0,0,0,0,0,0,0,0,0,0,0,0,0,0,0,0,0,0,0,0,0,0,0,0,0,0,0,0,0,0,0,0,0,0,0,0,0,0,0,0,0,0,0,0,0,0,0,0,0,0,0,0,0,0,0,0,0,0,0,0,0,0,0,0,0,0,0,0,0,0,0,0,0,0,0,0,0,0,0,0,0,0,0,0,0,0,0,0,0,0,0,0,0,0,0,0,0,0,0,0,0,0,0,0,0,0,0,0,0,0,0,0,0,0,0,0,0,0,0,0,0,0,0,0,0,0,0,0,0,0,0,0,0,0,0,0,0,0,0,0,0,0,0,0,0,0,0,0,0,0,0,0,0,0,0,0,0,0,0,0,0,0,0,0,0,0,0,0,0,0,0,0,0,0,0,0,0,
0,0,0,0,0,0,0,0,0,0,0,0,0,0,0,0,0,0,0,0,0,0,0,0,0,0,0,0,0,0,0,0,0,0,0,0,0,0,0,0,0,0,0,0,0,0,0,0,0,0,0,0,0,0,0,0,0,0,0,0,0,0,0,0,0,0,0,0,0,0,0,0,0,0,0,0,0,0,0,0,0,0,0,0,0,0,0,0,0,0,0,0,0,0,0,0,0,0,0,0,0,0,0,0,0,0,0,0,0,0,0,0,0,0,0,0,0,0,0,0,0,0,0,0,0,0,0,0,0,0,0,0,0,0,0,0,0,0,0,0,0,0,0,0,0,0,0,0,0,0,0,0,0,0,0,0,0,0,0,0,0,0,0,0,0,0,0,0,0,0,0,0,0,0,0,0,0,0,0,0,0,0,0,0,0,0,0,0,0,0,0,0,0,0,0,0,0,0,0,0,0,0,0,0,0,0,0,0,0,0,0,0,0,0,0,0,0,0,0,0,0,0,0,0,0,0,0,0,0,0,0,0,0,0,0,0,0,0,0,0,0,0,0,0,0,0,0,0,0,0,0,0,0,0,0,0,0,0,0,0,0,0,0,0,0,0,0,0,0,0,0,0,0,0,0,0,0,0,0,0,0,0,0,0,0,0,0,0,0,0,0,0,0,0,0,0,0,0,0,0,0,0,0,0,0,0,0,0,0,0,0,0,0,0,0,0,0,0,0,0,0,0,
0,0,0,0,0,0,0,0,0,0,0,0,0,0,0,0,0,0,0,0,0,0,0,0,0,0,0,0,0,0,0,0,0,0,0,0,0,0,0,0,0,0,0,0,0,0,0,0,0,0,0,0,0,0,0,0,0,0,0,0,0,0,0,0,0,0,0,0,0,0,0,0,0,0,0,0,0,0,0,0,0,0,0,0,0,0,0,0,0,0,0,0,0,0,0,0,0,0,0,0,0,0,0,0,0,0,0,0,0,0,0,0,0,0,0,0,0,0,0,0,0,0,0,0,0,0,0,0,0,0,0,0,0,0,0,0,0,0,0,0,0,0,0,0,0,0,0,0,0,0,0,0,0,0,0,0,0,0,0,0,0,0,0,0,0,0,0,0,0,0,0,0,0,0,0,0,0,0,0,0,0,0,0,0,0,0,0,0,0,0,0,0,0,0,0,0,0,0,0,0,0,0,0,0,0,0,0,0,0,0,0,0,0,0,0,0,0,0,0,0,0,0,0,0,0,0,0,0,0,0,0,0,0,0,0,0,0,0,0,0,0,0,0,0,0,0,0,0,0,0,0,0,0,0,0,0,0,0,0,0,0,0,0,0,0,0,0,0,0,0,0,0,0,0,0,0,0,0,0,0,0,0,0,0,0,0,0,0,0,0,0,0,0,0,0,0,0,0,0,0,0,0,0,0,0,0,0,0,0,0,0,0,0,0,0,0,0,0,0,0,0,0,
0,0,0,0,0,0,0,0,0,0,0,0,0,0,0,0,0,0,0,0,0,0,0,0,0,0,0,0,0,0,0,0,0,0,0,0,0,0,0,0,0,0,0,0,0,0,0,0,0,0,0,0,0,0,0,0,0,0,0,0,0,0,0,0,0,0,0,0,0,0,0,0,0,0,0,0,0,0,0,0,0,0,0,0,0,0,0,0,0,0,0,0,0,0,0,0,0,0,0,0,0,0,0,0,0,0,0,0,0,0,0,0,0,0,0,0,0,0,0,0,0,0,0,0,0,0,0,0,0,0,0,0,0,0,0,0,0,0,0,0,0,0,0,0,0,0,0,0,0,0,0,0,0,0,0,0,0,0,0,0,0,0,0,0,0,0,0,0,0,0,0,0,0,0,0,0,0,0,0,0,0,0,0,0,0,0,0,0,0,0,0,0,0,0,0,0,0,0,0,0,0,0,0,0,0,0,0,0,0,0,0,0,0,0,0,0,0,0,0,0,0,0,0,0,0,0,0,0,0,0,0,0,0,0,0,0,0,0,0,0,0,0,0,0,0,0,0,0,0,0,0,0,0,0,0,0,0,0,0,0,0,0,0,0,0,0,0,0,0,0,0,0,0,0,0,0,0,0,0,0,0,0,0,0,0,0,0,0,0,0,0,0,0,0,0,0,0,0,0,0,0,0,0,0,0,0,0,0,0,0,0,0,0,0,0,0,0,0,0,0,0,0,
0,0,0,0,0,0,0,0,0,0,0,0,0,0,0,0,0,0,0,0,0,0,0,0,0,0,0,0,0,0,0,0,0,0,0,0,0,0,0,0,0,0,0,0,0,0,0,0,0,0,0,0,0,0,0,0,0,0,0,0,0,0,0,0,0,0,0,0,0,0,0,0,0,0,0,0,0,0,0,0,0,0,0,0,0,0,0,0,0,0,0,0,0,0,0,0,0,0,0,0,0,0,0,0,0,0,0,0,0,0,0,0,0,0,0,0,0,0,0,0,0,0,0,0,0,0,0,0,0,0,0,0,0,0,0,0,0,0,0,0,0,0,0,0,0,0,0,0,0,0,0,0,0,0,0,0,0,0,0,0,0,0,0,0,0,0,0,0,0,0,0,0,0,0,0,0,0,0,0,0,0,0,0,0,0,0,0,0,0,0,0,0,0,0,0,0,0,0,0,0,0,0,0,0,0,0,0,0,0,0,0,0,0,0,0,0,0,0,0,0,0,0,0,0,0,0,0,0,0,0,0,0,0,0,0,0,0,0,0,0,0,0,0,0,0,0,0,0,0,0,0,0,0,0,0,0,0,0,0,0,0,0,0,0,0,0,0,0,0,0,0,0,0,0,0,0,0,0,0,0,0,0,0,0,0,0,0,0,0,0,0,0,0,0,0,0,0,0,0,0,0,0,0,0,0,0,0,0,0,0,0,0,0,0,0,0,0,0,0,0,0,0,
0,0,0,0,0,0,0,0,0,0,0,0,0,0,0,0,0,0,0,0,0,0,0,0,0,0,0,0,0,0,0,0,0,0,0,0,0,0,0,0,0,0,0,0,0,0,0,0,0,0,0,0,0,0,0,0,0,0,0,0,0,0,0,0,0,0,0,0,0,0,0,0,0,0,0,0,0,0,0,0,0,0,0,0,0,0,0,0,0,0,0,0,0,0,0,0,0,0,0,0,0,0,0,0,0,0,0,0,0,0,0,0,0,0,0,0,0,0,0,0,0,0,0,0,0,0,0,0,0,0,0,0,0,0,0,0,0,0,0,0,0,0,0,0,0,0,0,0,0,0,0,0,0,0,0,0,0,0,0,0,0,0,0,0,0,0,0,0,0,0,0,0,0,0,0,0,0,0,0,0,0,0,0,0,0,0,0,0,0,0,0,0,0,0,0,0,0,0,0,0,0,0,0,0,0,0,0,0,0,0,0,0,0,0,0,0,0,0,0,0,0,0,0,0,0,0,0,0,0,0,0,0,0,0,0,0,0,0,0,0,0,0,0,0,0,0,0,0,0,0,0,0,0,0,0,0,0,0,0,0,0,0,0,0,0,0,0,0,0,0,0,0,0,0,0,0,0,0,0,0,0,0,0,0,0,0,0,0,0,0,0,0,0,0,0,0,0,0,0,0,0,0,0,0,0,0,0,0,0,0,0,0,0,0,0,0,0,0,0,0,0,0,
0,0,0,0,0,0,0,0,0,0,0,0,0,0,0,0,0,0,0,0,0,0,0,0,0,0,0,0,0,0,0,0,0,0,0,0,0,0,0,0,0,0,0,0,0,0,0,0,0,0,0,0,0,0,0,0,0,0,0,0,0,0,0,0,0,0,0,0,0,0,0,0,0,0,0,0,0,0,0,0,0,0,0,0,0,0,0,0,0,0,0,0,0,0,0,0,0,0,0,0,0,0,0,0,0,0,0,0,0,0,0,0,0,0,0,0,0,0,0,0,0,0,0,0,0,0,0,0,0,0,0,0,0,0,0,0,0,0,0,0,0,0,0,0,0,0,0,0,0,0,0,0,0,0,0,0,0,0,0,0,0,0,0,0,0,0,0,0,0,0,0,0,0,0,0,0,0,0,0,0,0,0,0,0,0,0,0,0,0,0,0,0,0,0,0,0,0,0,0,0,0,0,0,0,0,0,0,0,0,0,0,0,0,0,0,0,0,0,0,0,0,0,0,0,0,0,0,0,0,0,0,0,0,0,0,0,0,0,0,0,0,0,0,0,0,0,0,0,0,0,0,0,0,0,0,0,0,0,0,0,0,0,0,0,0,0,0,0,0,0,0,0,0,0,0,0,0,0,0,0,0,0,0,0,0,0,0,0,0,0,0,0,0,0,0,0,0,0,0,0,0,0,0,0,0,0,0,0,0,0,0,0,0,0,0,0,0,0,0,0,0,0,
0,0,0,0,0,0,0,0,0,0,0,0,0,0,0,0,0,0,0,0,0,0,0,0,0,0,0,0,0,0,0,0,0,0,0,0,0,0,0,0,0,0,0,0,0,0,0,0,0,0,0,0,0,0,0,0,0,0,0,0,0,0,0,0,0,0,0,0,0,0,0,0,0,0,0,0,0,0,0,0,0,0,0,0,0,0,0,0,0,0,0,0,0,0,0,0,0,0,0,0,0,0,0,0,0,0,0,0,0,0,0,0,0,0,0,0,0,0,0,0,0,0,0,0,0,0,0,0,0,0,0,0,0,0,0,0,0,0,0,0,0,0,0,0,0,0,0,0,0,0,0,0,0,0,0,0,0,0,0,0,0,0,0,0,0,0,0,0,0,0,0,0,0,0,0,0,0,0,0,0,0,0,0,0,0,0,0,0,0,0,0,0,0,0,0,0,0,0,0,0,0,0,0,0,0,0,0,0,0,0,0,0,0,0,0,0,0,0,0,0,0,0,0,0,0,0,0,0,0,0,0,0,0,0,0,0,0,0,0,0,0,0,0,0,0,0,0,0,0,0,0,0,0,0,0,0,0,0,0,0,0,0,0,0,0,0,0,0,0,0,0,0,0,0,0,0,0,0,0,0,0,0,0,0,0,0,0,0,0,0,0,0,0,0,0,0,0,0,0,0,0,0,0,0,0,0,0,0,0,0,0,0,0,0,0,0,0,0,0,0,0,0
</data>
 </layer>
 <objectgroup id="11" name="Monedas">
  <object id="71" gid="4791" x="3072" y="800" width="32" height="32"/>
  <object id="72" gid="4791" x="3104" y="800" width="32" height="32"/>
  <object id="73" gid="4791" x="3136" y="800" width="32" height="32"/>
  <object id="74" gid="4791" x="3168" y="800" width="32" height="32"/>
  <object id="75" gid="4791" x="3200" y="800" width="32" height="32"/>
  <object id="76" gid="4791" x="3232" y="800" width="32" height="32"/>
  <object id="77" gid="4791" x="3264" y="800" width="32" height="32"/>
  <object id="78" gid="4791" x="3296" y="800" width="32" height="32"/>
  <object id="79" gid="4791" x="3328" y="800" width="32" height="32"/>
  <object id="80" gid="4791" x="3360" y="800" width="32" height="32"/>
  <object id="81" gid="4791" x="3392" y="800" width="32" height="32"/>
  <object id="82" gid="4791" x="3424" y="800" width="32" height="32"/>
  <object id="83" name="purple" gid="4800" x="3456" y="800" width="32" height="32"/>
  <object id="84" gid="4791" x="3488" y="800" width="32" height="32"/>
  <object id="85" gid="4791" x="3520" y="800" width="32" height="32"/>
  <object id="86" gid="4791" x="3584" y="800" width="32" height="32"/>
  <object id="87" gid="4791" x="3552" y="800" width="32" height="32"/>
  <object id="88" gid="4791" x="3616" y="800" width="32" height="32"/>
  <object id="89" gid="4791" x="3648" y="800" width="32" height="32"/>
  <object id="90" gid="4791" x="3680" y="800" width="32" height="32"/>
  <object id="91" gid="4791" x="3712" y="800" width="32" height="32"/>
  <object id="92" gid="4791" x="3744" y="800" width="32" height="32"/>
  <object id="93" gid="4791" x="3776" y="800" width="32" height="32"/>
  <object id="94" gid="4791" x="3808" y="800" width="32" height="32"/>
  <object id="98" gid="4791" x="2400" y="480" width="32" height="32"/>
  <object id="99" gid="4791" x="2368" y="480" width="32" height="32"/>
  <object id="100" gid="4791" x="2432" y="480" width="32" height="32"/>
  <object id="101" gid="4791" x="2464" y="512" width="32" height="32"/>
  <object id="102" gid="4791" x="2336" y="512" width="32" height="32"/>
  <object id="103" gid="4791" x="3424" y="448" width="32" height="32"/>
  <object id="104" gid="4791" x="3456" y="480" width="32" height="32"/>
  <object id="105" gid="4791" x="3488" y="512" width="32" height="32"/>
  <object id="106" gid="4791" x="3520" y="544" width="32" height="32"/>
  <object id="107" gid="4791" x="3040" y="448" width="32" height="32"/>
  <object id="108" gid="4791" x="3072" y="416" width="32" height="32"/>
  <object id="109" gid="4791" x="3104" y="384" width="32" height="32"/>
  <object id="110" gid="4791" x="3136" y="384" width="32" height="32"/>
  <object id="111" gid="4791" x="5632" y="512" width="32" height="32"/>
  <object id="112" gid="4791" x="5664" y="480" width="32" height="32"/>
  <object id="113" gid="4791" x="5696" y="480" width="32" height="32"/>
  <object id="114" gid="4791" x="6304" y="608" width="32" height="32"/>
  <object id="115" gid="4791" x="6464" y="576" width="32" height="32"/>
  <object id="116" gid="4791" x="6624" y="640" width="32" height="32"/>
  <object id="117" name="purple" gid="4800" x="7168" y="768" width="32" height="32"/>
  <object id="118" gid="4791" x="7008" y="512" width="32" height="32"/>
  <object id="119" gid="4791" x="7040" y="512" width="32" height="32"/>
  <object id="120" gid="4791" x="7136" y="608" width="32" height="32"/>
  <object id="121" gid="4791" x="7168" y="608" width="32" height="32"/>
  <object id="122" gid="4791" x="6912" y="608" width="32" height="32"/>
  <object id="123" gid="4791" x="6880" y="608" width="32" height="32"/>
  <object id="124" name="purple" gid="4800" x="7776" y="768" width="32" height="32"/>
  <object id="125" gid="4791" x="7744" y="768" width="32" height="32"/>
  <object id="126" gid="4791" x="7808" y="768" width="32" height="32"/>
  <object id="127" gid="4791" x="7552" y="608" width="32" height="32"/>
  <object id="128" gid="4791" x="7584" y="640" width="32" height="32"/>
  <object id="129" gid="4791" x="7584" y="672" width="32" height="32"/>
  <object id="130" gid="4791" x="7616" y="704" width="32" height="32"/>
  <object id="131" name="purple" gid="4800" x="9408" y="800" width="32" height="32"/>
  <object id="132" gid="4791" x="9248" y="800" width="32" height="32"/>
  <object id="133" gid="4791" x="9120" y="800" width="32" height="32"/>
  <object id="134" gid="4791" x="8992" y="800" width="32" height="32"/>
  <object id="135" gid="4791" x="9024" y="544" width="32" height="32"/>
  <object id="136" gid="4791" x="9088" y="544" width="32" height="32"/>
  <object id="137" gid="4791" x="9152" y="544" width="32" height="32"/>
  <object id="138" gid="4791" x="9216" y="544" width="32" height="32"/>
  <object id="139" gid="4791" x="9280" y="544" width="32" height="32"/>
  <object id="140" gid="4791" x="8960" y="544" width="32" height="32"/>
  <object id="141" gid="4791" x="9344" y="576" width="32" height="32"/>
  <object id="150" name="purple" gid="4800" x="5504" y="320" width="32" height="32"/>
  <object id="153" gid="4791" x="1376" y="512" width="32" height="32"/>
  <object id="154" gid="4791" x="1408" y="544" width="32" height="32"/>
  <object id="155" gid="4791" x="1440" y="576" width="32" height="32"/>
  <object id="156" gid="4791" x="1472" y="608" width="32" height="32"/>
  <object id="157" gid="4791" x="1504" y="640" width="32" height="32"/>
  <object id="158" gid="4791" x="1536" y="672" width="32" height="32"/>
  <object id="159" gid="4791" x="1568" y="704" width="32" height="32"/>
  <object id="160" gid="4791" x="1344" y="480" width="32" height="32"/>
  <object id="161" gid="4791" x="480" y="608" width="32" height="32"/>
  <object id="162" gid="4791" x="512" y="608" width="32" height="32"/>
  <object id="163" gid="4791" x="448" y="608" width="32" height="32"/>
  <object id="164" gid="4791" x="544" y="608" width="32" height="32"/>
  <object id="165" gid="4791" x="672" y="512" width="32" height="32"/>
  <object id="166" gid="4791" x="704" y="512" width="32" height="32"/>
  <object id="167" gid="4791" x="736" y="512" width="32" height="32"/>
 </objectgroup>
 <objectgroup id="12" name="CaminoMonedas">
  <object id="95" name="PasoMonedasArDer" gid="1372" x="800" y="512" width="32" height="32"/>
  <object id="96" name="PasoMonedasArDer" gid="1372" x="1088" y="512" width="32" height="32"/>
 </objectgroup>
 <objectgroup id="13" name="PauseBlocks">
  <object id="97" gid="1078" x="1600" y="736" width="32" height="32"/>
 </objectgroup>
 <objectgroup id="7" name="BarraFin">
  <object id="46" gid="1275" x="9920" y="416" width="64" height="32"/>
 </objectgroup>
 <objectgroup id="8" name="Bloques">
  <object id="193" name="?" gid="1074" x="288" y="576" width="32" height="32">
   <properties>
    <property name="PowerUp" value="star"/>
    <property name="Spawn" type="bool" value="true"/>
   </properties>
  </object>
  <object id="194" name="?" gid="1074" x="2656" y="448" width="32" height="32">
   <properties>
    <property name="PowerUp" value="star"/>
    <property name="Spawn" type="bool" value="true"/>
   </properties>
  </object>
  <object id="195" name="?" gid="1074" x="5056" y="544" width="32" height="32">
   <properties>
    <property name="PowerUp" value="star"/>
    <property name="Spawn" type="bool" value="true"/>
   </properties>
  </object>
  <object id="196" name="?" gid="1074" x="5120" y="544" width="32" height="32">
   <properties>
    <property name="PowerUp" value="star"/>
    <property name="Spawn" type="bool" value="true"/>
   </properties>
  </object>
  <object id="197" name="?" gid="1074" x="7744" y="448" width="32" height="32">
   <properties>
    <property name="PowerUp" value="star"/>
    <property name="Spawn" type="bool" value="true"/>
   </properties>
  </object>
  <object id="199" gid="1073" x="224" y="576" width="32" height="32">
   <properties>
    <property name="Breakable" type="bool" value="true"/>
   </properties>
  </object>
  <object id="200" gid="1073" x="320" y="576" width="32" height="32">
   <properties>
    <property name="Breakable" type="bool" value="true"/>
   </properties>
  </object>
  <object id="201" gid="1073" x="2688" y="448" width="32" height="32">
   <properties>
    <property name="Breakable" type="bool" value="true"/>
   </properties>
  </object>
  <object id="202" gid="1073" x="2624" y="448" width="32" height="32">
   <properties>
    <property name="Breakable" type="bool" value="true"/>
   </properties>
  </object>
  <object id="203" gid="1073" x="5024" y="544" width="32" height="32">
   <properties>
    <property name="Breakable" type="bool" value="true"/>
   </properties>
  </object>
  <object id="204" gid="1073" x="5088" y="544" width="32" height="32">
   <properties>
    <property name="Breakable" type="bool" value="true"/>
   </properties>
  </object>
  <object id="205" gid="1073" x="5152" y="544" width="32" height="32">
   <properties>
    <property name="Breakable" type="bool" value="true"/>
   </properties>
  </object>
  <object id="206" gid="1073" x="7776" y="448" width="32" height="32">
   <properties>
    <property name="Breakable" type="bool" value="true"/>
   </properties>
  </object>
  <object id="207" name="?" gid="1074" x="256" y="576" width="32" height="32">
   <properties>
    <property name="PowerUp" value="star"/>
    <property name="Spawn" type="bool" value="true"/>
   </properties>
  </object>
 </objectgroup>
 <objectgroup id="10" name="Impulsos">
  <object id="70" name="ImpulsoA" gid="1385" x="2976" y="544" width="32" height="32"/>
  <object id="151" name="ImpulsoA" gid="1385" x="8416" y="544" width="32" height="32"/>
 </objectgroup>
 <objectgroup id="3" name="FallOffs">
  <object id="1" name="BloqueCae" gid="1375" x="6944" y="640" width="32" height="32"/>
  <object id="2" name="BloqueCae" gid="1375" x="6976" y="640" width="32" height="32"/>
  <object id="3" name="BloqueCae" gid="1375" x="7072" y="640" width="32" height="32"/>
  <object id="4" name="BloqueCae" gid="1375" x="7104" y="640" width="32" height="32"/>
  <object id="5" name="BloqueCae" gid="1375" x="7072" y="832" width="32" height="32"/>
  <object id="6" name="BloqueCae" gid="1375" x="7104" y="832" width="32" height="32"/>
  <object id="142" name="BloqueCae" gid="1375" x="5216" y="480" width="32" height="32"/>
  <object id="143" name="BloqueCae" gid="1375" x="5248" y="480" width="32" height="32"/>
  <object id="145" name="BloqueCae" gid="1375" x="5344" y="416" width="32" height="32"/>
  <object id="146" name="BloqueCae" gid="1375" x="5376" y="416" width="32" height="32"/>
  <object id="147" name="BloqueCae" gid="1375" x="5472" y="352" width="32" height="32"/>
  <object id="148" name="BloqueCae" gid="1375" x="5504" y="352" width="32" height="32"/>
  <object id="149" name="BloqueCae" gid="1375" x="5536" y="352" width="32" height="32"/>
 </objectgroup>
 <objectgroup id="4" name="Pinchos">
  <object id="12" gid="1076" x="7520" y="800" width="32" height="32"/>
  <object id="13" gid="1076" x="7552" y="800" width="32" height="32"/>
  <object id="14" gid="1076" x="7584" y="800" width="32" height="32"/>
  <object id="15" gid="1076" x="7616" y="800" width="32" height="32"/>
  <object id="16" gid="1076" x="7648" y="800" width="32" height="32"/>
  <object id="30" gid="1076" x="8896" y="736" width="32" height="32"/>
  <object id="31" gid="1076" x="8864" y="704" width="32" height="32"/>
  <object id="32" gid="1076" x="8832" y="672" width="32" height="32"/>
  <object id="34" gid="1073742900" x="9024" y="736" width="32" height="32"/>
  <object id="35" gid="1073742900" x="9056" y="736" width="32" height="32"/>
  <object id="36" gid="1073742900" x="9088" y="736" width="32" height="32"/>
  <object id="37" gid="1073742900" x="9120" y="736" width="32" height="32"/>
  <object id="38" gid="1073742900" x="9152" y="736" width="32" height="32"/>
  <object id="39" gid="1073742900" x="9184" y="736" width="32" height="32"/>
  <object id="40" gid="1073742900" x="9248" y="736" width="32" height="32"/>
  <object id="41" gid="1073742900" x="9216" y="736" width="32" height="32"/>
  <object id="42" gid="1073742900" x="9280" y="736" width="32" height="32"/>
  <object id="43" gid="1073742900" x="9312" y="736" width="32" height="32"/>
  <object id="44" gid="1073742900" x="9344" y="736" width="32" height="32"/>
 </objectgroup>
 <objectgroup id="9" name="Enemigos">
  <object id="63" name="Pokey" gid="4790" x="896" y="576" width="30" height="30">
   <properties>
    <property name="segments" type="int" value="5"/>
    <property name="speed" type="float" value="0"/>
   </properties>
  </object>
  <object id="64" name="Pokey" gid="4790" x="1184" y="544" width="30" height="30">
   <properties>
    <property name="segments" type="int" value="4"/>
    <property name="speed" type="float" value="0"/>
   </properties>
  </object>
  <object id="65" name="Pokey" gid="4790" x="1728" y="672" width="30" height="30">
   <properties>
    <property name="segments" type="int" value="2"/>
    <property name="speed" type="float" value="0"/>
   </properties>
  </object>
  <object id="66" name="Pokey" gid="4790" x="2016" y="576" width="30" height="30">
   <properties>
    <property name="segments" type="int" value="3"/>
    <property name="speed" type="float" value="0"/>
   </properties>
  </object>
  <object id="68" name="Pokey" gid="4790" x="9472" y="544" width="30" height="30">
   <properties>
    <property name="segments" type="int" value="3"/>
    <property name="speed" type="float" value="0"/>
   </properties>
  </object>
  <object id="170" name="Koopa" gid="4813" x="2764" y="581" width="41" height="60"/>
  <object id="171" name="Goomba" gid="4810" x="3552" y="576" width="30" height="30"/>
  <object id="175" name="Koopa" gid="4813" x="4288" y="640" width="41" height="60"/>
  <object id="176" name="Koopa" gid="4813" x="4384" y="640" width="41" height="60"/>
  <object id="177" name="Koopa" gid="4813" x="4480" y="640" width="41" height="60"/>
  <object id="179" name="Goomba" gid="4810" x="4192" y="640" width="30" height="30"/>
  <object id="180" name="Goomba" gid="4810" x="4576" y="640" width="30" height="30"/>
  <object id="181" name="Koopa" gid="4813" x="5248" y="640" width="41" height="60"/>
  <object id="182" name="Koopa" gid="4813" x="5536" y="576" width="41" height="60"/>
  <object id="183" name="Koopa" gid="4813" x="4928" y="640" width="41" height="60"/>
  <object id="184" name="Koopa" gid="4813" x="5856" y="544" width="41" height="60"/>
  <object id="185" name="Koopa" gid="4813" x="6176" y="672" width="41" height="60"/>
  <object id="186" name="Goomba" gid="4810" x="6528" y="608" width="30" height="30"/>
  <object id="187" name="Goomba" gid="4810" x="7456" y="608" width="30" height="30"/>
  <object id="188" name="Goomba" gid="4810" x="7776" y="576" width="30" height="30"/>
  <object id="189" name="Koopa" gid="4813" x="8768" y="544" width="41" height="60"/>
  <object id="190" name="Koopa" gid="4813" x="9056" y="544" width="41" height="60"/>
  <object id="191" name="Koopa" gid="4813" x="9184" y="544" width="41" height="60"/>
 </objectgroup>
 <layer id="2" name="CapaSuelo" width="322" height="26">
  <data encoding="csv">
0,0,0,0,0,0,0,0,0,0,0,0,0,0,0,0,0,0,0,0,0,0,0,0,0,0,0,0,0,0,0,0,0,0,0,0,0,0,0,0,0,0,0,0,0,0,0,0,0,0,0,0,0,0,0,0,0,0,0,0,0,0,0,0,0,0,0,0,0,0,0,0,0,0,0,0,0,0,0,0,0,0,0,0,0,0,0,0,0,0,0,0,0,0,0,0,0,0,0,0,0,0,0,0,0,0,0,0,0,0,0,0,0,0,0,0,0,0,0,0,0,0,0,0,0,0,0,0,0,0,0,0,0,0,0,0,0,0,0,0,0,0,0,0,0,0,0,0,0,0,0,0,0,1521,1468,1471,1466,1466,1466,1466,1466,1466,1466,1466,1466,1466,1466,1466,1466,1466,1466,1466,1466,1466,1466,1466,1466,1466,1466,1466,1466,1466,1466,1466,1466,1466,1466,1466,1466,1466,1466,1466,1466,1466,1466,1466,1466,1466,1466,1466,1466,1466,1466,1466,1466,1466,1466,1466,1466,1466,1466,1466,1466,1466,1466,1466,1466,1466,1466,1466,1466,1466,1466,1466,1466,1466,1466,1466,1466,1466,1466,1466,1466,1466,1466,1466,1466,1466,1466,1466,1466,1466,1466,1466,1466,1466,1466,1466,1466,1466,1466,1466,1466,1466,1466,1466,1466,1466,1466,1466,1466,1466,1466,1466,1466,1466,1466,1466,1466,1466,1466,1466,1466,1466,1466,1466,1466,1466,1466,1466,1466,1466,1466,1466,1466,1466,1466,1466,1466,1466,1466,1466,1466,1466,1466,1466,1466,1466,1466,1466,1466,1466,1466,1466,1466,1466,1466,1466,1466,1466,1466,1466,1466,1466,1466,1466,1466,1466,1466,1466,1466,1466,
0,0,0,0,0,0,0,0,0,0,0,0,0,0,0,0,0,0,0,0,0,0,0,0,0,0,0,0,0,0,0,0,0,0,0,0,0,0,0,0,0,0,0,0,0,0,0,0,0,0,0,0,0,0,0,0,0,0,0,0,0,0,0,0,0,0,0,0,0,0,0,0,0,0,0,0,0,0,0,0,0,0,0,0,0,0,0,0,0,0,0,0,0,0,0,0,0,0,0,0,0,0,0,0,0,0,0,0,0,0,0,0,0,0,0,0,0,0,0,0,0,0,0,0,0,0,0,0,0,0,0,0,0,0,0,0,0,0,0,0,0,0,0,0,0,0,0,0,0,0,0,0,1521,1468,1471,1546,0,0,0,0,0,0,0,0,0,0,0,0,0,0,0,0,0,0,0,0,0,0,0,0,0,0,0,0,0,0,0,0,0,0,0,0,0,0,0,0,0,0,0,0,0,0,0,0,0,0,0,0,0,0,0,0,0,0,0,0,0,0,0,0,0,0,0,0,0,0,0,0,0,0,0,0,0,0,0,0,0,0,0,0,0,0,0,0,0,0,0,0,0,0,0,0,0,0,0,0,0,0,0,0,0,0,0,0,0,0,0,0,0,0,0,0,0,0,0,0,0,0,0,0,0,0,0,0,0,0,0,0,0,0,0,0,0,0,0,0,0,0,0,0,0,0,0,0,0,0,0,0,0,0,0,0,0,0,0,0,0,0,0,0,0,0,
0,0,0,0,0,0,0,0,0,0,0,0,0,0,0,0,0,0,0,0,0,0,0,0,0,0,0,0,0,0,0,0,0,0,0,0,0,0,0,0,0,0,0,0,0,0,0,0,0,0,0,0,0,0,0,0,0,0,0,0,0,0,0,0,0,0,0,0,0,0,0,0,0,0,0,0,0,0,0,0,0,0,0,0,0,0,0,0,0,0,0,0,0,0,0,0,0,0,0,0,0,0,0,0,0,0,0,0,0,0,0,0,0,0,0,0,0,0,0,0,0,0,0,0,0,0,0,0,0,0,0,0,0,0,0,0,0,0,0,0,0,0,0,0,0,0,0,0,0,0,0,1521,1468,1471,1546,0,0,0,0,0,0,0,0,0,0,0,0,0,0,0,0,0,0,0,0,0,0,0,0,0,0,0,0,0,0,0,0,0,0,0,0,0,0,0,0,0,0,0,0,0,0,0,0,0,0,0,0,0,0,0,0,0,0,0,0,0,0,0,0,0,0,0,0,0,0,0,0,0,0,0,0,0,0,0,0,0,0,0,0,0,0,0,0,0,0,0,0,0,0,0,0,0,0,0,0,0,0,0,0,0,0,0,0,0,0,0,0,0,0,0,0,0,0,0,0,0,0,0,0,0,0,0,0,0,0,0,0,0,0,0,0,0,0,0,0,0,0,0,0,0,0,0,0,0,0,0,0,0,0,0,0,0,0,0,0,0,0,0,0,0,0,0,
0,0,0,0,0,0,0,0,0,0,0,0,0,0,0,0,0,0,0,0,0,0,0,0,0,0,0,0,0,0,0,0,0,0,0,0,0,0,0,0,0,0,0,0,0,0,0,0,0,0,0,0,0,0,0,0,0,0,0,0,0,0,0,0,0,0,0,0,0,0,0,0,0,0,0,0,0,0,0,0,0,0,0,0,0,0,0,0,0,0,0,0,0,0,0,0,0,0,0,0,0,0,0,0,0,0,0,0,0,0,0,0,0,0,0,0,0,0,0,0,0,0,0,0,0,0,0,0,0,0,0,0,0,0,0,0,0,0,0,0,0,0,0,0,0,0,0,0,0,0,1521,1468,1471,1546,0,0,0,0,0,0,0,0,0,0,0,0,0,0,0,0,0,0,0,0,0,0,0,0,0,0,0,0,0,0,0,0,0,0,0,0,0,0,0,0,0,0,0,0,0,0,0,0,0,0,0,0,0,0,0,0,0,0,0,0,0,0,0,0,0,0,0,0,0,0,0,0,0,0,0,0,0,0,0,0,0,0,0,0,0,0,0,0,0,0,0,0,0,0,0,0,0,0,0,0,0,0,0,0,0,0,0,0,0,0,0,0,0,0,0,0,0,0,0,0,0,0,0,0,0,0,0,0,0,0,0,0,0,0,0,0,0,0,0,0,0,0,0,0,0,0,0,0,0,0,0,0,0,0,0,0,0,0,0,0,0,0,0,0,0,0,0,0,
0,0,0,0,0,0,0,0,0,0,0,0,0,0,0,0,0,0,0,0,0,0,0,0,0,0,0,0,0,0,0,0,0,0,0,0,0,0,0,0,0,0,0,0,0,0,0,0,0,0,0,0,0,0,0,0,0,0,0,0,0,0,0,0,0,0,0,0,0,0,0,0,0,0,0,0,0,0,0,0,0,0,0,0,0,0,0,0,0,0,0,0,0,0,0,0,0,0,0,0,0,0,0,0,0,0,0,0,0,0,0,0,0,0,0,0,0,0,0,0,0,0,0,0,0,0,0,0,0,0,0,0,0,0,0,0,0,0,0,0,0,0,0,0,0,0,0,0,0,1521,1468,1471,1546,0,0,0,0,0,0,0,0,0,0,0,0,0,0,0,0,0,0,0,0,0,0,0,0,0,0,0,0,0,0,0,0,0,0,0,0,0,0,0,0,0,0,0,0,0,0,0,0,0,0,0,0,0,0,0,0,0,0,0,0,0,0,0,0,0,0,0,0,0,0,0,0,0,0,0,0,0,0,0,0,0,0,0,0,0,0,0,0,0,0,0,0,0,0,0,0,0,0,0,0,0,0,0,0,0,0,0,0,0,0,0,0,0,0,0,0,0,0,0,0,0,0,0,0,0,0,0,0,0,0,0,0,0,0,0,0,0,0,0,0,0,0,0,0,0,0,0,0,0,0,0,0,0,0,0,0,0,0,0,0,0,0,0,0,0,0,0,0,0,
0,0,0,0,0,0,0,0,0,0,0,0,0,0,0,0,0,0,0,0,0,0,0,0,0,0,0,0,0,0,0,0,0,0,0,0,0,0,0,0,0,0,0,0,0,0,0,0,0,0,0,0,0,0,0,0,0,0,0,0,0,0,0,0,0,0,0,0,0,0,0,0,0,0,0,0,0,0,0,0,0,0,0,0,0,0,0,0,0,0,0,0,0,0,0,0,0,0,0,0,0,0,0,0,0,0,0,0,0,0,0,0,0,0,0,0,0,0,0,0,0,0,0,0,0,0,0,0,0,0,0,0,0,0,0,0,0,0,0,0,0,0,0,0,0,0,0,0,1521,1468,1471,1546,0,0,0,0,0,0,0,0,0,0,0,0,0,0,0,0,0,0,0,0,0,0,0,0,0,0,0,0,0,0,0,0,0,0,0,0,0,0,0,0,0,0,0,0,0,0,0,0,0,0,0,0,0,0,0,0,0,0,0,0,0,0,0,0,0,0,0,0,0,0,0,0,0,0,0,0,0,0,0,0,0,0,0,0,0,0,0,0,0,0,0,0,0,0,0,0,0,0,0,0,0,0,0,0,0,0,0,0,0,0,0,0,0,0,0,0,0,0,0,0,0,0,0,0,0,0,0,0,0,0,0,0,0,0,0,0,0,0,0,0,0,0,0,0,0,0,0,0,0,0,0,0,0,0,0,0,0,0,0,0,0,0,0,0,0,0,0,0,0,0,
0,0,0,0,0,0,0,0,0,0,0,0,0,0,0,0,0,0,0,0,0,0,0,0,0,0,0,0,0,0,0,0,0,0,0,0,0,0,0,0,0,0,0,0,0,0,0,0,0,0,0,0,0,0,0,0,0,0,0,0,0,0,0,0,0,0,0,0,0,0,0,0,0,0,0,0,0,0,0,0,0,0,0,0,0,0,0,0,0,0,0,0,0,0,0,0,0,0,0,0,0,0,0,0,0,0,0,0,0,0,0,0,0,0,0,0,0,0,0,0,0,0,0,0,0,0,0,0,0,0,0,0,0,0,0,0,0,0,0,0,0,0,0,0,0,0,0,1521,1468,1471,1546,0,0,0,0,0,0,0,0,0,0,0,0,0,0,0,0,0,0,0,0,0,0,0,0,0,0,0,0,0,0,0,0,0,0,0,0,0,0,0,0,0,0,0,0,0,0,0,0,0,0,0,0,0,0,0,0,0,0,0,0,0,0,0,0,0,0,0,0,0,0,0,0,0,0,0,0,0,0,0,0,0,0,0,0,0,0,0,0,0,0,0,0,0,0,0,0,0,0,0,0,0,0,0,0,0,0,0,0,0,0,0,0,0,0,0,0,0,0,0,0,0,0,0,0,0,0,0,0,0,0,0,0,0,0,0,0,0,0,0,0,0,0,0,0,0,0,0,0,0,0,0,0,0,0,0,0,0,0,0,0,0,0,0,0,0,0,0,0,0,0,0,
0,0,0,0,0,0,0,0,0,0,0,0,0,0,0,0,0,0,0,0,0,0,0,0,0,0,0,0,0,0,0,0,0,0,0,0,0,0,0,0,0,0,0,0,0,0,0,0,0,0,0,0,0,0,0,0,0,0,0,0,0,0,0,0,0,0,0,0,0,0,0,0,0,0,0,0,0,0,0,0,0,0,0,0,0,0,0,0,0,0,0,0,0,0,0,0,0,0,0,0,0,0,0,0,0,0,0,0,0,0,0,0,0,0,0,0,0,0,0,0,0,0,0,0,0,0,0,0,0,0,0,0,0,0,0,0,0,0,0,0,0,0,0,0,0,0,1521,1468,1471,1546,0,0,0,0,0,0,0,0,0,0,0,0,0,0,0,0,0,0,0,0,0,0,0,0,0,0,0,0,0,0,0,0,0,0,0,0,0,0,0,0,0,0,0,0,0,0,0,0,0,0,0,0,0,0,0,0,0,0,0,0,0,0,0,0,0,0,0,0,0,0,0,0,0,0,0,0,0,0,0,0,0,0,0,0,0,0,0,0,0,0,0,0,0,0,0,0,0,0,0,0,0,0,0,0,0,0,0,0,0,0,0,0,0,0,0,0,0,0,0,0,0,0,0,0,0,0,0,0,0,0,0,0,0,0,0,0,0,0,0,0,0,0,0,0,0,0,0,0,0,0,0,0,0,0,0,0,0,0,0,0,0,0,0,0,0,0,0,0,0,0,0,0,
0,0,0,0,0,0,0,0,0,0,0,0,0,0,0,0,0,0,0,0,0,0,0,0,0,0,0,0,0,0,0,0,0,0,0,0,0,0,0,0,0,0,0,0,0,0,0,0,0,0,0,0,0,0,0,0,0,0,0,0,0,0,0,0,0,0,0,0,0,0,0,0,0,0,0,0,0,0,0,0,0,0,0,0,0,0,0,0,0,0,0,0,0,0,0,0,0,0,0,0,0,0,0,0,0,0,0,0,0,0,0,0,0,0,0,0,0,0,0,0,0,0,0,0,0,0,0,0,0,0,0,0,0,0,0,0,0,0,0,0,0,0,0,0,0,1521,1468,1471,1546,0,0,0,0,0,0,0,0,0,0,0,0,0,0,0,0,0,0,0,0,0,0,0,0,0,0,0,0,0,0,0,0,0,0,0,0,0,0,0,0,0,0,0,0,0,0,0,0,0,0,0,0,0,0,0,0,0,0,0,0,0,0,0,0,0,0,0,0,0,0,0,0,0,0,0,0,0,0,0,0,0,0,0,0,0,0,0,0,0,0,0,0,0,0,0,0,0,0,0,0,0,0,0,0,0,0,0,0,0,0,0,0,0,0,0,0,0,0,0,0,0,0,0,0,0,0,0,0,0,0,0,0,0,0,0,0,0,0,0,0,0,0,0,0,0,0,0,0,0,0,0,0,0,0,0,0,0,0,0,0,0,0,0,0,0,0,0,0,0,0,0,0,0,
0,0,0,0,0,0,0,0,0,0,0,0,0,0,0,0,0,0,0,0,0,0,0,0,0,0,0,0,0,0,0,0,0,0,0,0,0,0,0,0,0,0,0,0,0,0,0,0,0,0,0,0,0,0,0,0,0,0,0,0,0,0,0,0,0,0,0,0,0,0,0,0,0,0,0,0,0,0,0,0,0,0,0,0,0,0,0,0,0,0,0,0,0,0,0,0,0,0,0,0,0,0,0,0,0,0,0,0,0,0,0,0,0,0,0,0,0,0,0,0,0,0,0,0,0,0,0,0,0,0,0,0,0,0,0,0,0,0,0,0,0,0,0,0,1521,1468,1471,1546,0,0,0,0,0,0,0,0,0,0,0,0,0,0,0,0,0,0,0,0,0,0,0,0,0,0,0,0,0,0,0,0,0,0,0,0,0,0,0,0,0,0,0,0,0,0,0,0,0,0,0,0,0,0,0,0,0,0,0,0,0,0,0,0,0,0,0,0,0,0,0,0,0,0,0,0,0,0,0,0,0,0,0,0,0,0,0,0,0,0,0,0,0,0,0,0,0,0,0,0,0,0,0,0,0,0,0,0,0,0,0,0,0,0,0,0,0,0,0,0,0,0,0,0,0,0,0,0,0,0,0,0,0,0,0,0,0,0,0,0,0,0,0,0,0,0,0,0,0,0,0,0,0,0,0,0,0,0,0,0,0,0,0,0,0,0,0,0,0,0,0,0,0,0,
0,0,0,0,0,0,0,0,0,0,0,0,0,0,0,0,0,0,0,0,0,0,0,0,0,0,0,0,0,0,0,0,0,0,0,0,0,0,0,0,0,0,0,0,0,0,0,0,0,0,0,0,0,0,0,0,0,0,0,0,0,0,0,0,0,0,0,0,0,0,0,0,0,0,0,0,0,0,0,0,0,0,0,0,0,0,0,0,0,0,0,0,0,0,0,0,0,0,0,0,0,0,0,0,0,0,0,0,0,0,0,0,0,0,0,0,0,0,0,0,0,0,0,0,0,0,0,0,0,0,0,0,0,0,0,0,0,0,0,0,0,0,0,1521,1468,1471,1546,0,0,0,0,0,0,0,0,0,0,0,0,0,0,0,0,0,0,0,0,0,0,0,0,0,0,0,0,0,0,0,0,0,0,0,0,0,0,0,0,0,0,0,0,0,0,0,0,0,0,0,0,0,0,0,0,0,0,0,0,0,0,0,0,0,0,0,0,0,0,0,0,0,0,0,0,0,0,0,0,0,0,0,0,0,0,0,0,0,0,0,0,0,0,0,0,0,0,0,0,0,0,0,0,0,0,0,0,0,0,0,0,0,0,0,0,0,0,0,0,0,0,0,0,0,0,0,0,0,0,0,0,0,0,0,0,0,0,0,0,0,0,0,0,0,0,0,0,0,0,0,0,0,0,0,0,0,0,0,0,0,0,0,0,0,0,0,0,0,0,0,0,0,0,0,
0,0,0,0,0,0,0,0,0,0,0,0,0,0,0,0,0,0,0,0,0,0,0,0,0,0,0,0,0,0,0,0,0,0,0,0,0,0,0,0,0,0,0,0,0,0,0,0,0,0,0,0,0,0,0,0,0,0,0,0,0,0,0,0,0,0,0,0,0,0,0,0,0,0,0,0,0,0,0,0,0,0,0,0,0,0,0,0,0,0,0,0,0,0,0,0,0,0,0,0,0,0,0,0,0,0,0,0,0,0,0,0,0,0,0,0,0,0,0,0,0,0,0,0,0,0,0,0,0,0,0,0,0,0,0,0,0,0,0,0,0,0,1521,1468,1471,1546,0,0,0,0,0,0,0,0,0,0,0,0,0,0,0,0,0,0,0,0,0,0,0,0,0,0,0,0,0,0,0,0,0,0,0,0,0,0,0,0,0,0,0,0,0,0,0,0,0,0,0,0,0,0,0,0,0,0,0,0,0,0,0,0,0,0,0,0,0,0,0,0,0,0,0,0,0,0,0,0,0,0,0,0,0,0,0,0,0,0,0,0,0,0,0,0,0,0,0,0,0,0,0,0,0,0,0,0,0,0,0,0,0,0,0,0,0,0,0,0,0,0,0,0,0,0,0,0,0,0,0,0,0,0,0,0,0,0,0,0,0,0,0,0,0,0,0,0,0,0,0,0,0,0,0,0,0,0,0,0,0,0,0,0,0,0,0,0,0,0,0,0,0,0,0,0,
0,0,0,0,0,0,0,0,0,0,0,0,0,0,0,0,0,0,0,0,0,0,0,0,0,0,0,0,0,0,0,0,0,0,0,0,0,0,0,0,0,0,0,0,0,0,0,0,0,0,0,0,0,0,0,0,0,0,0,0,0,0,0,0,0,0,0,0,0,0,0,0,0,0,0,0,0,0,0,0,0,0,0,0,0,0,0,0,0,0,0,0,0,0,0,0,0,0,0,0,0,0,0,0,0,0,0,0,0,0,0,0,0,0,0,0,0,0,0,0,0,0,0,0,0,0,0,0,0,0,0,0,0,0,0,0,0,0,0,0,0,0,1465,1466,1546,0,0,0,0,0,0,0,0,0,0,0,0,0,0,0,0,0,0,0,0,0,0,0,0,0,0,0,0,0,0,0,0,0,0,0,0,0,0,0,0,0,0,0,0,0,0,0,0,0,0,0,0,0,0,0,0,0,0,0,0,0,0,0,0,0,0,0,0,0,0,0,0,0,0,0,0,0,0,0,0,0,0,0,0,0,0,0,0,0,0,0,0,0,0,0,0,0,0,0,0,0,0,0,0,0,0,0,0,0,0,0,0,0,0,0,0,0,0,0,0,0,0,0,0,0,0,0,0,0,0,0,0,0,0,0,0,0,0,0,0,0,0,0,0,0,0,0,0,0,0,0,0,0,0,0,0,0,0,0,0,0,0,0,0,0,0,0,0,0,0,0,0,0,0,0,0,0,
0,0,0,0,0,0,0,0,0,0,0,0,0,0,0,0,0,0,0,0,0,0,0,0,0,0,0,0,0,0,0,0,0,0,0,0,0,0,0,0,0,0,0,0,0,0,0,0,0,0,0,0,0,0,0,0,0,0,0,0,0,0,0,0,0,0,0,0,0,0,0,0,0,0,0,0,0,0,0,0,0,0,0,0,0,0,0,0,0,0,0,0,0,0,0,0,0,0,0,0,0,0,0,1521,1460,1460,1522,0,0,0,0,0,0,0,0,0,0,0,0,0,0,0,0,0,0,0,0,0,0,0,0,0,0,0,0,0,0,0,0,0,0,0,0,0,0,0,0,0,0,0,0,0,0,0,0,0,0,0,0,0,0,0,0,0,0,0,0,0,0,0,0,0,0,0,0,0,0,0,0,0,0,0,0,0,0,0,0,0,0,0,0,0,0,0,0,0,0,0,0,0,0,0,0,0,0,0,0,0,0,0,0,0,0,0,0,0,0,0,0,0,0,0,0,0,0,0,0,0,0,0,0,0,0,0,0,0,0,0,0,0,0,0,0,0,0,0,0,0,0,0,0,0,0,0,0,0,0,0,0,0,0,0,0,0,0,0,0,0,0,0,0,0,0,0,0,0,0,0,0,0,0,0,0,0,0,0,0,0,0,0,0,0,0,0,0,0,0,0,0,0,0,0,0,0,0,0,0,0,0,0,0,0,0,0,0,0,0,0,0,0,0,0,
0,0,0,0,0,0,0,0,0,0,0,0,0,0,0,0,0,0,0,0,0,0,0,0,0,0,0,0,0,0,0,0,0,0,0,0,0,0,0,0,0,0,0,0,0,0,0,0,0,0,0,0,0,0,0,0,0,0,0,0,0,0,0,0,0,0,0,0,0,0,0,0,0,0,0,0,0,0,0,0,0,0,0,0,0,0,0,0,0,0,0,0,0,0,0,0,0,0,0,0,0,0,0,1421,1413,1414,1423,0,0,0,0,0,0,0,0,0,0,0,0,0,0,0,0,0,0,0,0,0,0,0,0,0,0,0,0,0,0,0,0,0,0,0,0,0,0,0,0,0,0,0,0,0,0,0,0,0,0,0,0,0,0,0,0,0,0,0,0,0,0,0,0,0,0,0,0,0,0,0,0,0,0,0,0,0,0,0,0,0,0,0,0,0,0,0,0,0,0,0,0,0,0,0,0,0,0,0,0,0,0,0,0,0,0,0,0,0,0,0,0,0,0,0,0,0,0,0,0,0,0,0,0,0,0,0,0,0,0,0,0,0,0,0,0,0,0,0,0,0,0,0,0,0,0,0,0,0,0,0,0,0,0,0,0,0,0,0,0,0,0,0,0,0,0,0,0,0,0,0,0,0,0,0,0,0,0,0,0,0,0,0,0,0,0,0,0,0,0,0,0,0,0,0,0,0,0,0,0,0,0,0,0,0,0,0,0,0,0,0,0,0,0,0,
0,0,0,0,0,0,0,0,0,0,0,0,0,0,0,0,0,0,0,0,0,0,0,0,0,0,0,0,0,0,0,0,0,0,0,0,0,0,0,0,1081,1091,1226,0,0,0,0,0,0,0,0,0,0,0,0,0,0,0,0,0,0,0,0,0,0,0,0,0,0,0,0,0,0,0,0,0,0,0,0,0,0,0,0,0,0,0,0,0,0,0,0,0,0,0,0,0,0,0,0,0,0,0,0,1545,1470,1414,1423,0,0,0,0,0,0,0,0,0,0,0,0,0,0,0,0,0,0,0,0,0,0,0,0,0,0,0,0,0,0,0,0,0,0,0,0,0,0,0,0,0,0,0,0,0,0,0,0,0,0,0,0,0,0,0,0,0,0,0,0,0,0,0,0,0,0,0,0,0,0,0,0,0,0,0,0,0,0,0,0,0,0,0,0,0,0,0,0,0,0,0,0,0,0,0,0,0,0,0,0,0,0,0,0,0,0,0,0,0,0,0,0,0,0,0,0,0,0,0,0,0,0,0,0,0,0,0,0,0,0,0,0,0,0,0,0,0,0,0,0,0,0,0,0,0,0,0,0,0,0,0,0,0,0,0,0,0,0,0,0,0,0,0,0,0,0,0,0,0,0,0,0,0,0,0,0,0,0,0,0,0,0,0,0,0,0,0,0,0,0,0,0,0,0,0,0,0,0,0,0,0,0,0,0,0,0,0,0,0,0,0,0,0,0,0,
0,0,0,0,0,0,0,0,0,0,0,0,0,0,0,0,0,0,0,0,1225,1090,1092,1092,1091,1082,0,0,0,0,0,1081,1092,1091,1082,0,0,0,0,0,1099,1095,1167,1226,0,0,0,0,0,0,0,0,0,0,0,0,0,0,0,0,0,0,0,0,0,1081,1091,1090,1090,1082,0,0,0,0,0,0,0,0,0,0,0,0,0,0,0,0,0,0,0,0,0,0,0,0,0,0,0,0,0,0,0,0,0,0,1421,1414,1423,0,0,0,0,0,0,0,0,0,0,0,0,0,0,0,0,0,0,0,0,0,0,0,0,0,0,0,0,0,0,0,0,0,0,0,0,0,0,0,0,0,0,0,0,0,0,0,0,0,0,0,0,0,0,0,0,0,0,0,0,0,0,0,0,0,0,0,0,0,0,0,0,0,0,0,0,0,0,0,0,0,0,0,0,0,0,0,0,0,0,0,0,0,0,0,0,0,0,0,0,0,0,0,0,0,0,0,0,0,0,0,0,1401,1402,0,0,0,0,0,0,0,0,0,0,0,0,0,0,0,0,0,0,0,0,0,0,0,0,0,0,0,0,0,0,0,0,0,0,0,0,0,0,0,0,0,0,0,0,0,0,0,0,0,0,0,0,0,0,0,0,0,0,0,0,0,0,0,0,0,0,0,0,0,0,0,0,0,0,0,0,0,0,0,0,0,0,0,0,0,0,0,0,0,0,0,0,0,0,0,0,0,0,0,0,0,
0,0,0,0,0,0,0,0,0,0,0,0,0,0,0,0,0,0,0,1225,1168,1093,1093,1093,1094,1102,0,0,0,0,0,1101,1094,1093,1104,0,1075,1075,1075,0,1100,1094,1095,1167,1226,0,0,0,0,0,0,0,0,0,0,0,0,0,0,0,0,0,0,0,0,1100,1093,1095,1095,1104,0,0,1227,1082,0,0,0,0,0,1081,1228,0,0,0,0,0,0,0,0,0,0,0,0,0,0,0,0,0,0,0,0,0,0,1521,1468,1414,1469,1522,0,0,0,0,0,0,0,0,0,0,0,0,0,0,0,0,0,0,0,0,0,0,0,0,0,0,0,0,0,0,0,0,0,0,0,0,0,0,0,0,0,0,0,0,0,0,0,0,0,0,0,0,0,0,0,0,0,0,0,0,0,0,0,0,0,0,0,0,0,0,0,0,1401,1410,1411,1412,1410,1411,1412,1522,0,0,0,0,0,0,0,0,0,0,0,0,0,0,0,0,0,0,0,0,0,0,0,0,0,0,0,0,0,0,0,1421,1422,0,0,0,0,0,0,0,0,0,0,0,0,0,0,0,0,0,0,0,0,0,0,0,0,0,0,0,0,0,0,0,0,0,0,0,0,0,0,0,0,0,0,0,0,0,0,0,0,0,1401,1410,1411,1412,1410,1402,0,0,0,0,1401,1410,1411,1412,1410,1411,1412,1410,1411,1410,1411,1412,1402,0,1075,1075,1075,1075,0,0,0,0,1521,1410,1411,1412,1410,1411,1412,1410,1411,1412,1410,1411,1412,1410,1411,1412,1410,1411,1410,1411,
0,0,0,0,0,0,0,0,0,0,0,0,0,0,0,0,0,0,1225,1168,1093,1094,1095,1093,1094,1104,0,1075,1075,1075,0,1083,1094,1095,1104,0,0,0,0,0,1101,1094,1094,1183,1184,1226,0,0,0,0,0,0,0,0,0,0,0,0,0,0,0,0,0,1075,1075,1100,1094,1094,1094,1167,1090,1091,1233,1102,0,0,0,0,0,1100,1095,1091,1092,1090,1090,1091,1090,1092,1092,1082,0,0,0,0,0,0,0,0,0,0,0,0,1521,1413,1413,1413,1413,1469,1460,1460,1460,1460,1460,1460,1522,0,0,0,0,0,0,0,0,0,0,0,0,0,0,0,0,0,0,0,0,0,0,0,0,0,0,0,0,0,0,0,0,0,0,0,0,0,0,0,0,0,0,0,0,0,0,0,0,0,0,0,0,0,0,0,0,1553,1554,1411,1411,1402,0,0,0,0,1421,1413,1414,1415,1413,1414,1415,1469,1522,0,0,0,0,0,0,0,0,0,0,0,0,0,0,0,0,0,0,0,0,0,0,0,0,0,0,0,0,0,0,1421,1422,0,0,0,0,0,0,0,0,0,0,0,0,0,0,0,0,0,0,0,1401,1410,1411,1412,1410,1402,0,0,0,0,0,0,0,0,0,0,1521,1410,1402,0,0,0,0,0,0,0,0,0,0,0,1421,1413,1414,1415,1413,1423,0,0,0,0,1421,1413,1414,1415,1413,1414,1415,1413,1414,1415,1413,1414,1422,0,0,0,0,0,0,0,0,1521,1468,1413,1414,1415,1413,1414,1415,1413,1414,1415,1413,1414,1415,1413,1414,1415,1413,1414,1415,1413,
0,0,0,0,0,0,0,0,0,0,0,0,0,1225,1092,1091,1092,1091,1168,1095,1095,1095,1094,1095,1094,1104,0,0,0,0,0,1099,1094,1094,1104,0,0,0,0,0,1100,1093,1094,1167,1168,1167,1226,0,0,0,0,0,0,0,0,0,0,0,1225,1091,1092,1082,0,0,0,1100,1094,1093,1094,1093,1095,1094,1094,1102,0,0,0,0,0,1083,1094,1095,1095,1094,1095,1093,1095,1095,1094,1104,0,0,0,0,0,0,0,0,1573,1554,1460,1460,1468,1413,1413,1413,1414,1415,1413,1414,1415,1413,1413,1413,1423,0,0,0,0,0,0,0,0,0,0,0,0,0,0,0,0,0,0,0,0,0,0,0,0,0,0,0,0,0,0,0,0,0,0,0,0,0,0,0,0,0,0,0,0,0,0,0,0,0,0,0,0,0,0,1553,1554,1468,1414,1413,1413,1422,0,0,0,0,1421,1413,1414,1415,1413,1414,1415,1413,1469,1522,0,0,0,0,0,0,0,0,0,0,0,0,0,0,1401,1402,0,0,0,0,0,0,0,0,0,1401,1402,0,0,1421,1422,0,0,1401,1402,0,0,0,0,0,0,1521,1410,1411,1402,0,0,0,0,0,1421,1413,1414,1415,1413,1422,0,0,0,0,0,0,0,0,0,1521,1468,1413,1423,0,0,0,0,0,0,0,0,0,0,0,1421,1413,1414,1415,1413,1423,0,0,0,0,1405,1470,1413,1414,1415,1413,1414,1415,1413,1414,1415,1413,1422,0,0,0,0,0,0,0,1521,1468,1413,1413,1414,1415,1413,1414,1415,1413,1414,1415,1413,1414,1415,1413,1414,1415,1413,1414,1415,1413,
0,0,0,0,0,0,0,0,0,0,0,0,1225,1168,1095,1094,1093,1095,1095,1094,1093,1093,1093,1095,1094,1104,0,0,0,0,0,1100,1093,1095,1102,0,0,0,0,0,1099,1095,1094,1093,1094,1093,1167,1226,0,0,0,0,0,0,0,0,0,1225,1148,1094,1094,1103,0,0,0,1100,1095,1094,1095,1095,1095,1093,1094,1102,0,0,0,0,0,1100,1093,1095,1095,1094,1095,1093,1095,1094,1093,1102,0,0,0,0,0,0,0,1521,1468,1413,1414,1415,1413,1414,1415,1413,1413,1415,1413,1414,1413,1413,1413,1413,1423,0,0,0,0,0,0,0,0,0,0,0,0,0,1225,1091,1091,1091,1092,1091,1091,1090,1091,1092,1090,1090,1092,1082,1401,1410,1411,1412,1410,1411,1412,1410,1411,1412,1410,1411,1412,1410,1411,1412,1410,1411,1412,1410,1411,1412,1410,1411,1412,1410,1411,1468,1414,1413,1413,1413,1415,1422,0,0,0,0,1421,1413,1414,1415,1413,1414,1415,1413,1413,1469,1522,0,0,0,0,0,0,0,0,1401,1402,0,0,0,1421,1422,0,0,0,0,0,0,0,0,0,1421,1422,0,0,1405,1406,0,0,1421,1422,0,0,0,0,0,1521,1468,1413,1414,1422,0,0,0,0,0,1405,1466,1466,1466,1466,1406,0,0,0,0,0,0,0,0,1521,1468,1413,1414,1423,0,0,0,0,0,0,0,0,0,0,0,1421,1413,1414,1415,1413,1423,0,0,0,0,0,1405,1470,1413,1414,1415,1413,1414,1415,1413,1414,1415,1422,0,0,0,0,0,0,1521,1468,1413,1414,1413,1414,1415,1413,1414,1415,1413,1414,1415,1413,1414,1415,1413,1414,1415,1413,1414,1415,1413,
1092,1091,1090,1091,1090,1092,1090,1091,1091,1091,1092,1090,1168,1093,1094,1093,1093,1093,1095,1094,1093,1094,1095,1094,1093,1104,0,0,0,0,0,1100,1095,1094,1104,0,0,0,0,0,1099,1093,1094,1095,1093,1093,1094,1167,1226,0,0,0,0,1075,1075,1075,0,1101,1095,1093,1094,1084,0,0,0,1100,1094,1093,1094,1095,1095,1095,1094,1149,1092,1091,1090,1091,1092,1148,1093,1094,1095,1093,1094,1093,1094,1095,1095,1084,0,0,0,0,0,0,1081,1090,1090,1092,1090,1090,1092,1092,1091,1090,1092,1092,1092,1091,1090,1090,1090,1090,1140,1140,1091,1092,1092,1082,0,0,0,0,0,0,0,1225,1168,1094,1094,1095,1093,1093,1094,1095,1094,1094,1093,1093,1094,1104,1419,1413,1413,1414,1413,1413,1414,1413,1414,1415,1413,1414,1415,1413,1414,1415,1413,1414,1415,1413,1414,1415,1413,1414,1415,1413,1414,1413,1414,1415,1413,1414,1415,1422,0,0,0,0,1421,1413,1414,1415,1413,1414,1415,1413,1413,1413,1469,1410,1410,1411,1412,1402,0,0,0,1421,1422,0,0,0,1421,1422,0,0,0,1401,1402,0,0,0,0,1421,1422,0,0,0,0,0,0,1405,1406,0,0,0,0,1521,1468,1413,1413,1414,1422,0,0,0,0,0,0,0,0,0,0,0,0,0,0,0,0,0,0,1521,1468,1413,1414,1471,1546,0,0,0,0,0,0,0,0,0,0,0,1421,1413,1414,1415,1413,1469,1402,0,0,0,0,0,1405,1466,1466,1466,1466,1466,1466,1466,1466,1466,1406,0,0,0,0,0,1521,1468,1413,1413,1414,1413,1414,1415,1413,1414,1415,1413,1414,1415,1413,1414,1415,1413,1414,1415,1413,1414,1415,1413,
1095,1093,1094,1095,1093,1093,1094,1093,1093,1095,1093,1094,1095,1094,1093,1094,1093,1094,1093,1094,1095,1094,1094,1094,1094,1084,0,0,0,0,0,1099,1095,1095,1102,0,0,0,0,0,1101,1094,1094,1095,1095,1093,1093,1094,1167,1141,0,0,0,0,0,0,0,1099,1093,1094,1095,1103,0,0,0,1101,1093,1093,1093,1095,1093,1094,1095,1094,1095,1095,1093,1093,1093,1095,1094,1093,1095,1093,1093,1094,1093,1093,1095,1102,0,0,0,0,0,0,1145,1146,1146,1146,1146,1146,1146,1146,1146,1146,1146,1146,1146,1146,1146,1146,1146,1146,1146,1146,1098,1096,1098,1086,0,0,0,0,0,0,1225,1168,1093,1095,1095,1094,1095,1095,1093,1094,1095,1093,1093,1095,1095,1104,1419,1413,1413,1413,1413,1413,1413,1413,1414,1415,1413,1414,1415,1413,1414,1415,1413,1414,1415,1413,1414,1415,1413,1414,1415,1413,1414,1413,1414,1415,1413,1414,1415,1422,0,0,0,0,1421,1413,1414,1415,1413,1414,1415,1413,1413,1413,1413,1414,1415,1413,1414,1422,0,0,0,1421,1422,0,0,0,1421,1422,0,0,0,1421,1422,0,0,0,0,1421,1422,0,0,0,0,0,0,0,0,0,0,0,1521,1468,1413,1414,1413,1414,1422,0,0,0,0,0,0,0,0,0,0,0,0,0,0,0,0,0,1521,1468,1413,1414,1471,1546,0,0,0,0,0,0,0,0,0,0,0,0,1421,1413,1414,1415,1413,1413,1469,1402,0,0,0,0,0,0,0,0,0,0,0,0,0,0,0,0,0,0,0,1521,1468,1413,1413,1413,1414,1413,1414,1415,1413,1414,1415,1413,1414,1415,1413,1414,1415,1413,1414,1415,1413,1414,1415,1413,
1093,1094,1093,1093,1093,1094,1095,1093,1095,1095,1093,1095,1094,1094,1093,1095,1094,1093,1095,1094,1093,1093,1094,1094,1094,1102,0,0,0,0,0,1101,1093,1094,1102,0,0,0,0,0,1083,1094,1094,1094,1093,1095,1093,1093,1094,1149,1141,0,0,0,0,0,0,1101,1093,1095,1094,1104,0,0,0,1100,1095,1095,1094,1094,1095,1094,1094,1094,1095,1093,1094,1095,1093,1095,1094,1094,1094,1095,1094,1095,1095,1094,1094,1104,0,0,0,0,0,0,0,0,0,0,0,0,0,0,0,0,0,0,0,0,0,0,0,0,0,0,0,0,0,0,0,0,0,0,0,1225,1168,1093,1093,1094,1094,1095,1094,1094,1095,1095,1094,1093,1094,1093,1094,1104,1419,1413,1413,1414,1413,1413,1414,1413,1414,1415,1413,1414,1415,1413,1414,1415,1413,1414,1415,1413,1414,1415,1413,1414,1415,1413,1414,1413,1414,1415,1413,1414,1415,1422,0,0,0,0,1421,1413,1414,1415,1413,1414,1415,1413,1413,1413,1413,1414,1415,1413,1414,1422,0,0,0,1421,1422,0,0,0,1421,1422,0,0,0,1421,1422,0,0,0,0,1421,1422,0,0,0,0,0,0,0,0,0,0,1521,1468,1413,1414,1415,1413,1414,1422,0,0,0,0,0,0,0,0,0,0,0,0,0,0,0,0,1521,1468,1413,1414,1471,1546,0,0,0,0,0,0,0,0,0,0,0,0,0,1421,1413,1414,1415,1413,1413,1413,1469,1402,0,0,0,0,0,0,0,0,0,0,0,0,0,0,0,0,0,1521,1468,1413,1413,1413,1413,1414,1413,1414,1415,1413,1414,1415,1413,1414,1415,1413,1414,1415,1413,1414,1415,1413,1414,1415,1413,
1093,1093,1094,1095,1094,1095,1094,1095,1093,1094,1093,1094,1095,1093,1093,1093,1095,1093,1093,1094,1094,1095,1094,1094,1094,1104,0,0,0,0,0,1099,1094,1093,1103,0,0,0,0,0,1100,1094,1093,1095,1094,1095,1094,1093,1093,1095,1084,0,0,0,0,0,0,1101,1093,1095,1093,1084,0,0,0,1100,1094,1095,1095,1095,1094,1094,1094,1093,1095,1094,1094,1095,1093,1095,1093,1093,1095,1094,1094,1095,1094,1095,1094,1103,0,0,0,0,0,0,0,0,0,0,0,0,0,0,0,0,0,0,0,0,0,0,0,0,0,0,0,0,0,0,0,0,0,0,1225,1168,1094,1095,1093,1093,1094,1093,1093,1094,1093,1095,1093,1095,1094,1095,1095,1103,1419,1413,1414,1415,1413,1413,1414,1413,1414,1415,1413,1414,1415,1413,1414,1415,1413,1414,1415,1413,1414,1415,1413,1414,1415,1413,1414,1413,1414,1415,1413,1414,1415,1422,0,0,0,0,1421,1413,1414,1415,1413,1414,1415,1413,1413,1413,1413,1414,1415,1413,1414,1422,0,0,0,1421,1422,0,0,0,1421,1422,0,0,0,1421,1422,0,0,0,0,1421,1422,0,0,0,0,0,0,0,0,0,1521,1468,1413,1414,1415,1413,1413,1414,1422,0,0,0,0,0,1401,1410,1411,1412,1410,1402,0,0,0,0,1521,1468,1413,1414,1471,1546,0,0,0,0,0,0,0,0,0,0,0,0,0,0,1421,1413,1414,1415,1413,1413,1413,1413,1469,1402,0,0,0,0,0,0,0,0,0,0,0,0,0,0,0,1521,1468,1413,1413,1413,1413,1413,1414,1413,1414,1415,1413,1414,1415,1413,1414,1415,1413,1414,1415,1413,1414,1415,1413,1414,1415,1413,
1095,1095,1094,1095,1094,1094,1093,1095,1095,1095,1095,1094,1095,1093,1094,1094,1094,1095,1095,1095,1095,1095,1093,1093,1095,1103,0,0,0,0,0,1100,1094,1093,1084,0,0,0,0,0,1083,1093,1093,1095,1094,1095,1095,1093,1093,1093,1102,0,0,0,0,0,0,1099,1093,1093,1095,1084,0,0,0,1083,1094,1094,1095,1093,1095,1094,1093,1095,1094,1093,1094,1094,1093,1093,1094,1094,1094,1095,1093,1093,1093,1094,1095,1104,0,0,0,0,0,1225,1140,1091,1092,1090,1090,1091,1091,1090,1091,1090,1090,1091,1091,1091,1090,1090,1090,1090,1092,1090,1092,1091,1092,1140,1226,0,0,1225,1168,1094,1095,1095,1094,1093,1094,1093,1095,1094,1093,1093,1095,1093,1093,1094,1095,1102,1419,1413,1413,1414,1413,1413,1414,1413,1414,1415,1413,1414,1415,1413,1414,1415,1413,1414,1415,1413,1414,1415,1413,1414,1415,1413,1414,1413,1414,1415,1413,1414,1413,1422,0,0,0,0,1421,1413,1414,1415,1413,1414,1415,1413,1413,1413,1413,1414,1415,1413,1414,1422,0,0,0,1421,1422,0,0,0,1421,1422,0,0,0,1421,1422,0,0,0,0,1421,1422,0,0,1401,1402,0,0,1401,1410,1411,1468,1413,1414,1415,1413,1414,1413,1414,1469,1410,1411,1412,1410,1411,1468,1413,1414,1415,1413,1422,0,0,0,1521,1468,1413,1414,1471,1546,0,0,0,0,0,0,0,0,0,0,0,0,0,0,0,1421,1413,1414,1415,1413,1413,1413,1413,1413,1469,1410,1411,1412,1410,1411,1412,1410,1411,1412,1410,1411,1412,1410,1411,1412,1468,1413,1413,1413,1413,1413,1413,1414,1413,1414,1415,1413,1414,1415,1413,1414,1415,1413,1414,1415,1413,1414,1415,1413,1414,1415,1413
</data>
 </layer>
 <layer id="6" name="CapaFrente" width="322" height="26">
  <data encoding="csv">
0,0,0,0,0,0,0,0,0,0,0,0,0,0,0,0,0,0,0,0,0,0,0,0,0,0,0,0,0,0,0,0,0,0,0,0,0,0,0,0,0,0,0,0,0,0,0,0,0,0,0,0,0,0,0,0,0,0,0,0,0,0,0,0,0,0,0,0,0,0,0,0,0,0,0,0,0,0,0,0,0,0,0,0,0,0,0,0,0,0,0,0,0,0,0,0,0,0,0,0,0,0,0,0,0,0,0,0,0,0,0,0,0,0,0,0,0,0,0,0,0,0,0,0,0,0,0,0,0,0,0,0,0,0,0,0,0,0,0,0,0,0,0,0,0,0,0,0,0,0,0,0,0,0,0,0,0,0,0,0,0,0,0,0,0,0,0,0,0,0,0,0,0,0,0,0,0,0,0,0,0,0,0,0,0,0,0,0,0,0,0,0,0,0,0,0,0,0,0,0,0,0,0,0,0,0,0,0,0,0,0,0,0,0,0,0,0,0,0,0,0,0,0,0,0,0,0,0,0,0,0,0,0,0,0,0,0,0,0,0,0,0,0,0,0,0,0,0,0,0,0,0,0,0,0,0,0,0,0,0,0,0,0,0,0,0,0,0,0,0,0,0,0,0,0,0,0,0,0,0,0,0,0,0,0,0,0,0,0,0,0,0,0,0,0,0,0,0,0,0,0,0,0,0,0,0,0,0,0,0,0,0,0,0,0,0,0,0,0,0,0,0,
0,0,0,0,0,0,0,0,0,0,0,0,0,0,0,0,0,0,0,0,0,0,0,0,0,0,0,0,0,0,0,0,0,0,0,0,0,0,0,0,0,0,0,0,0,0,0,0,0,0,0,0,0,0,0,0,0,0,0,0,0,0,0,0,0,0,0,0,0,0,0,0,0,0,0,0,0,0,0,0,0,0,0,0,0,0,0,0,0,0,0,0,0,0,0,0,0,0,0,0,0,0,0,0,0,0,0,0,0,0,0,0,0,0,0,0,0,0,0,0,0,0,0,0,0,0,0,0,0,0,0,0,0,0,0,0,0,0,0,0,0,0,0,0,0,0,0,0,0,0,0,0,0,0,0,0,0,0,0,0,0,0,0,0,0,0,0,0,0,0,0,0,0,0,0,0,0,0,0,0,0,0,0,0,0,0,0,0,0,0,0,0,0,0,0,0,0,0,0,0,0,0,0,0,0,0,0,0,0,0,0,0,0,0,0,0,0,0,0,0,0,0,0,0,0,0,0,0,0,0,0,0,0,0,0,0,0,0,0,0,0,0,0,0,0,0,0,0,0,0,0,0,0,0,0,0,0,0,0,0,0,0,0,0,0,0,0,0,0,0,0,0,0,0,0,0,0,0,0,0,0,0,0,0,0,0,0,0,0,0,0,0,0,0,0,0,0,0,0,0,0,0,0,0,0,0,0,0,0,0,0,0,0,0,0,0,0,0,0,0,0,0,
0,0,0,0,0,0,0,0,0,0,0,0,0,0,0,0,0,0,0,0,0,0,0,0,0,0,0,0,0,0,0,0,0,0,0,0,0,0,0,0,0,0,0,0,0,0,0,0,0,0,0,0,0,0,0,0,0,0,0,0,0,0,0,0,0,0,0,0,0,0,0,0,0,0,0,0,0,0,0,0,0,0,0,0,0,0,0,0,0,0,0,0,0,0,0,0,0,0,0,0,0,0,0,0,0,0,0,0,0,0,0,0,0,0,0,0,0,0,0,0,0,0,0,0,0,0,0,0,0,0,0,0,0,0,0,0,0,0,0,0,0,0,0,0,0,0,0,0,0,0,0,0,0,0,0,0,0,0,0,0,0,0,0,0,0,0,0,0,0,0,0,0,0,0,0,0,0,0,0,0,0,0,0,0,0,0,0,0,0,0,0,0,0,0,0,0,0,0,0,0,0,0,0,0,0,0,0,0,0,0,0,0,0,0,0,0,0,0,0,0,0,0,0,0,0,0,0,0,0,0,0,0,0,0,0,0,0,0,0,0,0,0,0,0,0,0,0,0,0,0,0,0,0,0,0,0,0,0,0,0,0,0,0,0,0,0,0,0,0,0,0,0,0,0,0,0,0,0,0,0,0,0,0,0,0,0,0,0,0,0,0,0,0,0,0,0,0,0,0,0,0,0,0,0,0,0,0,0,0,0,0,0,0,0,0,0,0,0,0,0,0,0,
0,0,0,0,0,0,0,0,0,0,0,0,0,0,0,0,0,0,0,0,0,0,0,0,0,0,0,0,0,0,0,0,0,0,0,0,0,0,0,0,0,0,0,0,0,0,0,0,0,0,0,0,0,0,0,0,0,0,0,0,0,0,0,0,0,0,0,0,0,0,0,0,0,0,0,0,0,0,0,0,0,0,0,0,0,0,0,0,0,0,0,0,0,0,0,0,0,0,0,0,0,0,0,0,0,0,0,0,0,0,0,0,0,0,0,0,0,0,0,0,0,0,0,0,0,0,0,0,0,0,0,0,0,0,0,0,0,0,0,0,0,0,0,0,0,0,0,0,0,0,0,0,0,0,0,0,0,0,0,0,0,0,0,0,0,0,0,0,0,0,0,0,0,0,0,0,0,0,0,0,0,0,0,0,0,0,0,0,0,0,0,0,0,0,0,0,0,0,0,0,0,0,0,0,0,0,0,0,0,0,0,0,0,0,0,0,0,0,0,0,0,0,0,0,0,0,0,0,0,0,0,0,0,0,0,0,0,0,0,0,0,0,0,0,0,0,0,0,0,0,0,0,0,0,0,0,0,0,0,0,0,0,0,0,0,0,0,0,0,0,0,0,0,0,0,0,0,0,0,0,0,0,0,0,0,0,0,0,0,0,0,0,0,0,0,0,0,0,0,0,0,0,0,0,0,0,0,0,0,0,0,0,0,0,0,0,0,0,0,0,0,0,
0,0,0,0,0,0,0,0,0,0,0,0,0,0,0,0,0,0,0,0,0,0,0,0,0,0,0,0,0,0,0,0,0,0,0,0,0,0,0,0,0,0,0,0,0,0,0,0,0,0,0,0,0,0,0,0,0,0,0,0,0,0,0,0,0,0,0,0,0,0,0,0,0,0,0,0,0,0,0,0,0,0,0,0,0,0,0,0,0,0,0,0,0,0,0,0,0,0,0,0,0,0,0,0,0,0,0,0,0,0,0,0,0,0,0,0,0,0,0,0,0,0,0,0,0,0,0,0,0,0,0,0,0,0,0,0,0,0,0,0,0,0,0,0,0,0,0,0,0,0,0,0,0,0,0,0,0,0,0,0,0,0,0,0,0,0,0,0,0,0,0,0,0,0,0,0,0,0,0,0,0,0,0,0,0,0,0,0,0,0,0,0,0,0,0,0,0,0,0,0,0,0,0,0,0,0,0,0,0,0,0,0,0,0,0,0,0,0,0,0,0,0,0,0,0,0,0,0,0,0,0,0,0,0,0,0,0,0,0,0,0,0,0,0,0,0,0,0,0,0,0,0,0,0,0,0,0,0,0,0,0,0,0,0,0,0,0,0,0,0,0,0,0,0,0,0,0,0,0,0,0,0,0,0,0,0,0,0,0,0,0,0,0,0,0,0,0,0,0,0,0,0,0,0,0,0,0,0,0,0,0,0,0,0,0,0,0,0,0,0,0,0,
0,0,0,0,0,0,0,0,0,0,0,0,0,0,0,0,0,0,0,0,0,0,0,0,0,0,0,0,0,0,0,0,0,0,0,0,0,0,0,0,0,0,0,0,0,0,0,0,0,0,0,0,0,0,0,0,0,0,0,0,0,0,0,0,0,0,0,0,0,0,0,0,0,0,0,0,0,0,0,0,0,0,0,0,0,0,0,0,0,0,0,0,0,0,0,0,0,0,0,0,0,0,0,0,0,0,0,0,0,0,0,0,0,0,0,0,0,0,0,0,0,0,0,0,0,0,0,0,0,0,0,0,0,0,0,0,0,0,0,0,0,0,0,0,0,0,0,0,0,0,0,0,0,0,0,0,0,0,0,0,0,0,0,0,0,0,0,0,0,0,0,0,0,0,0,0,0,0,0,0,0,0,0,0,0,0,0,0,0,0,0,0,0,0,0,0,0,0,0,0,0,0,0,0,0,0,0,0,0,0,0,0,0,0,0,0,0,0,0,0,0,0,0,0,0,0,0,0,0,0,0,0,0,0,0,0,0,0,0,0,0,0,0,0,0,0,0,0,0,0,0,0,0,0,0,0,0,0,0,0,0,0,0,0,0,0,0,0,0,0,0,0,0,0,0,0,0,0,0,0,0,0,0,0,0,0,0,0,0,0,0,0,0,0,0,0,0,0,0,0,0,0,0,0,0,0,0,0,0,0,0,0,0,0,0,0,0,0,0,0,0,0,
0,0,0,0,0,0,0,0,0,0,0,0,0,0,0,0,0,0,0,0,0,0,0,0,0,0,0,0,0,0,0,0,0,0,0,0,0,0,0,0,0,0,0,0,0,0,0,0,0,0,0,0,0,0,0,0,0,0,0,0,0,0,0,0,0,0,0,0,0,0,0,0,0,0,0,0,0,0,0,0,0,0,0,0,0,0,0,0,0,0,0,0,0,0,0,0,0,0,0,0,0,0,0,0,0,0,0,0,0,0,0,0,0,0,0,0,0,0,0,0,0,0,0,0,0,0,0,0,0,0,0,0,0,0,0,0,0,0,0,0,0,0,0,0,0,0,0,0,0,0,0,0,0,0,0,0,0,0,0,0,0,0,0,0,0,0,0,0,0,0,0,0,0,0,0,0,0,0,0,0,0,0,0,0,0,0,0,0,0,0,0,0,0,0,0,0,0,0,0,0,0,0,0,0,0,0,0,0,0,0,0,0,0,0,0,0,0,0,0,0,0,0,0,0,0,0,0,0,0,0,0,0,0,0,0,0,0,0,0,0,0,0,0,0,0,0,0,0,0,0,0,0,0,0,0,0,0,0,0,0,0,0,0,0,0,0,0,0,0,0,0,0,0,0,0,0,0,0,0,0,0,0,0,0,0,0,0,0,0,0,0,0,0,0,0,0,0,0,0,0,0,0,0,0,0,0,0,0,0,0,0,0,0,0,0,0,0,0,0,0,0,0,
0,0,0,0,0,0,0,0,0,0,0,0,0,0,0,0,0,0,0,0,0,0,0,0,0,0,0,0,0,0,0,0,0,0,0,0,0,0,0,0,0,0,0,0,0,0,0,0,0,0,0,0,0,0,0,0,0,0,0,0,0,0,0,0,0,0,0,0,0,0,0,0,0,0,0,0,0,0,0,0,0,0,0,0,0,0,0,0,0,0,0,0,0,0,0,0,0,0,0,0,0,0,0,0,0,0,0,0,0,0,0,0,0,0,0,0,0,0,0,0,0,0,0,0,0,0,0,0,0,0,0,0,0,0,0,0,0,0,0,0,0,0,0,0,0,0,0,0,0,0,0,0,0,0,0,0,0,0,0,0,0,0,0,0,0,0,0,0,0,0,0,0,0,0,0,0,0,0,0,0,0,0,0,0,0,0,0,0,0,0,0,0,0,0,0,0,0,0,0,0,0,0,0,0,0,0,0,0,0,0,0,0,0,0,0,0,0,0,0,0,0,0,0,0,0,0,0,0,0,0,0,0,0,0,0,0,0,0,0,0,0,0,0,0,0,0,0,0,0,0,0,0,0,0,0,0,0,0,0,0,0,0,0,0,0,0,0,0,0,0,0,0,0,0,0,0,0,0,0,0,0,0,0,0,0,0,0,0,0,0,0,0,0,0,0,0,0,0,0,0,0,0,0,0,0,0,0,0,0,0,0,0,0,0,0,0,0,0,0,0,0,0,
0,0,0,0,0,0,0,0,0,0,0,0,0,0,0,0,0,0,0,0,0,0,0,0,0,0,0,0,0,0,0,0,0,0,0,0,0,0,0,0,0,0,0,0,0,0,0,0,0,0,0,0,0,0,0,0,0,0,0,0,0,0,0,0,0,0,0,0,0,0,0,0,0,0,0,0,0,0,0,0,0,0,0,0,0,0,0,0,0,0,0,0,0,0,0,0,0,0,0,0,0,0,0,0,0,0,0,0,0,0,0,0,0,0,0,0,0,0,0,0,0,0,0,0,0,0,0,0,0,0,0,0,0,0,0,0,0,0,0,0,0,0,0,0,0,0,0,0,0,0,0,0,0,0,0,0,0,0,0,0,0,0,0,0,0,0,0,0,0,0,0,0,0,0,0,0,0,0,0,0,0,0,0,0,0,0,0,0,0,0,0,0,0,0,0,0,0,0,0,0,0,0,0,0,0,0,0,0,0,0,0,0,0,0,0,0,0,0,0,0,0,0,0,0,0,0,0,0,0,0,0,0,0,0,0,0,0,0,0,0,0,0,0,0,0,0,0,0,0,0,0,0,0,0,0,0,0,0,0,0,0,0,0,0,0,0,0,0,0,0,0,0,0,0,0,0,0,0,0,0,0,0,0,0,0,0,0,0,0,0,0,0,0,0,0,0,0,0,0,0,0,0,0,0,0,0,0,0,0,0,0,0,0,0,0,0,0,0,0,0,0,0,
0,0,0,0,0,0,0,0,0,0,0,0,0,0,0,0,0,0,0,0,0,0,0,0,0,0,0,0,0,0,0,0,0,0,0,0,0,0,0,0,0,0,0,0,0,0,0,0,0,0,0,0,0,0,0,0,0,0,0,0,0,0,0,0,0,0,0,0,0,0,0,0,0,0,0,0,0,0,0,0,0,0,0,0,0,0,0,0,0,0,0,0,0,0,0,0,0,0,0,0,0,0,0,0,0,0,0,0,0,0,0,0,0,0,0,0,0,0,0,0,0,0,0,0,0,0,0,0,0,0,0,0,0,0,0,0,0,0,0,0,0,0,0,0,0,0,0,0,0,0,0,0,0,0,0,0,0,0,0,0,0,0,0,0,0,0,0,0,0,0,0,0,0,0,0,0,0,0,0,0,0,0,0,0,0,0,0,0,0,0,0,0,0,0,0,0,0,0,0,0,0,0,0,0,0,0,0,0,0,0,0,0,0,0,0,0,0,0,0,0,0,0,0,0,0,0,0,0,0,0,0,0,0,0,0,0,0,0,0,0,0,0,0,0,0,0,0,0,0,0,0,0,0,0,0,0,0,0,0,0,0,0,0,0,0,0,0,0,0,0,0,0,0,0,0,0,0,0,0,0,0,0,0,0,0,0,0,0,0,0,0,0,0,0,0,0,0,0,0,0,0,0,0,0,0,0,0,0,0,0,0,0,1274,0,0,0,0,0,0,0,0,0,
0,0,0,0,0,0,0,0,0,0,0,0,0,0,0,0,0,0,0,0,0,0,0,0,0,0,0,0,0,0,0,0,0,0,0,0,0,0,0,0,0,0,0,0,0,0,0,0,0,0,0,0,0,0,0,0,0,0,0,0,0,0,0,0,0,0,0,0,0,0,0,0,0,0,0,0,0,0,0,0,0,0,0,0,0,0,0,0,0,0,0,0,0,0,0,0,0,0,0,0,0,0,0,0,0,0,0,0,0,0,0,0,0,0,0,0,0,0,0,0,0,0,0,0,0,0,0,0,0,0,0,0,0,0,0,0,0,0,0,0,0,0,0,0,0,0,0,0,0,0,0,0,0,0,0,0,0,0,0,0,0,0,0,0,0,0,0,0,0,0,0,0,0,0,0,0,0,0,0,0,0,0,0,0,0,0,0,0,0,0,0,0,0,0,0,0,0,0,0,0,0,0,0,0,0,0,0,0,0,0,0,0,0,0,0,0,0,0,0,0,0,0,0,0,0,0,0,0,0,0,0,0,0,0,0,0,0,0,0,0,0,0,0,0,0,0,0,0,0,0,0,0,0,0,0,0,0,0,0,0,0,0,0,0,0,0,0,0,0,0,0,0,0,0,0,0,0,0,0,0,0,0,0,0,0,0,0,0,0,0,0,0,0,0,0,0,0,0,0,0,0,0,0,0,0,0,0,0,0,0,0,0,1282,0,0,0,0,0,0,0,0,0,
0,0,0,0,0,0,0,0,0,0,0,0,0,0,0,0,0,0,0,0,0,0,0,0,0,0,0,0,0,0,0,0,0,0,0,0,0,0,0,0,0,0,0,0,0,0,0,0,0,0,0,0,0,0,0,0,0,0,0,0,0,0,0,0,0,0,0,0,0,0,0,0,0,0,0,0,0,0,0,0,0,0,0,0,0,0,0,0,0,0,0,0,0,0,0,0,0,0,0,0,0,0,0,0,0,0,0,0,0,0,0,0,0,0,0,0,0,0,0,0,0,0,0,0,0,0,0,0,0,0,0,0,0,0,0,0,0,0,0,0,0,0,0,0,0,0,0,0,0,0,0,0,0,0,0,0,0,0,0,0,0,0,0,0,0,0,0,0,0,0,0,0,0,0,0,0,0,0,0,0,0,0,0,0,0,0,0,0,0,0,0,0,0,0,0,0,0,0,0,0,0,0,0,0,0,0,0,0,0,0,0,0,0,0,0,0,0,0,0,0,0,0,0,0,0,0,0,0,0,0,0,0,0,0,0,0,0,0,0,0,0,0,0,0,0,0,0,0,0,0,0,0,0,0,0,0,0,0,0,0,0,0,0,0,0,0,0,0,0,0,0,0,0,0,0,0,0,0,0,0,0,0,0,0,0,0,0,0,0,0,0,0,0,0,0,0,0,0,0,0,0,0,0,0,0,0,0,0,0,0,0,0,1290,0,0,0,0,0,0,0,0,0,
0,0,0,0,0,0,0,0,0,0,0,0,0,0,0,0,0,0,0,0,0,0,0,0,0,0,0,0,0,0,0,0,0,0,0,0,0,0,0,0,0,0,0,0,0,0,0,0,0,0,0,0,0,0,0,0,0,0,0,0,0,0,0,0,0,0,0,0,0,0,0,0,0,0,0,0,0,0,0,0,0,0,0,0,0,0,0,0,0,0,0,0,0,0,0,0,0,0,0,0,0,0,0,0,0,0,0,0,0,0,0,0,0,0,0,0,0,0,0,0,0,0,0,0,0,0,0,0,0,0,0,0,0,0,0,0,0,0,0,0,0,0,0,0,0,0,0,0,0,0,0,0,0,0,0,0,0,0,0,0,0,0,0,0,0,0,0,0,0,0,0,0,0,0,0,0,0,0,0,0,0,0,0,0,0,0,0,0,0,0,0,0,0,0,0,0,0,0,0,0,0,0,0,0,0,0,0,0,0,0,0,0,0,0,0,0,0,0,0,0,0,0,0,0,0,0,0,0,0,0,0,0,0,0,0,0,0,0,0,0,0,0,0,0,0,0,0,0,0,0,0,0,0,0,0,0,0,0,0,0,0,0,0,0,0,0,0,0,0,0,0,0,0,0,0,0,0,0,0,0,0,0,0,0,0,0,0,0,0,0,0,0,0,0,0,0,0,0,0,0,0,0,0,0,0,0,0,0,0,0,0,0,1298,0,0,0,0,0,0,0,0,0,
0,0,0,0,0,0,0,0,0,0,0,0,0,0,0,0,0,0,0,0,0,0,0,0,0,0,0,0,0,0,0,0,0,0,0,0,0,0,0,0,0,0,0,0,0,0,0,0,0,0,0,0,0,0,0,0,0,0,0,0,0,0,0,0,0,0,0,0,0,0,0,0,0,0,0,0,0,0,0,0,0,0,0,0,0,0,0,0,0,0,0,0,0,0,0,0,0,0,0,0,0,0,0,0,0,0,0,0,0,0,0,0,0,0,0,0,0,0,0,0,0,0,0,0,0,0,0,0,0,0,0,0,0,0,0,0,0,0,0,0,0,0,0,0,0,0,0,0,0,0,0,0,0,0,0,0,0,0,0,0,0,0,0,0,0,0,0,0,0,0,0,0,0,0,0,0,0,0,0,0,0,0,0,0,0,0,0,0,0,0,0,0,0,0,0,0,0,0,0,0,0,0,0,0,0,0,0,0,0,0,0,0,0,0,0,0,0,0,0,0,0,0,0,0,0,0,0,0,0,0,0,0,0,0,0,0,0,0,0,0,0,0,0,0,0,0,0,0,0,0,0,0,0,0,0,0,0,0,0,0,0,0,0,0,0,0,0,0,0,0,0,0,0,0,0,0,0,0,0,0,0,0,0,0,0,0,0,0,0,0,0,0,0,0,0,0,0,0,0,0,0,0,0,0,0,0,0,0,0,0,0,0,1306,0,0,0,0,0,0,0,0,0,
0,0,0,0,0,0,0,0,0,0,0,0,0,0,0,0,0,0,0,0,0,0,0,0,0,0,0,0,0,0,0,0,0,0,0,0,0,0,0,0,0,0,0,0,0,0,0,0,0,0,0,0,0,0,0,0,0,0,0,0,0,0,0,0,0,0,0,0,0,0,0,0,0,0,0,0,0,0,0,0,0,0,0,0,0,0,0,0,0,0,0,0,0,0,0,0,0,0,0,0,0,0,0,0,0,0,0,0,0,0,0,0,0,0,0,0,0,0,0,0,0,0,0,0,0,0,0,0,0,0,0,0,0,0,0,0,0,0,0,0,0,0,0,0,0,0,0,0,0,0,0,0,0,0,0,0,0,0,0,0,0,0,0,0,0,0,0,0,0,0,0,0,0,0,0,0,0,0,0,0,0,0,0,0,0,0,0,0,0,0,0,0,0,0,0,0,0,0,0,0,0,0,0,0,0,0,0,0,0,0,0,0,0,0,0,0,0,0,0,0,0,0,0,0,0,0,0,0,0,0,0,0,0,0,0,0,0,0,0,0,0,0,0,0,0,0,0,0,0,0,0,0,0,0,0,0,0,0,0,0,0,0,0,0,0,0,0,0,0,0,0,0,0,0,0,0,0,0,0,0,0,0,0,0,0,0,0,0,0,0,0,0,0,0,0,0,0,0,0,0,0,0,0,0,0,0,0,0,0,0,0,0,1314,0,0,0,0,0,0,0,0,0,
0,0,0,0,0,0,0,0,0,0,0,0,0,0,0,0,0,0,0,0,0,0,0,0,0,0,0,0,0,0,0,0,0,0,0,0,0,0,0,0,0,0,0,0,0,0,0,0,0,0,0,0,0,0,0,0,0,0,0,0,0,0,0,0,0,0,0,0,0,0,0,0,0,0,0,0,0,0,0,0,0,0,0,0,0,0,0,0,0,0,0,0,0,0,0,0,0,0,0,0,0,0,0,0,0,0,0,0,0,0,0,0,0,0,0,0,0,0,0,0,0,0,0,0,0,0,0,0,0,0,0,0,0,0,0,0,0,0,0,0,0,0,0,0,0,0,0,0,0,0,0,0,0,0,0,0,0,0,0,0,0,0,0,0,0,0,0,0,0,0,0,0,0,0,0,0,0,0,0,0,0,0,0,0,0,0,0,0,0,0,0,0,0,0,0,0,0,0,0,0,0,0,0,0,0,0,0,0,0,0,0,0,0,0,0,0,0,0,0,0,0,0,0,0,0,0,0,0,0,0,0,0,0,0,0,0,0,0,0,0,0,0,0,0,0,0,0,0,0,0,0,0,0,0,0,0,0,0,0,0,0,0,0,0,0,0,0,0,0,0,0,0,0,0,0,0,0,0,0,0,0,0,0,0,0,0,0,0,0,0,0,0,0,0,0,0,0,0,0,0,0,0,0,0,0,0,0,0,0,0,0,0,1322,0,0,0,0,0,0,0,0,0,
0,0,0,0,0,0,0,0,0,0,0,0,0,0,0,0,0,0,0,0,0,0,0,0,0,0,0,0,0,0,0,0,0,0,0,0,0,0,0,0,0,0,0,0,0,0,0,0,0,0,0,0,0,0,0,0,0,0,0,0,0,0,0,0,0,0,0,0,0,0,0,0,0,0,0,0,0,0,0,0,0,0,0,0,0,0,0,0,0,0,0,0,0,0,0,0,0,0,0,0,0,0,0,0,0,0,0,0,0,0,0,0,0,0,0,0,0,0,0,0,0,0,0,0,0,0,0,0,0,0,0,0,0,0,0,0,0,0,0,0,0,0,0,0,0,0,0,0,0,0,0,0,0,0,0,0,0,0,0,0,0,0,0,0,0,0,0,0,0,0,0,0,0,0,0,0,0,0,0,0,0,0,0,0,0,0,0,0,0,0,0,0,0,0,0,0,0,0,0,0,0,0,0,0,0,0,0,0,0,0,0,0,0,0,0,0,0,0,0,0,0,0,0,0,0,0,0,0,0,0,0,0,0,0,0,0,0,0,0,0,0,0,0,0,0,0,0,0,0,0,0,0,0,0,0,0,0,0,0,0,0,0,0,0,0,0,0,0,0,0,0,0,0,0,0,0,0,0,0,0,0,0,0,0,0,0,0,0,0,0,0,0,0,0,0,0,0,0,0,0,0,0,0,0,0,0,0,0,0,0,0,0,1330,0,0,0,0,0,0,0,0,0,
0,0,0,0,0,0,0,0,0,0,0,0,0,0,0,0,0,0,0,0,0,0,0,0,0,0,0,0,0,0,0,0,0,0,0,0,0,0,0,0,0,0,0,0,0,0,0,0,0,0,0,0,0,0,0,0,0,0,0,0,0,0,0,0,0,0,0,0,0,0,0,0,0,0,0,0,0,0,0,0,0,0,0,0,0,0,0,0,0,0,0,0,0,0,0,0,0,0,0,0,0,0,0,0,0,0,0,0,0,0,0,0,0,0,0,0,0,0,0,0,0,0,0,0,0,0,0,0,0,0,0,0,0,0,0,0,0,0,0,0,0,0,0,0,0,0,0,0,0,0,0,0,0,0,0,0,0,0,0,0,0,0,0,0,0,0,0,0,0,0,0,0,0,0,0,0,0,0,0,0,0,0,0,0,0,0,0,0,0,0,0,0,0,0,0,0,0,0,0,0,0,0,0,0,0,0,0,0,0,0,0,0,0,0,0,0,0,0,0,0,0,0,0,0,0,0,0,0,0,0,0,0,0,0,0,0,0,0,0,0,0,0,0,0,0,0,0,0,0,0,0,0,0,0,0,0,0,0,0,0,0,0,0,0,0,0,0,0,0,0,0,0,0,0,0,0,0,0,0,0,0,0,0,0,0,0,0,0,0,0,0,0,0,0,0,0,0,0,0,0,0,0,0,0,0,0,0,0,0,0,0,0,0,0,0,0,0,0,0,0,0,0,
0,0,0,0,0,0,0,0,0,0,0,0,0,0,0,0,0,0,0,0,0,0,0,0,0,0,0,0,0,0,0,0,0,0,0,0,0,0,0,0,0,0,0,0,0,0,0,0,0,0,0,0,0,0,0,0,0,0,0,0,0,0,0,0,0,0,0,0,0,0,0,0,0,0,0,0,0,0,0,0,0,0,0,0,0,0,0,0,0,0,0,0,0,0,0,0,0,0,0,0,0,0,0,0,0,0,0,0,0,0,0,0,0,0,0,0,0,0,0,0,0,0,0,0,0,0,0,0,0,0,0,0,0,0,0,0,0,0,0,0,0,0,0,0,0,0,0,0,0,0,0,0,0,0,0,0,0,0,0,0,0,0,0,0,0,0,0,0,0,0,0,0,0,0,0,0,0,0,0,0,0,0,0,0,0,0,0,0,0,0,0,0,0,0,0,0,0,0,0,0,0,0,0,0,0,0,0,0,0,0,0,0,0,0,0,0,0,0,0,0,0,0,0,0,0,0,0,0,0,0,0,0,0,0,0,0,0,0,0,0,0,0,0,0,0,0,0,0,0,0,0,0,0,0,0,0,0,0,0,0,0,0,0,0,0,0,0,0,0,0,0,0,0,0,0,0,0,0,0,0,0,0,0,0,0,0,0,0,0,0,0,0,0,0,0,0,0,0,0,0,0,0,0,0,0,0,0,0,0,0,0,0,0,0,0,0,0,0,0,0,0,0,
0,0,0,0,0,0,0,0,0,0,0,0,0,0,0,0,0,0,0,0,0,0,0,0,0,0,0,0,0,0,0,0,0,0,0,0,0,0,0,0,0,0,0,0,0,0,0,0,0,0,0,0,0,0,0,0,0,0,0,0,0,0,0,0,0,0,0,0,0,0,0,0,0,0,0,0,0,0,0,0,0,0,0,0,0,0,0,0,0,0,0,0,0,0,0,0,0,0,0,0,0,0,0,0,0,0,0,0,0,0,0,0,0,0,0,0,0,0,0,0,0,0,0,0,0,0,0,0,0,0,0,0,0,0,0,0,0,0,0,0,0,0,0,0,0,0,0,0,0,0,0,0,0,0,0,0,0,0,0,0,0,0,0,0,0,0,0,0,0,0,0,0,0,0,0,0,0,0,0,0,0,0,0,0,0,0,0,0,0,0,0,0,0,0,0,0,0,0,0,0,0,0,0,0,0,0,0,0,0,0,0,0,0,0,0,0,0,0,0,0,0,0,0,0,0,0,0,0,0,0,0,0,0,0,0,0,0,0,0,0,0,0,0,0,0,0,0,0,0,0,0,0,0,0,0,0,0,0,0,0,0,0,0,0,0,0,0,0,0,0,0,0,0,0,0,0,0,0,0,0,0,0,0,0,0,0,0,0,0,0,0,0,0,0,0,0,0,0,0,0,0,0,0,0,0,0,0,0,0,0,0,0,0,0,0,0,0,0,0,0,0,0,
0,0,0,0,0,0,0,0,0,0,0,0,0,0,0,0,0,0,0,0,0,0,0,0,0,0,0,0,0,0,0,0,0,0,0,0,0,0,0,0,0,0,0,0,0,0,0,0,0,0,0,0,0,0,0,0,0,0,0,0,0,0,0,0,0,0,0,0,0,0,0,0,0,0,0,0,0,0,0,0,0,0,0,0,0,0,0,0,0,0,0,0,0,0,0,0,0,0,0,0,0,0,0,0,0,0,0,0,0,0,0,0,0,0,0,0,0,0,0,0,0,0,0,0,0,0,0,0,0,0,0,0,0,0,0,0,0,0,0,0,0,0,0,0,0,0,0,0,0,0,0,0,0,0,0,0,0,0,0,0,0,0,0,0,0,0,0,0,0,0,0,0,0,0,0,0,0,0,0,0,0,0,0,0,0,0,0,0,0,0,0,0,0,0,0,0,0,0,0,0,0,0,0,0,0,0,0,0,0,0,0,0,0,0,0,0,0,0,0,0,0,0,0,0,0,0,0,0,0,0,0,0,0,0,0,0,0,0,0,0,0,0,0,0,0,0,0,0,0,0,0,0,0,0,0,0,0,0,0,0,0,0,0,0,0,0,0,0,0,0,0,0,0,0,0,0,0,0,0,0,0,0,0,0,0,0,0,0,0,0,0,0,0,0,0,0,0,0,0,0,0,0,0,0,0,0,0,0,0,0,0,0,0,0,0,0,0,0,0,0,0,0,
0,0,0,0,0,0,0,0,0,0,0,0,0,0,0,0,0,0,0,0,0,0,0,0,0,0,0,0,0,0,0,0,0,0,0,0,0,0,0,0,0,0,0,0,0,0,0,0,0,0,0,0,0,0,0,0,0,0,0,0,0,0,0,0,0,0,0,0,0,0,0,0,0,0,0,0,0,0,0,0,0,0,0,0,0,0,0,0,0,0,0,0,0,0,0,0,0,0,0,0,0,0,0,0,0,0,0,0,0,0,0,0,0,0,0,0,0,0,0,0,0,0,0,0,0,0,0,0,0,0,0,0,0,0,0,0,0,0,0,0,0,0,0,0,0,0,0,0,0,0,0,0,0,0,0,0,0,0,0,0,0,0,0,0,0,0,0,0,0,0,0,0,0,0,0,0,0,0,0,0,0,0,0,0,0,0,0,0,0,0,0,0,0,0,0,0,0,0,0,0,0,0,0,0,0,0,0,0,0,0,0,0,0,0,0,0,0,0,0,0,0,0,0,0,0,0,0,0,0,0,0,0,0,0,0,0,0,0,0,0,0,0,0,0,0,0,0,0,0,0,0,0,0,0,0,0,0,0,0,0,0,0,0,0,0,0,0,0,0,0,0,0,0,0,0,0,0,0,0,0,0,0,0,0,0,0,0,0,0,0,0,0,0,0,0,0,0,0,0,0,0,0,0,0,0,0,0,0,0,0,0,0,0,0,0,0,0,0,0,0,0,0,
0,0,0,0,0,0,0,0,0,0,0,0,0,0,0,0,0,0,0,0,0,0,0,0,0,0,0,0,0,0,0,0,0,0,0,0,0,0,0,0,0,0,0,0,0,0,0,0,0,0,0,0,0,0,0,0,0,0,0,0,0,0,0,0,0,0,0,0,0,0,0,0,0,0,0,0,0,0,0,0,0,0,0,0,0,0,0,0,0,0,0,0,0,0,0,0,0,0,0,0,0,0,0,0,0,0,0,0,0,0,0,0,0,0,0,0,0,0,0,0,0,0,0,0,0,0,0,0,0,0,0,0,0,0,0,0,0,0,0,0,0,0,0,0,0,0,0,0,0,0,0,0,0,0,0,0,0,0,0,0,0,0,0,0,0,0,0,0,0,0,0,0,0,0,0,0,0,0,0,0,0,0,0,0,0,0,0,0,0,0,0,0,0,0,0,0,0,0,0,0,0,0,0,0,0,0,0,0,0,0,0,0,0,0,0,0,0,0,0,0,0,0,0,0,0,0,0,0,0,0,0,0,0,0,0,0,0,0,0,0,0,0,0,0,0,0,0,0,0,0,0,0,0,0,0,0,0,0,0,0,0,0,0,0,0,0,0,0,0,0,0,0,0,0,0,0,0,0,0,0,0,0,0,0,0,0,0,0,0,0,0,0,0,0,0,0,0,0,0,0,0,0,0,0,0,0,0,0,0,0,0,0,0,0,0,0,0,0,0,0,0,0,
0,0,0,0,0,0,0,0,0,0,0,0,0,0,0,0,0,0,0,0,0,0,0,0,0,0,0,0,0,0,0,0,0,0,0,0,0,0,0,0,0,0,0,0,0,0,0,0,0,0,0,0,0,0,0,0,0,0,0,0,0,0,0,0,0,0,0,0,0,0,0,0,0,0,0,0,0,0,0,0,0,0,0,0,0,0,0,0,0,0,0,0,0,0,0,0,0,0,0,0,0,0,0,0,0,0,0,0,0,0,0,0,0,0,0,0,0,0,0,0,0,0,0,0,0,0,0,0,0,0,0,0,0,0,0,0,0,0,0,0,0,0,0,0,0,0,0,0,0,0,0,0,0,0,0,0,0,0,0,0,0,0,0,0,0,0,0,0,0,0,0,0,0,0,0,0,0,0,0,0,0,0,0,0,0,0,0,0,0,0,0,0,0,0,0,0,0,0,0,0,0,0,0,0,0,0,0,0,0,0,0,0,0,0,0,0,0,0,0,0,0,0,0,0,0,0,0,0,0,0,0,0,0,0,0,0,0,0,0,0,0,0,0,0,0,0,0,0,0,0,0,0,0,0,0,0,0,0,0,0,0,0,0,0,0,0,0,0,0,0,0,0,0,0,0,0,0,0,0,0,0,0,0,0,0,0,0,0,0,0,0,0,0,0,0,0,0,0,0,0,0,0,0,0,0,0,0,0,0,0,0,0,0,0,0,0,0,0,0,0,0,0,
0,0,0,0,0,0,0,0,0,0,0,0,0,0,0,0,0,0,0,0,0,0,0,0,0,0,0,0,0,0,0,0,0,0,0,0,0,0,0,0,0,0,0,0,0,0,0,0,0,0,0,0,0,0,0,0,0,0,0,0,0,0,0,0,0,0,0,0,0,0,0,0,0,0,0,0,0,0,0,0,0,0,0,0,0,0,0,0,0,0,0,0,0,0,0,0,0,0,0,0,0,0,0,0,0,0,0,0,0,0,0,0,0,0,0,0,0,0,0,0,0,0,0,0,0,0,0,0,0,0,0,0,0,0,0,0,0,0,0,0,0,0,0,0,0,0,0,0,0,0,0,0,0,0,0,0,0,0,0,0,0,0,0,0,0,0,0,0,0,0,0,0,0,0,0,0,0,0,0,0,0,0,0,0,0,0,0,0,0,0,0,0,0,0,0,0,0,0,0,0,0,0,0,0,0,0,0,0,0,0,0,0,0,0,0,0,0,0,0,0,0,0,0,0,0,0,0,0,0,0,0,0,0,0,0,0,0,0,0,0,0,0,0,0,0,0,0,0,0,0,0,0,0,0,0,0,0,0,0,0,0,0,0,0,0,0,0,0,0,0,0,0,0,0,0,0,0,0,0,0,0,0,0,0,0,0,0,0,0,0,0,0,0,0,0,0,0,0,0,0,0,0,0,0,0,0,0,0,0,0,0,0,0,0,0,0,0,0,0,0,0,0,
0,0,0,0,0,0,0,0,0,0,0,0,0,0,0,0,0,0,0,0,0,0,0,0,0,0,0,0,0,0,0,0,0,0,0,0,0,0,0,0,0,0,0,0,0,0,0,0,0,0,0,0,0,0,0,0,0,0,0,0,0,0,0,0,0,0,0,0,0,0,0,0,0,0,0,0,0,0,0,0,0,0,0,0,0,0,0,0,0,0,0,0,0,0,0,0,0,0,0,0,0,0,0,0,0,0,0,0,0,0,0,0,0,0,0,0,0,0,0,0,0,0,0,0,0,0,0,0,0,0,0,0,0,0,0,0,0,0,0,0,0,0,0,0,0,0,0,0,0,0,0,0,0,0,0,0,0,0,0,0,0,0,0,0,0,0,0,0,0,0,0,0,0,0,0,0,0,0,0,0,0,0,0,0,0,0,0,0,0,0,0,0,0,0,0,0,0,0,0,0,0,0,0,0,0,0,0,0,0,0,0,0,0,0,0,0,0,0,0,0,0,0,0,0,0,0,0,0,0,0,0,0,0,0,0,0,0,0,0,0,0,0,0,0,0,0,0,0,0,0,0,0,0,0,0,0,0,0,0,0,0,0,0,0,0,0,0,0,0,0,0,0,0,0,0,0,0,0,0,0,0,0,0,0,0,0,0,0,0,0,0,0,0,0,0,0,0,0,0,0,0,0,0,0,0,0,0,0,0,0,0,0,0,0,0,0,0,0,0,0,0,0
</data>
 </layer>
</map>
